/* XPM */
static const char *floor[] = {
/* columns rows colors chars-per-pixel */
"32 32 63 1 ",
"  c #000607",
". c #000708",
"X c #00080A",
"o c #000B0C",
"O c #000D0E",
"+ c #00262A",
"@ c #00292B",
"# c #002E32",
"$ c #003B35",
"% c #003C36",
"& c #00393C",
"* c #004047",
"= c #004349",
"- c #00474C",
"; c #00484D",
": c #004F4E",
"> c #004A50",
", c #004C52",
"< c #004F55",
"1 c #005056",
"2 c #005B5A",
"3 c #005F65",
"4 c #006A6C",
"5 c #006D75",
"6 c #007378",
"7 c #007E7F",
"8 c #007783",
"9 c #007882",
"0 c #007E82",
"q c #007A84",
"w c #007D86",
"e c #007F88",
"r c #008085",
"t c #008088",
"y c #00828E",
"u c #00848D",
"i c #008790",
"p c #008B94",
"a c #009297",
"s c #009D95",
"d c #00A29C",
"f c #00AA9D",
"g c #00AD9F",
"h c #009FA1",
"j c #00A0A2",
"k c #00A3A5",
"l c #00A9A3",
"z c #00A7A8",
"x c #00ABAA",
"c c #00ACAB",
"v c #00ACAC",
"b c #00BAAB",
"n c #00BBAC",
"m c #00BCAD",
"M c #00B1B1",
"N c #00B7B4",
"B c #00BCB5",
"V c #00C7C0",
"C c #00CDC4",
"Z c #00DFD2",
"A c #00E0D3",
"S c #00E3D5",
"R c #F5BF5E",
"D c #00E4D6",
/* pixels */
"8rdnmbbbbbbbbbbbbbbbbbbbbbbbnbla",
"rjVZAZZZZZZZZZZZZZZZZZZZZZZZSZc6",
"sCNjhjjjjjjjjjjjjjjjjjjjjjjjzk4@",
"gDx86999q9999999qqqq9999999qtw* ",
"gScq9wwwwwwwwwwwwwwwwwwwwwwwye=.",
"fAvwqtttttttttttttttttttttttut-X",
"fAvwwtttttttttttttttttttttttut-X",
"fAvwwtttttttttttttttttttttttut-X",
"fAvwqrttttttttttttttttttttttut-X",
"fSvwwrttttttttttttttttttttttut-X",
"fAvwwtttttttttttRtttttttttttut-X",
"fAvwwttttttttttRRRttttttttttut-X",
"fAvwwttttttttttRRRttttttttttut-X",
"fAvwwtttttttttRRRRRtttttttttut-X",
"fAvwwttttttttRRRRRRRttttttttut-X",
"fAvwqttttttttRRRRRRRttttttttut-X",
"fAvwqtttttttRRRRRRRRRtttttttut-X",
"fAvwqttttttRRRRRRRRRRRttttttut-X",
"fAvwqttttttRRRRRRRRRRRttttttut-X",
"fAvwwtttttRRRRRRRRRRRRRtttttut-X",
"fAvwwttttRRRRRRRRRRRRRRRttttut-X",
"fAvwwtttttttttttttttttttttttut-X",
"fAvwwtttttttttttttttttttttttut-X",
"fAvwwtttttttttttttttttttttttut-X",
"fAvwwtttttttttttttttttttttttut-X",
"fAvwwtttttttttttttttttttttttut-X",
"fSvwwtttttttttttttttttttttttut-X",
"fDMttuuuuuuuuuuuuuuuuuuuuuuupi;X",
"fDMttuuuuuuuuuuuuuuuuuuuuuuupu;X",
"dB7,><<<<<<<<<<<<<<<<<<<<<<111&+",
"a0&OoOOOOOOOOOOOOOOOOOOOOOOOOO#3",
"y5:%$%%%%%%%%%%%%%%%%%%%%%%%$%2t"
};
