/* XPM */
static char * enemy_xpm[] = {
"32 32 2 1",
" 	c None",
"X	c #FF0000",
"                                ",
"                                ",
"                                ",
"								 ",
"								 ",
"								 ",
"								 ",
"								 ",
"								 ",
"								 ",
"								 ",
"								 ",
"								 ",
"								 ",
"								 ",
"								 ",
"								 ",
"								 ",
"								 ",
"								 ",
"								 ",
"								 ",
"								 ",
"								 ",
"								 ",
"								 ",
"								 ",
"                                ",
"                                ",
"                                ",
"                                ",
"                                "
};
