/* XPM */
static char * player_xpm[] = {
"32 32 2 1",
" 	c None",
"P	c #00AAFF",
"                                ",
"                                ",
"                                ",
"              PPPP              ",
"             PPPPPP             ",
"             PPPPPP             ",
"              PPPP              ",
"              PPPP              ",
"            PPPPPPPP            ",
"           PPPPPPPPPP           ",
"           PPPPPPPPPP           ",
"           PPPPPPPPPP           ",
"              PPPP              ",
"             PPPPPP             ",
"            PPP  PPP            ",
"           PPP    PPP           ",
"          PPP      PPP          ",
"         PPP        PPP         ",
"         PPP        PPP         ",
"          PPP      PPP          ",
"           PPP    PPP           ",
"            PPP  PPP            ",
"             PPPPPP             ",
"              PPPP              ",
"              PPPP              ",
"             PPPPPP             ",
"            PPPPPPPP            ",
"           PPPPPPPPPP           ",
"          PPPPPPPPPPPP          ",
"                                ",
"                                ",
"                                "
};
