/* XPM */
static const char *collectible2[] = {
/* columns rows colors chars-per-pixel */
"32 32 230 2 ",
"   c #147316",
".  c #187D1A",
"X  c #3A6400",
"o  c #3C6A01",
"O  c #247E1F",
"+  c #1F7823",
"@  c #217B24",
"#  c #287A34",
"$  c #3C7333",
"%  c #317B31",
"&  c #34783E",
"*  c #427807",
"=  c #407C24",
"-  c #637A38",
";  c #3C7045",
":  c #41784F",
">  c #4C784C",
",  c #5D7D44",
"<  c #467B54",
"1  c #57765B",
"2  c #677B59",
"3  c #5A7462",
"4  c #636E65",
"5  c #7A6B6A",
"6  c #63736F",
"7  c #69756C",
"8  c #7C736E",
"9  c #646F7B",
"0  c #716D76",
"q  c #6E7373",
"w  c #6C727A",
"e  c #6A757B",
"r  c #737475",
"t  c #777674",
"y  c #74737C",
"u  c #7A747A",
"i  c #A63400",
"p  c #A73900",
"a  c #B22E14",
"s  c #BA381C",
"d  c #AD3C28",
"f  c #B83B25",
"g  c #C41F03",
"h  c #D61600",
"j  c #DC1C00",
"k  c #E21F00",
"l  c #CE2505",
"z  c #C82A0B",
"x  c #CF2C0C",
"c  c #D62502",
"v  c #DB2401",
"b  c #D72A06",
"n  c #DB2B02",
"m  c #CE320F",
"M  c #DC3205",
"N  c #DE3708",
"B  c #DE3A09",
"V  c #C82F10",
"C  c #C63415",
"Z  c #D93916",
"A  c #E32501",
"S  c #E42D03",
"D  c #E33203",
"F  c #E83A07",
"G  c #E23B0B",
"H  c #B14E08",
"J  c #BC6813",
"K  c #9A4A39",
"L  c #B1422E",
"P  c #B84329",
"I  c #A54B38",
"U  c #B3553B",
"Y  c #BD793E",
"T  c #DF400C",
"R  c #CB481B",
"E  c #D94718",
"W  c #E2440D",
"Q  c #E84809",
"!  c #EC4711",
"~  c #E44D12",
"^  c #EF4F10",
"/  c #EB5915",
"(  c #F65614",
")  c #C2791B",
"_  c #EF6617",
"`  c #EC651E",
"'  c #F9671C",
"]  c #F6711F",
"[  c #C64725",
"{  c #D1532A",
"}  c #E45128",
"|  c #C86132",
" . c #D66E3A",
".. c #EA6B24",
"X. c #F46C23",
"o. c #ED7426",
"O. c #F27525",
"+. c #F67927",
"@. c #FB7D2A",
"#. c #E86637",
"$. c #EF7F3A",
"%. c #984D43",
"&. c #975649",
"*. c #8A5C54",
"=. c #945952",
"-. c #A4564A",
";. c #A4554E",
":. c #8A6359",
">. c #936556",
",. c #8F7951",
"<. c #B36F4C",
"1. c #A77558",
"2. c #B27853",
"3. c #856866",
"4. c #8A6768",
"5. c #856A6B",
"6. c #8A7767",
"7. c #84786D",
"8. c #997A66",
"9. c #857575",
"0. c #927B76",
"q. c #AF736B",
"w. c #C55944",
"e. c #D27550",
"r. c #EA6E46",
"t. c #EA6A55",
"y. c #EB7866",
"u. c #2A821C",
"i. c #36861A",
"p. c #37833A",
"a. c #46840D",
"s. c #438A13",
"d. c #6C8A16",
"f. c #328442",
"g. c #5B8A5E",
"h. c #778350",
"j. c #4F8562",
"k. c #60B26D",
"l. c #988D2A",
"z. c #B29530",
"x. c #C58924",
"c. c #CF9232",
"v. c #F6842E",
"b. c #FA842A",
"n. c #FB8B2E",
"m. c #E98839",
"M. c #F68730",
"N. c #F58634",
"B. c #F88C31",
"V. c #ED943E",
"C. c #FB9334",
"Z. c #FD9A35",
"A. c #F5973B",
"S. c #F69A3D",
"D. c #FD9C3A",
"F. c #FFA035",
"G. c #FFA33C",
"H. c #918B4B",
"J. c #A89344",
"K. c #A8835E",
"L. c #BA8657",
"P. c #9D8264",
"I. c #92807C",
"U. c #A28261",
"Y. c #AF8763",
"T. c #B88764",
"R. c #CB8844",
"E. c #CA8A4E",
"W. c #D48A47",
"Q. c #DB9249",
"!. c #CA8B51",
"~. c #D28D54",
"^. c #D79755",
"/. c #E89544",
"(. c #FA9043",
"). c #E39A55",
"_. c #FFA843",
"`. c #FAA956",
"'. c #CE9074",
"]. c #EE8A6E",
"[. c #F7B572",
"{. c #FDBB79",
"}. c #FFC47C",
"|. c #6F7A83",
" X c #737582",
".X c #7B7484",
"XX c #747688",
"oX c #817782",
"OX c #798884",
"+X c #77CA84",
"@X c #7AD088",
"#X c #96898A",
"$X c #8B968C",
"%X c #9B969C",
"&X c #A78D90",
"*X c #86BB98",
"=X c #9D9AA6",
"-X c #A99BA5",
";X c #A8ACB1",
":X c #B9ADB3",
">X c #E39389",
",X c #F2B389",
"<X c #CFB3B3",
"1X c #F5B1A8",
"2X c #F2B1AD",
"3X c #98CDA3",
"4X c #AEE4BC",
"5X c #FDCD9D",
"6X c #F0C4A6",
"7X c #FFD8AC",
"8X c #F5CAB6",
"9X c #CDBCC3",
"0X c #BDCDC8",
"qX c #B2E9C1",
"wX c #D1C7CD",
"eX c #D5D8D7",
"rX c #E9CDC6",
"tX c #F9D9C8",
"yX c #E7D6D6",
"uX c #F8DAD6",
"iX c #FBE3CA",
"pX c #CAD6E1",
"aX c #E4DCE3",
"sX c #EDE9EE",
"dX c #FAEAEA",
"fX c #FFF6E1",
"gX c #E9EDF5",
"hX c #EBF9F4",
"jX c #FBF7F7",
"kX c #FDFDFD",
/* pixels */
"  . . O i.i.s.a.* * o X X X o o X X X X o * a.s.s.i.u.O + + @ @ ",
"@ & 1 2 H.J.z.x.) J H i i i p p i i i p H J x.c.z.H.h.2 1 3 3 3 ",
"# < q 0.q.e.$.@.X.( ^ ! F S A A A S F ! ( ' X.@.$.e.8.9. XXX.X.X",
"# < q 5.;.[ E ! ( X.@.@.X.! D n G / O.b.@.' ^ W R U :.t |.XX.Xu ",
"# < 7 3.&.f l n F / O.+.` ~ M c B / o.+.X./ D c z f I =.3.5.9.u ",
"# : 7 3.;.f x v A D B B N n v c c M B B N M c v c b x C P -.:.5.",
"# ; 7 3.-.f l v A S B T W W W W W W W B B M n c v A A v x L =.3.",
"# : 7 3.-.f l v F / O.v.M.M.v.v.v.v.v.@.../ B c v j k v m L =.3.",
"+ ; 4 5.q.e.t.r.r.(.D.G.G.G.G.D.G._._.D.M.` W n j j j v Z w.q.&X",
"+ $ 4 oX-X9XyXtX7X{.`.D.Z.Z.Z.D.D.G.G.D.v.` W n j h h v E y.2XyX",
"p.g.$X-X<XwXrX8X,X].N.O.+.b.C.Z.C.B.v.O.` ~ N c l g a s w.>XuXjX",
"k.3XeXyX2X].r.} Z Z N W / O.B.C.v...~ B n v v c z d K *.0.:XaXkX",
"@XqXhXdX1Xt.b h h v B ~ ` +.C.C.B.o./ W N v j c C U 8.%X;XpXgXkX",
"+X4XhXdX1Xt.Z v M ~ O.B.C.Z.D.D.D.C.C.v._ Q n v Z e.<XyXgXkXkXkX",
"+X4XhXdX8X].} Q Q / O.@.n.C.D.D.Z.n.b.+.O.#.#.t.].1XuXjXkXjXsXaX",
"+X4XhXjXtX,X(.O./ Q G W / O.C.Z.b._ Q G } ].1XuXdXjXkXkXsXeX:X%X",
"k.*X0XrX6X{._.C.o.{ P f [ { ..o...R s f w.'.6XiXfXjXkXkXgXwX%Xu ",
"f.j.OX#X'.).D.A.Q.2.6.:.&.P Z B R I *.3.8.L.).`.}.7XfXjXgXwX=XoX",
"= - ,.1.L.!.W.E.L.1.>.=.I s l c z d %.*.>.<.Y R.).[.5X7XtXrX<X:X",
"d.l.c./.~.Y.8.6.>.I s V x c c c c b x C P I >.6.P.L.).`.[.5XiXdX",
"d.l.R.~.T.0.r 5 >.U E Q F S v v n D F Q { -.5 w r 6.2.R.^.,X8XyX",
"$ , 6.0.9.y r 8 8.E.m.@.' Q M c G ^ ] v.W.L.6.r e r 8 7.6.I.#X#X",
"# : 6 y  Xw w 7.U.~./.Z.b.' / ~ / +.C.D.V.R.<.&.*.5 5 w w w 0 0 ",
"# > 7 y  Xw w 7.U.E./.Z.Z.C.n.B.C.Z.D.Z.v.` T m s K *.5 w  Xy y ",
"% > 7 y y y r 7.8.E./.Z.Z.F.F.G.S./.Q.W.e.| [ f L %.:.8 r  Xu u ",
"% > 7 y y y r 7.8.E./.Z.Z.Z.D.S./.!.P.6.8 5 3.3.3.5 8 r r u u u ",
"% > 7 y y y r 7.K.E.V.A.A.V.Q.E.L.8.8 w 9 e e e e r r r t u u u ",
"% > 7 y y y r 7.K.W.V.A./.!.8.7.t r r r r r r r r r r r t u u u ",
"% > 7 y y y r 7.K.W.A.S.Q.K.7.w 9 9 w r r r r r r r r r r u u u ",
"% > 7 y y y r 7.K.W.A.S.Q.L.6.r w w w r r r r r r r r r r u u u ",
"% > q u .X Xy 9.1. ...X. .<.6.u y y y u u u u u u u u u u u oX9.",
"% > q u .XXXy 5.;.[ Z G [ -.4.y  Xy y u u u u u u u u u u u oXu "
};
