/* XPM */
static const char *collectible1[] = {
/* columns rows colors chars-per-pixel */
"32 32 221 2 ",
"   c #097F00",
".  c #147C18",
"X  c #267925",
"o  c #237B2C",
"O  c #2A7C2A",
"+  c #377E27",
"@  c #2E7A33",
"#  c #347934",
"$  c #575500",
"%  c #595B00",
"&  c #616B06",
"*  c #687D0E",
"=  c #537C3A",
"-  c #397747",
";  c #447945",
":  c #5A715F",
">  c #74795B",
",  c #5E6F67",
"<  c #5D7568",
"1  c #676D67",
"2  c #786B6A",
"3  c #647664",
"4  c #66756C",
"5  c #6C746C",
"6  c #777569",
"7  c #7D756D",
"8  c #696D79",
"9  c #766E77",
"0  c #6C7275",
"q  c #6B727A",
"w  c #6B767B",
"e  c #747475",
"r  c #7D7572",
"t  c #717871",
"y  c #73737C",
"u  c #7A737A",
"i  c #7A797C",
"p  c #B9381D",
"a  c #B73F26",
"s  c #D20A00",
"d  c #D31300",
"f  c #D61D01",
"g  c #DA1800",
"h  c #C52906",
"j  c #C82B01",
"k  c #D62402",
"l  c #D92401",
"z  c #DB2C03",
"x  c #D62108",
"c  c #CD3A0B",
"v  c #DB3305",
"b  c #D9360B",
"n  c #D92E11",
"m  c #CD3A16",
"M  c #D93414",
"N  c #DE3C1A",
"B  c #E62E09",
"V  c #E13A04",
"C  c #E43608",
"Z  c #DF3F21",
"A  c #A64431",
"S  c #B84533",
"D  c #D9540F",
"F  c #DE461E",
"G  c #DC5614",
"H  c #E3460D",
"J  c #E54C0C",
"K  c #EA4B09",
"L  c #EF550F",
"P  c #F1500F",
"I  c #E94510",
"U  c #E44C12",
"Y  c #E75518",
"T  c #E95D1A",
"R  c #F65B1A",
"E  c #ED6416",
"W  c #EB631C",
"Q  c #FD641C",
"!  c #F2691B",
"~  c #E5751E",
"^  c #F1701E",
"/  c #CF4E2C",
"(  c #DD4626",
")  c #E14A27",
"_  c #E55A27",
"`  c #E15033",
"'  c #D66F37",
"]  c #EC6825",
"[  c #ED6B2C",
"{  c #F36C24",
"}  c #ED742B",
"|  c #F57B27",
" . c #EB7836",
".. c #8C5A4B",
"X. c #9B5A53",
"o. c #A75849",
"O. c #89665D",
"+. c #867D52",
"@. c #9C7C5A",
"#. c #B17447",
"$. c #AB7258",
"%. c #856965",
"&. c #86766B",
"*. c #9A7D64",
"=. c #837776",
"-. c #8E7072",
";. c #A66A62",
":. c #A27464",
">. c #B57874",
",. c #D85946",
"<. c #E05D46",
"1. c #CA6C45",
"2. c #E36646",
"3. c #E9714A",
"4. c #E9775D",
"5. c #F07558",
"6. c #DB7C67",
"7. c #EB7A65",
"8. c #F27865",
"9. c #058005",
"0. c #0A8003",
"q. c #308837",
"w. c #4F8211",
"e. c #688C19",
"r. c #65901D",
"t. c #4E8828",
"y. c #7F8320",
"u. c #3F9A48",
"i. c #40804E",
"p. c #609965",
"a. c #5CB766",
"s. c #69A976",
"d. c #88851B",
"f. c #BD8936",
"g. c #CA8639",
"h. c #D6883E",
"j. c #DD953D",
"k. c #E88D2D",
"l. c #F6842D",
"z. c #F9862F",
"x. c #FA8A2E",
"c. c #F98D31",
"v. c #ED943A",
"b. c #FB9434",
"n. c #FD9B35",
"m. c #F3963C",
"M. c #F4993D",
"N. c #FD9B39",
"B. c #FFA13C",
"V. c #9B825D",
"C. c #A4825E",
"Z. c #AA845D",
"A. c #B78758",
"S. c #9D8165",
"D. c #A78268",
"F. c #B48D72",
"G. c #CA894D",
"H. c #D48C49",
"J. c #C7904B",
"K. c #DA924A",
"L. c #C78E53",
"P. c #D48F56",
"I. c #E89745",
"U. c #ED9A48",
"Y. c #FFA941",
"T. c #F6A65A",
"R. c #CD966E",
"E. c #EF8171",
"W. c #ED9178",
"Q. c #F5B06F",
"!. c #FEB66A",
"~. c #766F84",
"^. c #777784",
"/. c #817781",
"(. c #828287",
"). c #8E8B92",
"_. c #979698",
"`. c #A18A87",
"'. c #B79B9C",
"]. c #91A594",
"[. c #ACA098",
"{. c #9295A0",
"}. c #A59EA8",
"|. c #9DA6A7",
" X c #9CB5A5",
".X c #B8ADAE",
"XX c #ACADB2",
"oX c #CB8886",
"OX c #EB9786",
"+X c #ED9C8B",
"@X c #F3B091",
"#X c #DEB2AE",
"$X c #CAB5BA",
"%X c #EAB4AA",
"&X c #F5B7AA",
"*X c #F7BBB6",
"=X c #FCBDBA",
"-X c #8FCE9B",
";X c #98D8A6",
":X c #BAC0BF",
">X c #FFC68C",
",X c #FECC94",
"<X c #DFC5B7",
"1X c #F9C8A9",
"2X c #FAC2B7",
"3X c #EBD3BB",
"4X c #FEDBBB",
"5X c #C8C5CD",
"6X c #F7CAC5",
"7X c #E8DCDA",
"8X c #D1EADA",
"9X c #FAE3C7",
"0X c #FAE1D5",
"qX c #D6DCE3",
"wX c #D7E2EC",
"eX c #DCF8E8",
"rX c #E6E5E4",
"tX c #F7EAE9",
"yX c #EFF3EE",
"uX c #FAF4F5",
"iX c #F5FEFD",
/* pixels */
"9.9.9.9.9.0.0.0.            0.              0.0.0.9.9.9.9.9.9.9.",
". . O # t.t.r.e.* & % $ $ $ % % % $ $ % & * e.r.t.t.+ @ @ @ @ O ",
"o - : 6 S.L.j.k.~ G c j j j j j j j j c D ~ k.j.J.V.6 0 q 0 5 3 ",
"o - , r ;.1.[ { Q Q R R I C B B B I R R Q Q Q [ 1.:.=.^.^.~.9 1 ",
"q.i.4 =.X.S m C P ^ z.z.{ U z z H ] z.z.{ P C n a X.%.y ^.^.i t ",
"u.s. X.XoX,.M l z H T T U b l l v U T T U V l k h p A o.>.'..XXX",
"a.;XeXtX=X7.( x f l z v v z z z z v v v z z z k f f k ( 7.*XtXyX",
"a.;XeXuX6XE.) l z V Y T W W W W W W T Y U b z k g g g N 8.2XuXiX",
"a.;XeXuX=X8.Z z V E l.N.N.N.b.b.N.N.N.c.{ Y v k d d f N 8.=XtXiX",
"a.;XeXuX=X8.M l V E b.B.Y.B.B.B.B.Y.Y.N.| Y v f d s d M 5.=XuXiX",
"a.-X8XtX=XE.` N U W l.b.N.N.N.N.N.N.b.l.] U v k f x n ( E.=XrXyX",
"q.p.]..X$X#X%X@XW.3._ Y E | b.b.l.{ T H b z l b ` 4.OX%X#X$X.X|.",
"X # : /.}.5XrX0X&X4.) b J ^ b.b.| T H z f d f N 4.*XtXyXqXXX(.1 ",
"X - , 9 -.>.6.7.5. .[ { | x.b.b.b.l.| W H z f N 7.2XuXiXwXXX^.1 ",
"o - 3 7 X.S m C K E | c.b.N.N.N.N.b.c.| E H v F 4.%X7XrX5X}.(.1 ",
"o - < r $.1.] E L K H J E l.N.N.l.! J K K L !  .P.R.[.|.{.).i 5 ",
"o - < r D.P.I.b.| ] ) ( _ } l.l.} _ ( ) ] | b.v.J.C.7 8 8 y e 5 ",
"o - < e :.G.v.N.T.@X1X&XOX3._ Y 2.W.%X2X@X!.N.k.g.@.6 8 8 y e 5 ",
"O = > *.F.P.T.!.>X4X0X6X+X2.M M ` OX6X0X4X,X!.T.P.A.*.&.r u e 5 ",
"w.y.f.K.Q.1X9X9X1X+X7.<.( M z k n ( ,.4.OX1X9X9X1XQ.K.g.#.*.7 5 ",
"w.d.g.U.@X3XrX7X%X7.F z l l k k l l z F 4.#X7XrX9X,X!.T.P.F.=.4 ",
"+ = +.S.`._._._.F.P. .! L V z l C P !  .G.F._.|.:X7X0X9X<X'.=.5 ",
"O ; < q y 8 8 6 V.L.U.b.| E H H T | b.M.h.#...%.`.$XqXqX5X}./.5 ",
"O ; 3 e y 8 0 7 @.G.I.N.b.x.l.l.x.N.n.b.| G c p o.:.`.{.).(.i 5 ",
"O ; 3 e y y 0 7 *.G.I.N.n.n.B.N.M.U.I.H.' / m p A ..2 0 q y e 5 ",
"O ; 3 e y y 0 7 *.G.v.N.n.n.n.M.K.A.*.&.%.O.O.O.%.2 2 e e u e 5 ",
"O ; 3 e y y y r D.G.v.N.N.m.I.G.A.*.e q 8 w w w e e e e u u e 5 ",
"O ; 3 e y y y =.C.H.m.m.I.A.*.&.r e e e 0 e e e e e e e u u e 5 ",
"O ; 3 e y y y =.C.H.M.M.K.Z.r q 8 q e e e e e e e e e e u u e 5 ",
"O ; 3 e y y y =.C.H.M.M.K.Z.&.0 q 0 e e e e e e e e e e u u e 5 ",
"O ; 4 u ^.^.y =.$.1.[ [ ' $.&.y y y y u u u u u u u u u u /.u e ",
"O ; 4 u ^.^.y &.X./ M b / o.%.y y y y u u u u u u u u u u /.u e "
};
