/* XPM */
static char * enemy_xpm[] = {
"32 32 2 1",
" 	c None",
"X	c #FF0000",
"                                ",
"                                ",
"                                ",
"         XX          XX         ",
"        XXXX        XXXX        ",
"       XXXXXX      XXXXXX       ",
"      XXXXXXXX    XXXXXXXX      ",
"      XXXXXXXX    XXXXXXXX      ",
"       XXXXXX      XXXXXX       ",
"        XXXX        XXXX        ",
"         XX          XX         ",
"         XX          XX         ",
"        XXXX        XXXX        ",
"       XXXXXX      XXXXXX       ",
"      XXXXXXXX    XXXXXXXX      ",
"      XXXXXXXX    XXXXXXXX      ",
"     XX    XX    XX    XX       ",
"    XX      XX  XX      XX      ",
"   XX        XXXX        XX     ",
"  XX          XX          XX    ",
" XX           XX           XX   ",
"XX            XX            XX  ",
"XX            XX            XX  ",
"XX            XX            XX  ",
" XX          XXXX          XX   ",
"  XXXXXXXXXXXXXXXX XXXXXXXX     ",
"   XXXXXXXXXXXXXX   XXXXXXX     ",
"                                ",
"                                ",
"                                ",
"                                ",
"                                "
};
