/* XPM */
static const char *fire[] = {
/* columns rows colors chars-per-pixel */
"30 30 186 2 ",
"   c #0A7F02",
".  c #377A37",
"X  c #397936",
"o  c #347C3A",
"O  c #665703",
"+  c #556315",
"@  c #516619",
"#  c #7C6B66",
"$  c #7B6968",
"%  c #7B6D6A",
"&  c #6E756E",
"*  c #74726E",
"=  c #79726E",
"-  c #7A6E71",
";  c #6E7474",
":  c #6D787A",
">  c #737473",
",  c #7A7273",
"<  c #74767C",
"1  c #79737A",
"2  c #74787F",
"3  c #787978",
"4  c #BD3A1C",
"5  c #BA3B24",
"6  c #BC3D24",
"7  c #D51D00",
"8  c #DD1D00",
"9  c #E21E00",
"0  c #EA1F00",
"q  c #CD2E07",
"w  c #CF2708",
"e  c #CF2F0D",
"r  c #D62300",
"t  c #DB2501",
"y  c #D62A05",
"u  c #D92A02",
"i  c #D32C09",
"p  c #D9290A",
"a  c #CD310E",
"s  c #DB3105",
"d  c #D2340E",
"f  c #DE3C0A",
"g  c #CC2910",
"h  c #C63515",
"j  c #CB3212",
"k  c #C13618",
"l  c #CC351C",
"z  c #C3391B",
"x  c #E12302",
"c  c #E92801",
"v  c #E53405",
"b  c #E83505",
"n  c #E33C07",
"m  c #E83608",
"M  c #E23D09",
"N  c #C23B24",
"B  c #C13D28",
"V  c #9F4B3C",
"C  c #9C533E",
"Z  c #AB462F",
"A  c #B84025",
"S  c #B3442B",
"D  c #BB412B",
"F  c #AB4732",
"G  c #A64D35",
"H  c #AC4A33",
"J  c #A44D3B",
"K  c #AC4C3B",
"L  c #B44535",
"P  c #B84431",
"I  c #B2493A",
"U  c #A3513E",
"Y  c #AF5338",
"T  c #B25E3E",
"R  c #E2440E",
"E  c #E94A0C",
"W  c #F14104",
"Q  c #E44C12",
"!  c #ED4810",
"~  c #E65316",
"^  c #E95213",
"/  c #E75818",
"(  c #E95D1A",
")  c #EB621D",
"_  c #EF6C1E",
"`  c #F96E1D",
"'  c #FA711E",
"]  c #C95F30",
"[  c #C66335",
"{  c #ED6B21",
"}  c #EF7024",
"|  c #F17324",
" . c #F97426",
".. c #F47B26",
"X. c #F37D2A",
"o. c #EE7939",
"O. c #9D5444",
"+. c #9B5749",
"@. c #955A4D",
"#. c #99594A",
"$. c #8D5E55",
"%. c #955D53",
"&. c #9C5951",
"*. c #935A58",
"=. c #A94E44",
"-. c #A35243",
";. c #A85146",
":. c #A3544A",
">. c #8D6055",
",. c #8A635B",
"<. c #946052",
"1. c #93605D",
"2. c #AE6444",
"3. c #BF7646",
"4. c #B36D53",
"5. c #A77656",
"6. c #BA7F51",
"7. c #816662",
"8. c #8B6563",
"9. c #836B64",
"0. c #896965",
"q. c #846B6C",
"w. c #88696B",
"e. c #897B6C",
"r. c #816F74",
"t. c #837C70",
"y. c #957F72",
"u. c #068006",
"i. c #F7842A",
"p. c #F6842E",
"a. c #FA8D2C",
"s. c #FC932F",
"d. c #FF9E2F",
"f. c #ED8F3D",
"g. c #F68531",
"h. c #F78931",
"j. c #F88D32",
"k. c #FB9435",
"l. c #FE9A32",
"z. c #FB9639",
"x. c #FD9C3B",
"c. c #FFA43C",
"v. c #AD855D",
"b. c #B88857",
"n. c #A68561",
"m. c #A58469",
"M. c #B58763",
"N. c #D38C49",
"B. c #DA9249",
"V. c #CA8A56",
"C. c #E69142",
"Z. c #EF8C5A",
"A. c #FCA14A",
"S. c #FCA450",
"D. c #FFAC50",
"F. c #FEAD5B",
"G. c #FDB265",
"H. c #FDB56A",
"J. c #FFBB6D",
"K. c #FAB77C",
"L. c #6B7A82",
"P. c #7D7582",
"I. c #747881",
"U. c #727984",
"Y. c #797887",
"T. c #807280",
"R. c #FCBF83",
"E. c #FDC285",
"W. c #FDC68D",
"Q. c #FBC593",
"!. c #FCC997",
"~. c #FCCB9C",
"^. c #FCCFA4",
"/. c #FCD1A6",
"(. c #FCD3AD",
"). c #FCD6B2",
"_. c #FCE4CB",
"`. c #FCE7D3",
"'. c #FDEAD5",
"]. c #FDEEDD",
"[. c #FCEFE2",
"{. c #FCF2E5",
"}. c #FCF3EB",
"|. c #FCF6F0",
" X c #FCF9F5",
".X c #FCFDFD",
/* pixels */
"u.u.        u.u.u.u.      u.u.u.u.u.u.u.u.u.u.u.u.u.u.u.u.u.",
"o X @ O @ X o . o X + O @ o o . X . o o o . o o o . X . . . ",
"2 > G q Z * : > : * G j G # ; > > > * % * > > = > > > > 1 & ",
"Y.1 L x P , I.1 I.< 8.;.L I 1.< U., :.L *.3 m.V.m.2 < 1 T.> ",
"I., U k J , : , % # < > H i S 9.: > J h G 0.b.C.6.9.- > 1 > ",
"1 > 7.$.7.> : > +.S %.< U y i A >.< % #.F A 2.5.T S @.> < > ",
"1 , t.e.t.< : = H y S $.H y x u S ,.: < H i J % F y H > I.> ",
"< , v.B.v.3 L.> G y i h a u t u i 4 >.> J i J % H y H > I.> ",
"< < n.N.3.<.% > U u 9 t u u u u t t S +.A i U % @.S @.> < ; ",
"1 < 3 e.Y h O.% -.y t u u u u u u u i a y i U > > % = > 1 > ",
"1.+.# ; J u z U O.F k u u u r u R / M t 8 i O.< # @.5.v.y.* ",
"I j J % -.y x e U 9.U y t u r u ) h.) u 8 i O.$ V d ) f.M.* ",
"L t j H 6 y 8 u ] b.[ y t u r r R ) { ) R y 4 H k u W ( 4.* ",
"K j u u u u r u ) h.) u r r u s u u { j.) u r y u u t i ;.* ",
"=.O.A u t u r u R ^ M r 7 u ~ { R u ) k.) u 7 t u u t i ;.* ",
";., +.i t u u u r r s f u u ) k.( u ) k.{ f u u r u x i ;.> ",
";.> +.i t u u u 7 r / ..Q u ) k.( u ( k.k.| Q r r u x u ;.; ",
"P %.H y t u r r s R ) ..( Q { a._ Q { z.c.x.| R u u j 6 ;.>.",
"p j e u u u r u / X.) f ( p.k.k.a.p.j.x.x.x.z.X.E i J ,.K 4 ",
"0 t u u r r s ~ X.x.| E _ x.G.K.F.x.l.s...} j.z.( y Z +.N u ",
"x u u u r u / h.x.x.k.j.a.A.~.].!.x.l.k.( f { k.) u w i t y ",
"l y t u f ( X.x.l.k.G.W.F.x.^. X~.x.G.Q.Z.( ..k.) u 7 t 0 r ",
"I i 8 u ( k.x.x.k.A./.{.!.S.^.}.~.S.!.].Q.z.s.j.( u r u x e ",
"I p 8 u ) x.c.x.H.).{..X'.(.`. X'.(.~.Q.H.x.../ f u t y B C ",
";.j r u / h.s.x.W.[..X.X.X X.X.X.X|.!.x.l.k.( u r u t i ;.* ",
"w.@.5 y v Q | x.F.R._..X.X.X.X.X.X.X~.x.d.z.( r 7 u x u ;.; ",
"U., U i 8 u Q X.a.x.E.`.].'.'.'.].`.K.g.i...^ u t u i z &.* ",
"U., J u 9 t u R _ l.D.G.H.H.H.H.J.G.o.R n n v t 9 u S ,.r.> ",
"P.1 &.D N N g t !  . .' ` ` ` '  .` ! t g 5 6 6 N D %.< P., ",
"P.1 r.0.q.8.L t c m b b b b b b b b c t L 8.q.0.0.0.- 1 P., "
};
