/* XPM */
static const char *player1[] = {
/* columns rows colors chars-per-pixel */
"32 32 211 2 ",
"   c #4D764F",
".  c #4D784D",
"X  c #4C7254",
"o  c #527852",
"O  c #7F7D55",
"+  c #7D6D6A",
"@  c #6C756D",
"#  c #79766B",
"$  c #7D706C",
"%  c #747F6A",
"&  c #766F7B",
"*  c #6A7279",
"=  c #6D727B",
"-  c #747376",
";  c #797473",
":  c #7B7874",
">  c #73737B",
",  c #7B737B",
"<  c #CD3E0A",
"1  c #D03B0B",
"2  c #BE5B0C",
"3  c #B94D1C",
"4  c #BD511E",
"5  c #B56E06",
"6  c #BA6609",
"7  c #BC690D",
"8  c #AD720B",
"9  c #AD7D0D",
"0  c #B2750D",
"q  c #B4790F",
"w  c #A77216",
"e  c #B87A11",
"r  c #B54D22",
"t  c #A9572C",
"y  c #B7572B",
"u  c #A75838",
"i  c #9C6638",
"p  c #B7662C",
"a  c #A57423",
"s  c #C34407",
"d  c #CE4601",
"f  c #CC4C05",
"g  c #C54609",
"h  c #CA440A",
"j  c #C54A0A",
"k  c #C94B0C",
"l  c #D04C0C",
"z  c #C4530C",
"x  c #CD520D",
"c  c #C15A0B",
"v  c #D55209",
"b  c #C34D14",
"n  c #C34A1B",
"m  c #CE5310",
"M  c #C1511B",
"N  c #D95110",
"B  c #D35B15",
"V  c #D95E14",
"C  c #DA5D19",
"Z  c #E45D1D",
"A  c #C06802",
"S  c #C96313",
"D  c #D5621B",
"F  c #D56718",
"G  c #DA641A",
"H  c #DC691D",
"J  c #C37315",
"K  c #C87717",
"L  c #E36A1C",
"P  c #E6681E",
"I  c #F27A1F",
"U  c #D97527",
"Y  c #E46D21",
"T  c #ED6F26",
"R  c #E47223",
"E  c #EC7325",
"W  c #EC7C29",
"Q  c #F37C2C",
"!  c #FC7B30",
"~  c #A25E41",
"^  c #94624F",
"/  c #88695B",
"(  c #966457",
")  c #986557",
"_  c #A57558",
"`  c #856968",
"'  c #88776D",
"]  c #867A6C",
"[  c #8A7A6A",
"{  c #967C64",
"}  c #9B7E63",
"|  c #877571",
" . c #977C70",
".. c #A37C66",
"X. c #56B906",
"o. c #55B40B",
"O. c #51942F",
"+. c #78BD26",
"@. c #7AA73D",
"#. c #7BAA3B",
"$. c #73B537",
"%. c #77D10A",
"&. c #76D30C",
"*. c #7DD30E",
"=. c #74DC0E",
"-. c #7BDC0D",
";. c #7BCE17",
":. c #7FD210",
">. c #79DC11",
",. c #76E211",
"<. c #73C42A",
"1. c #7B8F5A",
"2. c #768166",
"3. c #738169",
"4. c #6D9164",
"5. c #9E890A",
"6. c #9C990C",
"7. c #9F9D10",
"8. c #A8840B",
"9. c #A48C0E",
"0. c #A2920D",
"q. c #B78D16",
"w. c #B39713",
"e. c #93A70D",
"r. c #95AD0B",
"t. c #87B10B",
"y. c #8ABD0D",
"u. c #93B806",
"i. c #99AE12",
"p. c #8CB813",
"a. c #91BC12",
"s. c #A8A616",
"d. c #ABAA19",
"f. c #A7B81A",
"g. c #B4BC1E",
"h. c #818C3C",
"j. c #879439",
"k. c #85AE31",
"l. c #93AB38",
"z. c #BFA620",
"x. c #B8B622",
"c. c #BBBA24",
"v. c #D98722",
"b. c #D39132",
"n. c #ED832C",
"m. c #E68829",
"M. c #F2852D",
"N. c #F3892E",
"B. c #F9892B",
"V. c #E5972D",
"C. c #F9902F",
"Z. c #E98A35",
"A. c #F78430",
"S. c #F58D32",
"D. c #FB8C34",
"F. c #EF9C33",
"G. c #EC943F",
"H. c #F39032",
"J. c #FB9435",
"K. c #F39D36",
"L. c #FE9D34",
"P. c #F3953D",
"I. c #FD9539",
"U. c #F39B3F",
"Y. c #FD9B3A",
"T. c #C9AA25",
"R. c #D9A92D",
"E. c #D4B22D",
"W. c #E6AA2D",
"Q. c #F1A32E",
"!. c #E4A431",
"~. c #E9A133",
"^. c #E5AA33",
"/. c #F1A135",
"(. c #FFA136",
"). c #FEA03A",
"_. c #83C50D",
"`. c #86C80E",
"'. c #81D40C",
"]. c #8AC711",
"[. c #84CC11",
"{. c #98C917",
"}. c #9DCB1C",
"|. c #80D011",
" X c #82DC11",
".X c #AAC41F",
"XX c #A1CA19",
"oX c #82E00E",
"OX c #82C526",
"+X c #B4C524",
"@X c #82854F",
"#X c #BF9647",
"$X c #AC825C",
"%X c #BF8758",
"&X c #81A940",
"*X c #9D8266",
"=X c #A58060",
"-X c #C69544",
";X c #DE9046",
":X c #DF924A",
">X c #C28C54",
",X c #E48E44",
"<X c #E98F45",
"1X c #E39243",
"2X c #EB9543",
"3X c #E29348",
"4X c #F09843",
"5X c #6F6B80",
"6X c #6D7482",
"7X c #767681",
"8X c #817381",
/* pixels */
"            X   O.o.X.o.o.o.o.o.o.o.o.X.o.O.X X             o . ",
"- - - - - - - 2.@.;.'.'.|.|.:.|.|.|.'.'.;.@.2.- - - - - - - , @ ",
", , > > > : 1.&XOX XoX X X X X X X X X X XOX&X1.: & > > > , 8X- ",
"- ; ; ; & % #.[.'.[.[.[.[.[.[.[.[.[.[.[.[.'.[.#.% & ; ; - - , @ ",
"- [ $X$X| 3.$.*.u.0.9.9.0.0.0.0.0.0.9.9.0.u.-.$.3.| $X$X' - , @ ",
"- } ;X,X} 3.$.`.0.c k z z z z z z z z k c 0.[.$.% ..,X;X} - > @ ",
"- =XG.2X} @ h.0.5 h 1 1 < < h h h < 1 < h 5 6.h.@ ..2XG.} - > @ ",
"- } 1X2X*X+ i c f k h k k k k k k k k h k f c i $ *X2X1X} - > @ ",
"- } 1XP.>X_ y h N G J 9 e F H H F e 9 J G N h y _ >XP.1X} - > @ ",
"- } ;XY.U.Z.D k P N.T.a.f.V.D.D.V.f.a.T.N.P k D Z.U.Y.;X{ - > @ ",
"- } 1XL.(.C.G k Y I.T.i.d.~.Y.Y.~.d.i.T.J.Y k G C.(.L.:X{ - > @ ",
"- } 1XL.(.S.G k R J.v.7 K H.Y.Y.H.K 7 m.J.R k G S.).Y.:X{ - > @ ",
"- [ >X1XY.D.R G W J.W C Y S.).).S.P C W J.W G R D.J.N.b.{ - > @ ",
"- ; [ $X,XI.D.A.D.J.S.M.S.I.Y.Y.I.S.N.S.J.D.A.D.I.A.L p / > , @ ",
"- = * ] #XW.W.^./.Y.Y.Y.J.S.N.N.S.J.Y.Y.Y.K.~.^.^.v.x r / > 7X@ ",
"> = 6X3.l.XXXX.XE.Y.Y.Y.N.H B B H N.Y.I.I.R..X}.XXw.c r / 6X7X@ ",
"+ + + O k.`.%.a.z.H.I.Y.n.C k k C M.Y.I.!.x.[.&._.6.c r ^ $ , @ ",
"u t t t w 8.8.9 J H W Y.J.Q E E Q D.I.R.f.].*.t.5.6 z b r ~ ` @ ",
"b f x x k k k k g k H S.K.K.~./.K.K.!.g.:.=.*.7.S l k k f 4 ( @ ",
"g v L L N < h h g j N G v.x.+X+X+Xc.x.{.&.=.&.d.U Z k s d M ) @ ",
"k G S.S.G k j k k k k k q p.[.[.[.[.|.:.:.&.[.c.F.Q B k f 4 ) @ ",
"Y n.I.Y.N.R B j j k B H K 8.5.5.6._.=.=.:.}.c.^.).D.W G l 3 ( @ ",
"S.Y.Y.Y.Y.S.H j s k Y S.n.S j j 7 e.*.=.[.x.F.I.Y.Y.I.M.V 4 ( @ ",
"R N.J.J.N.R B j s k R J.V.q.8 j k 0 0.6.9.K T ! I.Y.Y.J.I U _ @ ",
"x H S.S.H x j j j k Y J.E.{.e.6 h k c c c z m Y H.Y.Y.I.J.,X..@ ",
"g D S.H.G s g j j k Y J.R.s.9.2 k 6 0 0 0 8 9 q.T.W.L.I.3X%X .@ ",
"h G S.S.G j g j g k R J.m.S z h 2 6.]._.y.y.y.`.].g.Q.<X=X| , @ ",
"h B R R B g g j s j Y J.V.J 5 5 9.y.>.,.>.-.>.;.+.l.-X%X' = > @ ",
"h k m m k j j j s j Y J.R.f.y.y.].|.>.>.-.-.>.$.1.% [ ' ; - , @ ",
"C G V B C G G D B D Y n.b.k.<.<.+.p.r.r.r.r.r.j.# 5X= * - - , @ ",
"n.B.B.B.B.B.N.S.S.N.E G p @X4.4.@Xa 6 6 6 A 6 i $ = = - - - , @ ",
":X4X2X2X2X2XP.J.J.D.P l t ` 6X6X` u n n n n n ~ $ > - - - , , @ "
};
