/* XPM */
static char *door_xpm[] = {
"64 64 6 1",
"  c #000000",
". c #444444",
"X c #888888",
"o c #AAAAAA",
"O c #CCCCCC",
"+ c #FFFFFF",
"OOOOOOOOOOOOOOOOOOOOOOOOOOOOOOOOOOOOOOOOOOOOOOOOOOOOOOOOOOOOOOOO",
"OXXXXXXXXXXXXXXXXXXXXXXXXXXXXXXXXXXXXXXXXXXXXXXXXXXXXXXXXXXXXXXO",
"OXX        XX        XX        XX        XX        XX        XXO",
"OXX  oooo  XX  oooo  XX  oooo  XX  oooo  XX  oooo  XX  oooo  XXO",
"OXX oooooo XX oooooo XX oooooo XX oooooo XX oooooo XX oooooo XXO",
"OXX oooooo XX oooooo XX oooooo XX oooooo XX oooooo XX oooooo XXO",
"OXX  oooo  XX  oooo  XX  oooo  XX  oooo  XX  oooo  XX  oooo  XXO",
"OXX        XX        XX        XX        XX        XX        XXO",
"OXXXXXXXXXXXXXXXXXXXXXXXXXXXXXXXXXXXXXXXXXXXXXXXXXXXXXXXXXXXXXXO",
"OXXXXXXXXXXXXXXXXXXXXXXXXXXXXXXXXXXXXXXXXXXXXXXXXXXXXXXXXXXXXXXO",
"OXX        XX        XX        XX        XX        XX        XXO",
"OXX  oooo  XX  oooo  XX  oooo  XX  oooo  XX  oooo  XX  oooo  XXO",
"OXX oooooo XX oooooo XX oooooo XX oooooo XX oooooo XX oooooo XXO",
"OXX oooooo XX oooooo XX oooooo XX oooooo XX oooooo XX oooooo XXO",
"OXX  oooo  XX  oooo  XX  oooo  XX  oooo  XX  oooo  XX  oooo  XXO",
"OXX        XX        XX        XX        XX        XX        XXO",
"OXXXXXXXXXXXXXXXXXXXXXXXXXXXXXXXXXXXXXXXXXXXXXXXXXXXXXXXXXXXXXXO",
"OXXXXXXXXXXXXXXXXXXXXXXXXXXXXXXXXXXXXXXXXXXXXXXXXXXXXXXXXXXXXXXO",
"OXX        XX        XX        XX        XX        XX        XXO",
"OXX  oooo  XX  oooo  XX  oooo  XX  oooo  XX  oooo  XX  oooo  XXO",
"OXX oooooo XX oooooo XX oooooo XX oooooo XX oooooo XX oooooo XXO",
"OXX oooooo XX oooooo XX oooooo XX oooooo XX oooooo XX oooooo XXO",
"OXX  oooo  XX  oooo  XX  oooo  XX  oooo  XX  oooo  XX  oooo  XXO",
"OXX        XX        XX        XX        XX        XX        XXO",
"OXXXXXXXXXXXXXXXXXXXXXXXXXXXXXXXXXXXXXXXXXXXXXXXXXXXXXXXXXXXXXXO",
"OXXXXXXXXXXXXXXXXXXXXXXXXXXXXXXXXXXXXXXXXXXXXXXXXXXXXXXXXXXXXXXO",
"OXX        XX        XX        XX        XX        XX        XXO",
"OXX  oooo  XX  oooo  XX  oooo  XX  oooo  XX  oooo  XX  oooo  XXO",
"OXX oooooo XX oooooo XX oooooo XX oooooo XX oooooo XX oooooo XXO",
"OXX oooooo XX oooooo XX oooooo XX oooooo XX oooooo XX oooooo XXO",
"OXX  oooo  XX  oooo  XX  oooo  XX  oooo  XX  oooo  XX  oooo  XXO",
"OXX        XX        XX        XX        XX        XX        XXO",
"OXXXXXXXXXXXXXXXXXXXXXXXXXXXXXXXXX  XXXXX  XXXXXXXXXXXXXXXXXXXXO",
"OXXXXXXXXXXXXXXXXXXXXXXXXXXXXXXXX  +  XXX +  XXXXXXXXXXXXXXXXXXO",
"OXX        XX        XX        X  +++  X +++  X        XX    XXO",
"OXX  oooo  XX  oooo  XX  oooo  X  +++  X +++  X  oooo  XX    XXO",
"OXX oooooo XX oooooo XX oooooo X  +++  X +++  X oooooo XX    XXO",
"OXX oooooo XX oooooo XX oooooo XX  +  XXX +  XX oooooo XX    XXO",
"OXX  oooo  XX  oooo  XX  oooo  XXX   XXXXX   XXX  oooo  XX    XXO",
"OXX        XX        XX        XXXXXXXXXXXXXXXX        XX    XXO",
"OXXXXXXXXXXXXXXXXXXXXXXXXXXXXXXXXXXXXXXXXXXXXXXXXXXXXXXXXXXXXXXO",
"OXXXXXXXXXXXXXXXXXXXXXXXXXXXXXXXXXXXXXXXXXXXXXXXXXXXXXXXXXXXXXXO",
"OXX        XX        XX        XX        XX        XX        XXO",
"OXX  oooo  XX  oooo  XX  oooo  XX  oooo  XX  oooo  XX  oooo  XXO",
"OXX oooooo XX oooooo XX oooooo XX oooooo XX oooooo XX oooooo XXO",
"OXX oooooo XX oooooo XX oooooo XX oooooo XX oooooo XX oooooo XXO",
"OXX  oooo  XX  oooo  XX  oooo  XX  oooo  XX  oooo  XX  oooo  XXO",
"OXX        XX        XX        XX        XX        XX        XXO",
"OXXXXXXXXXXXXXXXXXXXXXXXXXXXXXXXXXXXXXXXXXXXXXXXXXXXXXXXXXXXXXXO",
"OXXXXXXXXXXXXXXXXXXXXXXXXXXXXXXXXXXXXXXXXXXXXXXXXXXXXXXXXXXXXXXO",
"OXX        XX        XX        XX        XX        XX        XXO",
"OXX  oooo  XX  oooo  XX  oooo  XX  oooo  XX  oooo  XX  oooo  XXO",
"OXX oooooo XX oooooo XX oooooo XX oooooo XX oooooo XX oooooo XXO",
"OXX oooooo XX oooooo XX oooooo XX oooooo XX oooooo XX oooooo XXO",
"OXX  oooo  XX  oooo  XX  oooo  XX  oooo  XX  oooo  XX  oooo  XXO",
"OXX        XX        XX        XX        XX        XX        XXO",
"OXXXXXXXXXXXXXXXXXXXXXXXXXXXXXXXXXXXXXXXXXXXXXXXXXXXXXXXXXXXXXXO",
"OXXXXXXXXXXXXXXXXXXXXXXXXXXXXXXXXXXXXXXXXXXXXXXXXXXXXXXXXXXXXXXO",
"OXX        XX        XX        XX        XX        XX        XXO",
"OXX  oooo  XX  oooo  XX  oooo  XX  oooo  XX  oooo  XX  oooo  XXO",
"OXX oooooo XX oooooo XX oooooo XX oooooo XX oooooo XX oooooo XXO",
"OXX oooooo XX oooooo XX oooooo XX oooooo XX oooooo XX oooooo XXO",
"OXX  oooo  XX  oooo  XX  oooo  XX  oooo  XX  oooo  XX  oooo  XXO",
"OOOOOOOOOOOOOOOOOOOOOOOOOOOOOOOOOOOOOOOOOOOOOOOOOOOOOOOOOOOOOOOO"
};
