/* XPM */
static char *brick_xpm[] = {
"64 64 3 1",
"  c #880000",
". c #AA0000",
"X c #555555",
"XXXXXXXXXXXXXXXXXXXXXXXXXXXXXXXXXXXXXXXXXXXXXXXXXXXXXXXXXXXXXXXX",
"X..........  X..........  X..........  X..........  X.......... ",
"X..........  X..........  X..........  X..........  X.......... ",
"X..........  X..........  X..........  X..........  X.......... ",
"X..........  X..........  X..........  X..........  X.......... ",
"X..........  X..........  X..........  X..........  X.......... ",
"X  ........  X  ........  X  ........  X  ........  X  ........ ",
"X            X            X            X            X            ",
"XXXXXXXXXXXXXXXXXXXXXXXXXXXXXXXXXXXXXXXXXXXXXXXXXXXXXXXXXXXXXXXX",
"..........  X..........  X..........  X..........  X..........  ",
"..........  X..........  X..........  X..........  X..........  ",
"..........  X..........  X..........  X..........  X..........  ",
"..........  X..........  X..........  X..........  X..........  ",
"..........  X..........  X..........  X..........  X..........  ",
"  ........  X  ........  X  ........  X  ........  X  ........  ",
"            X            X            X            X            ",
"XXXXXXXXXXXXXXXXXXXXXXXXXXXXXXXXXXXXXXXXXXXXXXXXXXXXXXXXXXXXXXXX",
"X..........  X..........  X..........  X..........  X.......... ",
"X..........  X..........  X..........  X..........  X.......... ",
"X..........  X..........  X..........  X..........  X.......... ",
"X..........  X..........  X..........  X..........  X.......... ",
"X..........  X..........  X..........  X..........  X.......... ",
"X  ........  X  ........  X  ........  X  ........  X  ........ ",
"X            X            X            X            X            ",
"XXXXXXXXXXXXXXXXXXXXXXXXXXXXXXXXXXXXXXXXXXXXXXXXXXXXXXXXXXXXXXXX",
"..........  X..........  X..........  X..........  X..........  ",
"..........  X..........  X..........  X..........  X..........  ",
"..........  X..........  X..........  X..........  X..........  ",
"..........  X..........  X..........  X..........  X..........  ",
"..........  X..........  X..........  X..........  X..........  ",
"  ........  X  ........  X  ........  X  ........  X  ........  ",
"            X            X            X            X            ",
"XXXXXXXXXXXXXXXXXXXXXXXXXXXXXXXXXXXXXXXXXXXXXXXXXXXXXXXXXXXXXXXX",
"X..........  X..........  X..........  X..........  X.......... ",
"X..........  X..........  X..........  X..........  X.......... ",
"X..........  X..........  X..........  X..........  X.......... ",
"X..........  X..........  X..........  X..........  X.......... ",
"X..........  X..........  X..........  X..........  X.......... ",
"X  ........  X  ........  X  ........  X  ........  X  ........ ",
"X            X            X            X            X            ",
"XXXXXXXXXXXXXXXXXXXXXXXXXXXXXXXXXXXXXXXXXXXXXXXXXXXXXXXXXXXXXXXX",
"..........  X..........  X..........  X..........  X..........  ",
"..........  X..........  X..........  X..........  X..........  ",
"..........  X..........  X..........  X..........  X..........  ",
"..........  X..........  X..........  X..........  X..........  ",
"..........  X..........  X..........  X..........  X..........  ",
"  ........  X  ........  X  ........  X  ........  X  ........  ",
"            X            X            X            X            ",
"XXXXXXXXXXXXXXXXXXXXXXXXXXXXXXXXXXXXXXXXXXXXXXXXXXXXXXXXXXXXXXXX",
"X..........  X..........  X..........  X..........  X.......... ",
"X..........  X..........  X..........  X..........  X.......... ",
"X..........  X..........  X..........  X..........  X.......... ",
"X..........  X..........  X..........  X..........  X.......... ",
"X..........  X..........  X..........  X..........  X.......... ",
"X  ........  X  ........  X  ........  X  ........  X  ........ ",
"X            X            X            X            X            ",
"XXXXXXXXXXXXXXXXXXXXXXXXXXXXXXXXXXXXXXXXXXXXXXXXXXXXXXXXXXXXXXXX",
"..........  X..........  X..........  X..........  X..........  ",
"..........  X..........  X..........  X..........  X..........  ",
"..........  X..........  X..........  X..........  X..........  ",
"..........  X..........  X..........  X..........  X..........  ",
"..........  X..........  X..........  X..........  X..........  ",
"  ........  X  ........  X  ........  X  ........  X  ........  ",
"            X            X            X            X            "
};
