/* XPM - frame 2 (angle 36deg) */
static char *frame2[] = {
"64 64 373 2 ",
"   c None",
"!! c #220404",
"!# c #230404",
"!$ c #240404",
"!% c #240505",
"!& c #250404",
"!' c #250505",
"!( c #260404",
"!) c #260505",
"!* c #270505",
"!+ c #280505",
"!, c #290505",
"!- c #290606",
"!. c #2A0505",
"!/ c #2A0606",
"!0 c #2B0505",
"!1 c #2B0606",
"!2 c #2C0505",
"!3 c #2C0606",
"!4 c #2D0505",
"!5 c #2D0606",
"!6 c #2E0606",
"!7 c #2F0606",
"!8 c #300606",
"!9 c #310606",
"!: c #310707",
"!; c #320606",
"!< c #320707",
"!= c #330606",
"!> c #330707",
"!? c #340707",
"!@ c #350707",
"!A c #360707",
"!B c #370707",
"!C c #380707",
"!D c #380808",
"!E c #390707",
"!F c #390808",
"!G c #3A0808",
"!H c #3B0808",
"!I c #3C0808",
"!J c #3D0808",
"!K c #3E0808",
"!L c #3E0909",
"!M c #3F0808",
"!N c #3F0909",
"!O c #400808",
"!P c #400909",
"!Q c #410808",
"!R c #410909",
"!S c #420909",
"!T c #430909",
"!U c #440909",
"!V c #440A0A",
"!W c #450909",
"!X c #460909",
"!Y c #460A0A",
"!Z c #470909",
"![ c #470A0A",
"!] c #480A0A",
"!^ c #490A0A",
"!_ c #4A0A0A",
"!` c #4B0A0A",
"!a c #4B0B0B",
"!b c #4C0A0A",
"!c c #4C0B0B",
"!d c #4D0A0A",
"!e c #4D0B0B",
"!f c #4E0A0A",
"!g c #4E0B0B",
"!h c #4F0B0B",
"!i c #500B0B",
"!j c #510B0B",
"!k c #520B0B",
"!l c #520C0C",
"!m c #530B0B",
"!n c #530C0C",
"!o c #540B0B",
"!p c #540C0C",
"!q c #550C0C",
"!r c #560C0C",
"!s c #570C0C",
"!t c #580C0C",
"!u c #590C0C",
"!v c #590D0D",
"!w c #5A0C0C",
"!x c #5A0D0D",
"!y c #5B0C0C",
"!z c #5B0D0D",
"!{ c #5C0D0D",
"!| c #5D0D0D",
"!} c #5E0D0D",
"!~ c #5F0D0D",
"#! c #5F0E0E",
"## c #600D0D",
"#$ c #600E0E",
"#% c #610D0D",
"#& c #610E0E",
"#' c #620E0E",
"#( c #630E0E",
"#) c #640E0E",
"#* c #650E0E",
"#+ c #650F0F",
"#, c #660E0E",
"#- c #660F0F",
"#. c #670E0E",
"#/ c #670F0F",
"#0 c #680E0E",
"#1 c #680F0F",
"#2 c #690F0F",
"#3 c #6A0F0F",
"#4 c #6B0F0F",
"#5 c #6C0F0F",
"#6 c #6C1010",
"#7 c #6D0F0F",
"#8 c #6D1010",
"#9 c #6E0F0F",
"#: c #6E1010",
"#; c #6F0F0F",
"#< c #6F1010",
"#= c #701010",
"#> c #711010",
"#? c #721010",
"#@ c #731010",
"#A c #731111",
"#B c #741010",
"#C c #741111",
"#D c #751010",
"#E c #751111",
"#F c #761111",
"#G c #771111",
"#H c #781111",
"#I c #781212",
"#J c #791111",
"#K c #791212",
"#L c #7A1111",
"#M c #7A1212",
"#N c #7B1111",
"#O c #7B1212",
"#P c #7C1111",
"#Q c #7C1212",
"#R c #7C1313",
"#S c #7D1212",
"#T c #7E1212",
"#U c #7E1313",
"#V c #7F1212",
"#W c #801212",
"#X c #801313",
"#Y c #801414",
"#Z c #811212",
"#[ c #811313",
"#] c #811414",
"#^ c #821212",
"#_ c #821313",
"#` c #821414",
"#a c #831212",
"#b c #831313",
"#c c #831414",
"#d c #841313",
"#e c #841414",
"#f c #851313",
"#g c #851414",
"#h c #861313",
"#i c #861414",
"#j c #861515",
"#k c #871313",
"#l c #871414",
"#m c #871515",
"#n c #881313",
"#o c #881414",
"#p c #891313",
"#q c #891414",
"#r c #891515",
"#s c #8A1414",
"#t c #8A1616",
"#u c #8B1414",
"#v c #8B1515",
"#w c #8B1616",
"#x c #8C1414",
"#y c #8C1515",
"#z c #8D1414",
"#{ c #8D1515",
"#| c #8D1717",
"#} c #8D1818",
"#~ c #8E1414",
"$! c #8E1515",
"$# c #8E1616",
"$$ c #8E1717",
"$% c #8F1414",
"$& c #8F1515",
"$' c #8F1818",
"$( c #901515",
"$) c #901616",
"$* c #901717",
"$+ c #901818",
"$, c #911515",
"$- c #911616",
"$. c #921515",
"$/ c #921616",
"$0 c #921717",
"$1 c #931515",
"$2 c #941515",
"$3 c #951515",
"$4 c #951616",
"$5 c #951919",
"$6 c #951A1A",
"$7 c #961515",
"$8 c #961616",
"$9 c #961A1A",
"$: c #961B1B",
"$; c #971616",
"$< c #971717",
"$= c #981616",
"$> c #981818",
"$? c #981A1A",
"$@ c #991616",
"$A c #991919",
"$B c #991A1A",
"$C c #9A1616",
"$D c #9A1717",
"$E c #9A1B1B",
"$F c #9A1C1C",
"$G c #9B1616",
"$H c #9B1717",
"$I c #9C1616",
"$J c #9C1717",
"$K c #9C1818",
"$L c #9C1A1A",
"$M c #9C1D1D",
"$N c #9D1717",
"$O c #9D1919",
"$P c #9D1C1C",
"$Q c #9D1D1D",
"$R c #9E1717",
"$S c #9E1B1B",
"$T c #9F1717",
"$U c #9F1818",
"$V c #9F1E1E",
"$W c #A01717",
"$X c #A01A1A",
"$Y c #A11717",
"$Z c #A11818",
"$[ c #A21717",
"$] c #A21818",
"$^ c #A21919",
"$_ c #A21A1A",
"$` c #A21C1C",
"$a c #A31717",
"$b c #A31818",
"$c c #A41818",
"$d c #A41919",
"$e c #A41A1A",
"$f c #A41B1B",
"$g c #A41D1D",
"$h c #A41F1F",
"$i c #A51818",
"$j c #A61818",
"$k c #A61919",
"$l c #A61F1F",
"$m c #A62121",
"$n c #A71818",
"$o c #A71919",
"$p c #A71B1B",
"$q c #A71F1F",
"$r c #A81818",
"$s c #A81919",
"$t c #A81F1F",
"$u c #A82121",
"$v c #A91818",
"$w c #A91919",
"$x c #A91C1C",
"$y c #A91D1D",
"$z c #AA1919",
"${ c #AA1B1B",
"$| c #AB1919",
"$} c #AB1C1C",
"$~ c #AC1919",
"%! c #AC1A1A",
"%# c #AC1C1C",
"%$ c #AC1D1D",
"%% c #AC1F1F",
"%& c #AC2323",
"%' c #AD1919",
"%( c #AD1A1A",
"%) c #AD1B1B",
"%* c #AD1C1C",
"%+ c #AD2323",
"%, c #AE1919",
"%- c #AE1C1C",
"%. c #AE1D1D",
"%/ c #AE2121",
"%0 c #AE2323",
"%1 c #AF1C1C",
"%2 c #B02323",
"%3 c #B12222",
"%4 c #B21D1D",
"%5 c #B22020",
"%6 c #B22525",
"%7 c #B41F1F",
"%8 c #B52222",
"%9 c #B62727",
"%: c #B82525",
"%; c #B92222",
"%< c #B92323",
"%= c #B92626",
"%> c #BA2222",
"%? c #BA2828",
"%@ c #BB2222",
"%A c #BB2424",
"%B c #BC2222",
"%C c #BD2424",
"%D c #BD2828",
"%E c #BE2323",
"%F c #BE2424",
"%G c #BE2525",
"%H c #BE2A2A",
"%I c #C02828",
"%J c #C12B2B",
"%K c #C32A2A",
"%L c #C32C2C",
"%M c #C72727",
"%N c #C72828",
"%O c #C72A2A",
"%P c #C92D2D",
"%Q c #C92E2E",
"%R c #CE2D2D",
"%S c #CE3030",
"%T c #CF2E2E",
"%U c #D02B2B",
"%V c #D12D2D",
"%W c #D22D2D",
"%X c #D22E2E",
"%Y c #D53333",
"%Z c #D62F2F",
"%[ c #D73030",
"%] c #D73434",
"%^ c #D83030",
"%_ c #D83333",
"%` c #D93333",
"%a c #DC3636",
"%b c #DE3737",
"%c c #E43434",
"%d c #E43535",
"%e c #E43737",
"%f c #E43939",
"%g c #E63939",
"%h c #EA3838",
"%i c #EA3A3A",
"%j c #EB3C3C",
"%k c #EC3B3B",
"%l c #EC3E3E",
"%m c #EF3D3D",
"%n c #F03F3F",
"%o c #F04242",
"%p c #F24343",
"%q c #F33C3C",
"%r c #F34242",
"%s c #F43D3D",
"%t c #F93F3F",
"%u c #F94343",
"%v c #F94444",
"%w c #F94848",
"%x c #F94949",
"%y c #F94B4B",
"%z c #F94C4C",
"%{ c #F94E4E",
"%| c #F94F4F",
"%} c #F95050",
"%~ c #F95353",
"&! c #F95555",
"&# c #F95656",
"&$ c #F95757",
"&% c #F95B5B",
/* pixels */
"                                                                                                                                ",;
"                                                                                                                                ",;
"                                                                                                                                ",;
"                                                                                                                                ",;
"                                                                          $3$2$.$&#x#q#h#Z#P                                    ",;
"                                                                  $T$T$R$N$G$@$8$1$(#z#s#k#a#T#J#B#9                            ",;
"                                                            $[$i$i$c$b$Y$T$N$G$=$3$.$%#x#n#f#Z#Q#H#@#7#.!|                      ",;
"                                                        $c$r$w$s$n$j$c$a$W$R$G$=$7$1$&#x#p#f#^#T#J#D#=#4#*!~!n                  ",;
"                                                      $z$|$|$z$w$s$n$i$a$W$R$G$=$3$.$%#x#p#f#^#T#L#D#>#5#.#%!y!o                ",;
"                                                  $v$~%'%'$~$|$z$s$n$c$[$W$N$G$=$3$.$%#u#n#f#Z#S#L#D#>#5#.#'!|!r!h!W            ",;
"                                                $|%,%,%,%'$~$|$z$s$j$c$Y$T$I$C$;$2$,#~#s#k#d#W#S#J#D#=#5#.#'!|!t!j!_!S          ",;
"                                              $|%,%,%,%,%'$~$z$w$n$i$b$W$R$G$=$3$1$(#x#q#h#b#V#N#H#B#=#4#.#'!|!t!k!b!W!J        ",;
"                                            $|%,%,%,%,%'$~$|$w$s$j$i$]$W$N$C$;$2$,#~#u#n#d#Z#T#L#F#@#9#3#,#%!{!s!k!b!X!M!A      ",;
"                                          $z%,%,%,%,%'$~$|$z$w$s$o$k$d$Z$R$H$;$1$(#z#q#h#b#W#Q#J#D#>#7#2#)##!z!r!j!b!X!M!C!7    ",;
"                                        $r%'%,%,%,%'$~$|$z$|%!%)%-%.$}$p$_$K$;$1$%#u#n#f#^#T#N#G#@#<#4#.#(!~!w!q!i!`!W!M!E!;!*  ",;
"                                      $i$|%'%'%'%'$~$|$|%!%1%7%>%F%G%<%5$y$X$>$/#z#s#h#b#W#Q#J#D#>#7#2#*#%!|!t!o!h!_!U!K!C!9!.!!",;
"                                      $v$~$~$~$~$|$|$|%(%4%@%N%W%^%[%R%I%3$g$A$-#u#n#d#Z#S#L#G#@#<#4#.#(!~!z!r!k!d!]!T!J!B!9!.!!",;
"                                    $i$w$|$|$|$z$z$z%!%4%E%U%d%q%t%s%e%T%=$l$B$)#s#f#^#V#N#H#B#>#7#2#*#%!|!u!p!i!`!X!R!I!A!8!.!#",;
"                                  $T$j$w$z$z$z$w$w$z%1%B%U%h%v%z%{%x%n%_%D$q$?$##l#b#W#Q#J#D#?#9#4#.#(!~!z!s!k!g!^!U!M!G!@!7!,!#",;
"                                  $]$j$r$v$r$r$r$s${%7%M%c%u%}&$&#%{%o%]%?$h$5#v#f#W#S#L#F#@#<#5#1#)#%!|!u!p!i!b![!S!J!C!=!6!+!#",;
"                                $C$b$i$j$n$j$j$j$o%#%;%V%k%y&#&%&$%z%l%S%6$Q$+#m#_#T#L#G#B#=#7#2#,#'!}!w!r!k!g!^!W!O!H!B!;!2!(!#",;
"                                $N$[$c$i$i$c$c$c$k%*%C%Z%m%y%~&!%|%p%a%H$m$6#t#c#T#N#H#B#>#9#3#.#(!~!z!s!m!h!`!Z!T!K!E!@!7!.!$!#",;
"                                $N$Y$[$b$]$]$[$]$e%$%A%X%i%v%x%w%r%b%L%&$F#|#g#X#O#H#D#?#9#4#.#)##!{!u!q!j!d!^!U!O!I!B!;!4!*!#!#",;
"                              $8$J$T$W$W$W$W$T$T$^$x%8%O%`%g%j%f%Y%J%+$M$'#j#X#Q#I#E#?#;#4#0#)#%!|!w!r!k!g!_!X!S!K!E!?!7!.!&!#!#",;
"                              $8$G$N$R$R$R$N$N$J$U$f%%%:%K%P%Q%L%9$u$F$'#m#]#R#I#E#?#<#5#1#*#'!}!w!s!m!h!b!]!U!M!H!A!;!4!+!#!#!#",;
"                              $4$@$C$G$G$G$C$C$@$D$O$`$t%/%2%0$u$V$:#}#j#Y#R#K#E#?#<#6#2#-#'!~!z!t!o!j!d!^!W!Q!I!C!=!7!.!&!#!#!#",;
"                              $1$8$=$=$=$=$=$;$8$8$<$A$L$S$P$E$9$+#t#e#X#Q#I#E#?#<#6#2#-#'#!!{!t!q!j!f!_!X!S!K!E!@!8!2!*!#!#!#!#",;
"                            #u$,$2$4$8$8$4$3$2$1$.$/$/$0$0$*$$#w#j#`#U#O#H#E#?#<#5#2#-#'#!!{!v!q!k!f!_!Z!T!M!H!A!;!5!,!$!#!#!#!#",;
"                            #s$!$,$.$1$.$.$,$($&$!#{#{#y#v#r#i#c#X#S#M#G#C#>#:#4#1#+#'#!!{!v!q!l!g!`![!T!M!H!B!=!7!.!&!#!#!#!#!#",;
"                            #k#x#~$&$&$&$&#~#z#x#u#s#o#l#g#b#[#T#O#J#F#A#>#:#4#1#*#'#!!{!v!q!l!h!a!]!U!P!I!C!?!8!0!*!#!#!#!#!#!#",;
"                            #f#q#u#x#x#x#u#u#s#q#k#h#d#b#[#V#Q#M#H#E#@#=#8#3#1#*#'#!!{!v!r!n!h!c!]!V!R!J!F!@!9!2!+!#!#!#!#!#!#!#",;
"                            #Z#h#k#o#q#o#o#k#h#f#d#_#Z#V#S#O#J#G#C#?#=#8#3#1#*#'!~!{!v!r!l!h!c!]!V!R!J!F!@!:!5!,!%!#!#!#!#!#!#!#",;
"                            #T#b#d#f#f#f#d#d#b#_#W#V#S#O#J#G#E#@#>#:#5#2#/#)#&!}!{!t!q!l!h!a!]!V!R!J!F!A!<!6!-!'!#!#!#!#!#!#!#!#",;
"                            #L#V#Z#[#[#[#Z#W#V#T#Q#O#J#H#F#C#?#<#8#4#1#,#(#$!}!z!t!q!k!g!`!]!U!R!J!G!A!<!6!/!)!#!#!#!#!#!#!#!#!#",;
"                            #E#N#S#T#T#T#S#Q#O#L#J#G#F#C#?#=#:#5#2#/#*#'!~!|!x!s!p!j!g!`![!U!R!J!F!A!<!6!/!)!#!#!#!#!#!#!#!#!#!#",;
"                            #=#F#J#L#L#L#J#H#G#F#E#B#?#=#:#5#3#1#,#(#&!}!{!v!r!n!i!e!_![!U!P!J!F!A!<!6!/!)!#!#!#!#!#!#!#!#!#!#!#",;
"                            #3#?#B#F#F#F#F#E#B#@#>#=#:#5#3#1#,#)#'!~!|!x!t!q!l!h!c!^!Y!T!P!I!F!@!<!6!/!)!#!#!#!#!#!#!#!#!#!#!#!#",;
"                              #7#=#>#?#?#?#>#=#<#7#5#3#1#-#)#'#$!}!z!v!s!p!j!g!b!^!Y!S!N!I!F!@!<!6!1!*!#!#!#!#!#!#!#!#!#!#!#!#!#",;
"                              #/#4#7#9#9#7#7#5#4#3#1#,#*#(#&!~!|!x!t!q!n!i!e!_![!U!R!L!H!D!@!:!6!/!*!#!#!#!#!#!#!#!#!#!#!#!#!#!#",;
"                              #'#,#1#2#2#2#1#1#.#*#)#'#&!~!|!z!t!r!p!j!h!c!^!Y!T!P!J!G!B!?!9!5!.!)!#!#!#!#!#!#!#!#!#!#!#!#!#!#!#",;
"                              !y#%#(#)#)#)#)#(#'#&##!}!{!z!u!r!p!k!h!e!_!]!W!S!N!I!F!A!>!8!3!,!)!#!#!#!#!#!#!#!#!#!#!#!#!#!#!#!#",;
"                                !z!}!~####!~!~!}!{!z!w!t!r!p!k!i!g!`!^!Y!T!R!K!H!D!@!<!7!3!,!'!#!#!#!#!#!#!#!#!#!#!#!#!#!#!#!#!#",;
"                                !o!u!w!z!z!x!w!u!t!s!q!n!k!i!g!b!_![!W!S!P!J!G!B!@!9!6!1!+!%!#!#!#!#!#!#!#!#!#!#!#!#!#!#!#!#!#!#",;
"                                !_!k!q!q!q!q!q!p!m!k!i!h!e!`!^![!W!T!P!K!H!F!A!>!8!5!.!*!$!#!#!#!#!#!#!#!#!#!#!#!#!#!#!#!#!#!#!#",;
"                                  !`!h!i!j!j!i!h!g!e!b!_!]![!W!T!P!K!I!F!B!?!9!6!3!+!'!#!#!#!#!#!#!#!#!#!#!#!#!#!#!#!#!#!#!#!#!#",;
"                                  !P!]!_!`!b!`!`!_!^![!X!U!S!P!K!I!F!B!@!<!7!5!.!*!$!#!#!#!#!#!#!#!#!#!#!#!#!#!#!#!#!#!#!#!#!#!#",;
"                                    !O!T!W!X!X!X!W!U!S!R!M!J!H!F!B!?!<!8!5!0!+!'!#!#!#!#!#!#!#!#!#!#!#!#!#!#!#!#!#!#!#!#!#!#!#!#",;
"                                      !I!K!O!O!O!M!K!J!H!G!C!A!?!;!8!6!0!,!)!$!#!#!#!#!#!#!#!#!#!#!#!#!#!#!#!#!#!#!#!#!#!#!#!#!!",;
"                                      !9!C!F!G!G!E!E!C!A!@!>!;!8!5!0!,!)!$!#!#!#!#!#!#!#!#!#!#!#!#!#!#!#!#!#!#!#!#!#!#!#!#!#!#!!",;
"                                        !6!<!>!>!>!=!;!9!7!6!3!.!+!)!$!#!#!#!#!#!#!#!#!#!#!#!#!#!#!#!#!#!#!#!#!#!#!#!#!#!#!#!#  ",;
"                                          !,!3!5!5!5!2!0!.!+!*!&!#!#!#!#!#!#!#!#!#!#!#!#!#!#!#!#!#!#!#!#!#!#!#!#!#!#!#!#!#!#    ",;
"                                            !#!)!*!)!(!&!$!#!#!#!#!#!#!#!#!#!#!#!#!#!#!#!#!#!#!#!#!#!#!#!#!#!#!#!#!#!#!#!#      ",;
"                                              !#!#!#!#!#!#!#!#!#!#!#!#!#!#!#!#!#!#!#!#!#!#!#!#!#!#!#!#!#!#!#!#!#!#!#!#!#        ",;
"                                                !#!#!#!#!#!#!#!#!#!#!#!#!#!#!#!#!#!#!#!#!#!#!#!#!#!#!#!#!#!#!#!#!#!#!#          ",;
"                                                  !#!#!#!#!#!#!#!#!#!#!#!#!#!#!#!#!#!#!#!#!#!#!#!#!#!#!#!#!#!#!#!#!#            ",;
"                                                      !#!#!#!#!#!#!#!#!#!#!#!#!#!#!#!#!#!#!#!#!#!#!#!#!#!#!#!#!#                ",;
"                                                        !#!#!#!#!#!#!#!#!#!#!#!#!#!#!#!#!#!#!#!#!#!#!#!#!#!#!#                  ",;
"                                                            !#!#!#!#!#!#!#!#!#!#!#!#!#!#!#!#!#!#!#!#!#!#!#                      ",;
"                                                                  !#!#!#!#!#!#!#!#!#!#!#!#!#!#!#!#!#                            ",;
"                                                                          !#!#!#!#!#!#!#!#!#                                    ",;
"                                                                                                                                ",;
"                                                                                                                                ",;
"                                                                                                                                ",;
"                                                                                                                                ";
};
