/* XPM - frame 10 (angle 324deg) */
static char *frame10[] = {
"64 64 366 2 ",
"   c None",
"!! c #110202",
"!# c #230404",
"!$ c #230505",
"!% c #240404",
"!& c #240505",
"!' c #250404",
"!( c #250505",
"!) c #260404",
"!* c #260505",
"!+ c #270505",
"!, c #280505",
"!- c #290505",
"!. c #290606",
"!/ c #2A0505",
"!0 c #2A0606",
"!1 c #2B0505",
"!2 c #2B0606",
"!3 c #2C0505",
"!4 c #2C0606",
"!5 c #2D0606",
"!6 c #2E0606",
"!7 c #2F0606",
"!8 c #300606",
"!9 c #300707",
"!: c #310606",
"!; c #310707",
"!< c #320606",
"!= c #320707",
"!> c #330606",
"!? c #330707",
"!@ c #340707",
"!A c #350707",
"!B c #360707",
"!C c #360808",
"!D c #370707",
"!E c #370808",
"!F c #380707",
"!G c #380808",
"!H c #390707",
"!I c #390808",
"!J c #3A0808",
"!K c #3B0808",
"!L c #3C0808",
"!M c #3D0808",
"!N c #3D0909",
"!O c #3E0808",
"!P c #3E0909",
"!Q c #3F0808",
"!R c #3F0909",
"!S c #400808",
"!T c #400909",
"!U c #410909",
"!V c #420909",
"!W c #430909",
"!X c #430A0A",
"!Y c #440909",
"!Z c #440A0A",
"![ c #450909",
"!] c #450A0A",
"!^ c #460909",
"!_ c #460A0A",
"!` c #470A0A",
"!a c #480A0A",
"!b c #490A0A",
"!c c #4A0A0A",
"!d c #4A0B0B",
"!e c #4B0A0A",
"!f c #4B0B0B",
"!g c #4C0A0A",
"!h c #4C0B0B",
"!i c #4D0B0B",
"!j c #4E0B0B",
"!k c #4F0B0B",
"!l c #500B0B",
"!m c #510B0B",
"!n c #510C0C",
"!o c #520B0B",
"!p c #520C0C",
"!q c #530B0B",
"!r c #530C0C",
"!s c #540C0C",
"!t c #550C0C",
"!u c #560C0C",
"!v c #570C0C",
"!w c #570D0D",
"!x c #580C0C",
"!y c #580D0D",
"!z c #590C0C",
"!{ c #590D0D",
"!| c #5A0C0C",
"!} c #5A0D0D",
"!~ c #5B0D0D",
"#! c #5C0D0D",
"## c #5D0D0D",
"#$ c #5E0D0D",
"#% c #5E0E0E",
"#& c #5F0D0D",
"#' c #5F0E0E",
"#( c #600D0D",
"#) c #600E0E",
"#* c #610E0E",
"#+ c #620E0E",
"#, c #630E0E",
"#- c #640E0E",
"#. c #650E0E",
"#/ c #650F0F",
"#0 c #660E0E",
"#1 c #660F0F",
"#2 c #670E0E",
"#3 c #670F0F",
"#4 c #680F0F",
"#5 c #690F0F",
"#6 c #6A0F0F",
"#7 c #6B0F0F",
"#8 c #6C0F0F",
"#9 c #6C1010",
"#: c #6D0F0F",
"#; c #6D1010",
"#< c #6E0F0F",
"#= c #6E1010",
"#> c #6F1010",
"#? c #701010",
"#@ c #711010",
"#A c #721010",
"#B c #731010",
"#C c #731111",
"#D c #741010",
"#E c #741111",
"#F c #751111",
"#G c #761111",
"#H c #771111",
"#I c #781111",
"#J c #791111",
"#K c #791212",
"#L c #7A1111",
"#M c #7A1212",
"#N c #7B1111",
"#O c #7B1212",
"#P c #7C1212",
"#Q c #7D1212",
"#R c #7D1313",
"#S c #7E1212",
"#T c #7E1313",
"#U c #7F1212",
"#V c #7F1313",
"#W c #801212",
"#X c #801313",
"#Y c #811212",
"#Z c #811313",
"#[ c #811414",
"#] c #821313",
"#^ c #821414",
"#_ c #831313",
"#` c #831414",
"#a c #841313",
"#b c #841414",
"#c c #851313",
"#d c #851414",
"#e c #861313",
"#f c #861414",
"#g c #871313",
"#h c #871414",
"#i c #871515",
"#j c #881414",
"#k c #881515",
"#l c #891414",
"#m c #891515",
"#n c #8A1414",
"#o c #8B1414",
"#p c #8B1515",
"#q c #8B1616",
"#r c #8C1414",
"#s c #8C1515",
"#t c #8C1616",
"#u c #8D1414",
"#v c #8D1515",
"#w c #8E1414",
"#x c #8E1515",
"#y c #8E1818",
"#z c #8F1515",
"#{ c #8F1717",
"#| c #8F1818",
"#} c #901515",
"#~ c #911515",
"$! c #911717",
"$# c #911818",
"$$ c #911919",
"$% c #921515",
"$& c #921616",
"$' c #921717",
"$( c #921919",
"$) c #931515",
"$* c #931616",
"$+ c #941515",
"$, c #941616",
"$- c #951515",
"$. c #951616",
"$/ c #961616",
"$0 c #971616",
"$1 c #971717",
"$2 c #971A1A",
"$3 c #981616",
"$4 c #981717",
"$5 c #981B1B",
"$6 c #991616",
"$7 c #991818",
"$8 c #9A1616",
"$9 c #9A1717",
"$: c #9A1818",
"$; c #9B1616",
"$< c #9B1717",
"$= c #9B1A1A",
"$> c #9B1B1B",
"$? c #9B1C1C",
"$@ c #9C1717",
"$A c #9C1818",
"$B c #9C1D1D",
"$C c #9D1717",
"$D c #9D1818",
"$E c #9D1C1C",
"$F c #9E1717",
"$G c #9E1818",
"$H c #9E1B1B",
"$I c #9F1717",
"$J c #9F1818",
"$K c #9F1E1E",
"$L c #A01717",
"$M c #A01818",
"$N c #A01E1E",
"$O c #A11717",
"$P c #A11818",
"$Q c #A11B1B",
"$R c #A11E1E",
"$S c #A21717",
"$T c #A21818",
"$U c #A21919",
"$V c #A21A1A",
"$W c #A31717",
"$X c #A31818",
"$Y c #A31919",
"$Z c #A31A1A",
"$[ c #A41818",
"$] c #A51818",
"$^ c #A51919",
"$_ c #A61818",
"$` c #A61919",
"$a c #A61B1B",
"$b c #A61E1E",
"$c c #A71818",
"$d c #A71919",
"$e c #A71E1E",
"$f c #A81818",
"$g c #A81919",
"$h c #A81C1C",
"$i c #A82020",
"$j c #A91818",
"$k c #A91919",
"$l c #A91A1A",
"$m c #A92020",
"$n c #AA1919",
"$o c #AA1B1B",
"$p c #AA1C1C",
"$q c #AA1E1E",
"$r c #AA2121",
"$s c #AA2222",
"$t c #AB1919",
"$u c #AB1A1A",
"$v c #AB1B1B",
"$w c #AB1E1E",
"$x c #AB2121",
"$y c #AC1919",
"$z c #AC1A1A",
"${ c #AC1D1D",
"$| c #AD1919",
"$} c #AD1B1B",
"$~ c #AD2121",
"%! c #AE1919",
"%# c #AE1B1B",
"%$ c #AE1C1C",
"%% c #AE1D1D",
"%& c #AF2323",
"%' c #B01C1C",
"%( c #B02323",
"%) c #B02424",
"%* c #B02525",
"%+ c #B11E1E",
"%, c #B22121",
"%- c #B31E1E",
"%. c #B42121",
"%/ c #B42323",
"%0 c #B52121",
"%1 c #B62323",
"%2 c #B62727",
"%3 c #B72323",
"%4 c #B82121",
"%5 c #B82222",
"%6 c #B92121",
"%7 c #B92727",
"%8 c #BB2222",
"%9 c #BB2424",
"%: c #BD2424",
"%; c #BD2727",
"%< c #BE2525",
"%= c #BF2A2A",
"%> c #C12929",
"%? c #C22525",
"%@ c #C22A2A",
"%A c #C32929",
"%B c #C32C2C",
"%C c #C52727",
"%D c #C52C2C",
"%E c #C52D2D",
"%F c #C82F2F",
"%G c #C92D2D",
"%H c #CA2E2E",
"%I c #CB2929",
"%J c #CB2A2A",
"%K c #CC2929",
"%L c #CD2C2C",
"%M c #D02C2C",
"%N c #D02D2D",
"%O c #D12E2E",
"%P c #D33030",
"%Q c #D43333",
"%R c #D63131",
"%S c #D83030",
"%T c #D83131",
"%U c #D83535",
"%V c #DD3535",
"%W c #DD3636",
"%X c #DE3131",
"%Y c #E13333",
"%Z c #E23939",
"%[ c #E43A3A",
"%] c #E53535",
"%^ c #E53838",
"%_ c #E63838",
"%` c #E73A3A",
"%a c #E83939",
"%b c #E93838",
"%c c #EB3C3C",
"%d c #EC3A3A",
"%e c #F14141",
"%f c #F23B3B",
"%g c #F44141",
"%h c #F44444",
"%i c #F54444",
"%j c #F54646",
"%k c #F63E3E",
"%l c #F93F3F",
"%m c #F94040",
"%n c #F94242",
"%o c #F94848",
"%p c #F94949",
"%q c #F94B4B",
"%r c #F94E4E",
"%s c #F94F4F",
"%t c #F95050",
"%u c #F95151",
"%v c #F95252",
"%w c #F95555",
"%x c #F95656",
"%y c #F95757",
"%z c #F95858",
"%{ c #F95B5B",
/* pixels */
"                                                                                                                                ",;
"                                                                                                                                ",;
"                                                                                                                                ",;
"                                                                                                                                ",;
"                                    $.$+$%#}#v#n#h#]#Q!O                                                                        ",;
"                            $I$I$F$C$<$6$0$,#~#x#o#j#a#U#M#F#>                                                                  ",;
"                      $O$]$]$[$X$P$L$C$<$6$/$)#}#r#l#c#Z#Q#K#E#=#5#)                                                            ",;
"                  $X$f$k$g$c$_$[$X$O$F$@$6$/$)#}#v#l#e#]#S#M#G#@#9#1#)!u                                                        ",;
"                $n$t$t$n$k$g$c$]$X$O$F$@$6$/$)#}#u#l#e#]#S#M#G#A#;#4#+#!!t                                                      ",;
"            $f$y$|$|$y$t$n$g$c$]$T$L$F$<$6$/$)#z#r#l#c#Z#S#M#G#A#;#4#,#%!y!n!`                                                  ",;
"          $n%!%!%!$|$y$t$n$g$_$[$T$I$C$8$3$.$%#x#o#j#a#Z#S#M#G#@#;#4#,#%!{!r!h!X                                                ",;
"        $t$|%!%!%!$|$y$n$k$c$]$X$P$F$@$6$/$)#~#v#n#h#a#X#P#J#F#@#9#4#,#%!{!r!i!`!P                                              ",;
"      $t$|%!%!%!$|$y$t$k$g$_$]$X$M$F$<$3$.$%#z#r#l#c#]#U#O#H#C#>#7#3#+##!y!r!i!`!U!G                                            ",;
"    $n$|%!%!%!$|$y$t$n$k$g$d$`$^$U$J$@$4$,#~#x#n#h#a#X#Q#K#G#A#=#6#/#*#!!w!p!i!`!U!J!;                                          ",;
"  $]$y$|%!%!$|$y$t$n$t$z$}%$%%${$h$Z$D$4$,#}#r#l#c#]#U#O#I#E#?#9#4#-#)!~!u!n!h!_!U!K!?!.                                        ",;
"$F$n$y$|$|$|$y$t$t$z%#%-%6%:%<%9%.$w$Q$:$*#x#n#h#_#X#Q#K#G#A#=#6#1#+#$!{!t!l!f!_!T!J!?!2!&                                      ",;
"$W$t$y$y$y$t$t$t$z%'%6%C%M%S%T%O%A%/$b$=$*#s#j#c#Z#S#M#H#E#?#9#4#-#)#!!w!r!j!b!Z!R!I!?!2!&                                      ",;
"$g$n$t$t$n$n$n$u%'%8%K%Y%f%l%k%a%P%;$m$>$'#p#f#]#U#P#I#F#@#=#6#1#+#$!}!t!n!h!`!V!N!G!=!2!&!#                                    ",;
"$g$k$n$n$k$k$k$}%4%I%]%n%q%r%q%g%V%@$x$>#{#k#b#X#Q#K#G#A#>#7#4#-#)#!!y!r!k!d!]!T!K!C!9!0!&!#!#                                  ",;
"$c$j$j$f$f$g$l%+%?%X%m%r%y%y%u%h%W%=$i$2#t#d#Z#Q#M#H#C#?#9#5#/#*#$!}!t!n!i!a!X!P!I!@!7!.!&!#!#                                  ",;
"$_$c$c$_$_$`$o%0%J%b%o%w%{%z%s%e%Q%2$N$(#m#`#T#O#H#E#@#;#6#1#,#'!~!v!r!k!d!_!U!L!E!=!5!+!#!#!#!#                                ",;
"$]$]$]$[$[$^$v%5%N%d%p%v%x%t%j%Z%B$s$5#t#b#V#O#I#F#@#=#7#4#-#)#!!y!s!l!h!a!W!P!J!B!9!2!(!#!#!#!#                                ",;
"$X$X$T$S$T$Y$p%3%L%_%n%p%p%i%[%F%)$B#|#f#Z#P#I#F#B#>#8#4#.#*##!}!u!p!j!c!]!U!M!G!?!6!,!$!#!#!#!#                                ",;
"$L$L$L$I$I$P$a%,%A%R%^%c%`%U%E%*$K$$#k#Z#Q#K#G#B#?#8#5#.#+#$!~!v!r!k!f!`!W!P!J!A!9!2!*!#!#!#!#!#!#                              ",;
"$F$F$C$C$@$G$V$q%1%>%G%H%D%7$s$B$$#k#^#R#K#G#B#?#;#5#1#,#'!~!x!s!l!h!a!Z!T!K!E!=!6!-!&!#!#!#!#!#!#                              ",;
"$;$;$8$8$6$9$A$Q$e$~%(%&$r$R$5#y#i#[#R#K#G#B#?#;#6#1#,#'#!!y!t!m!i!b!]!U!M!G!@!7!2!*!#!#!#!#!#!#!#                              ",;
"$3$3$3$0$/$/$1$7$=$H$E$?$2$##q#d#X#P#K#G#B#?#;#6#1#,#)#!!{!t!p!j!c!_!V!P!J!A!;!5!,!&!#!#!#!#!#!#!#                              ",;
"$/$.$-$+$)$%$&$&$'$'$!#{#q#i#^#V#P#I#F#B#?#:#6#1#,#)##!{!u!p!j!e!`!W!R!L!E!?!6!0!(!#!#!#!#!#!#!#!#!#                            ",;
"$%$%#~#}#z#x#v#v#s#p#m#h#b#Z#S#O#I#F#A#>#8#5#1#,#)##!}!u!r!k!h!a!Y!T!L!G!@!8!2!*!#!#!#!#!#!#!#!#!#!#                            ",;
"#z#z#w#u#r#o#n#j#h#d#_#Z#U#P#J#H#E#@#>#8#5#0#,#)##!}!u!r!l!h!a![!U!M!I!A!;!4!,!&!#!#!#!#!#!#!#!#!#!#                            ",;
"#r#o#o#n#l#g#e#a#_#Z#U#Q#M#I#G#B#@#=#7#4#0#,#)##!{!u!r!l!h!b!]!U!O!J!B!=!5!-!&!#!#!#!#!#!#!#!#!#!#!#                            ",;
"#j#j#g#e#c#a#]#Y#U#Q#O#J#H#E#A#?#;#6#4#.#+#&#!!{!u!r!k!h!b!]!U!O!J!B!=!6!/!(!#!#!#!#!#!#!#!#!#!#!#!#                            ",;
"#c#a#a#_#]#W#U#Q#O#J#H#F#B#@#=#8#5#3#-#*#&#!!z!t!p!k!h!a!]!U!O!J!B!?!7!0!*!#!#!#!#!#!#!#!#!#!#!#!#!#                            ",;
"#Z#Y#W#U#S#Q#O#L#I#G#E#A#>#;#7#5#0#,#*#$!~!x!t!o!k!e!a![!U!O!J!D!?!7!2!+!%!#!#!#!#!#!#!#!#!#!#!#!#!#                            ",;
"#S#S#Q#P#N#L#I#H#F#B#@#>#8#6#4#.#+#(##!}!v!s!m!j!e!a!Y!U!O!J!D!?!7!2!+!%!#!#!#!#!#!#!#!#!#!#!#!#!#!#                            ",;
"#L#L#J#I#H#G#D#B#@#>#:#7#5#0#-#*#&#!!{!u!r!l!i!e!a![!U!O!J!D!?!7!2!+!%!#!#!#!#!#!#!#!#!#!#!#!#!#!#!#                            ",;
"#G#G#F#D#B#A#?#>#:#7#5#2#.#,#(#$!~!z!u!r!l!i!c!`!Y!U!M!J!B!?!7!2!+!%!#!#!#!#!#!#!#!#!#!#!#!#!#!#!#!#                            ",;
"#A#A#@#?#>#<#8#7#5#3#.#,#*#&#!!}!v!t!o!k!g!c!_!W!T!M!I!B!=!7!2!+!%!#!#!#!#!#!#!#!#!#!#!#!#!#!#!#!#                              ",;
"#<#:#:#8#7#6#4#2#.#,#*#&##!~!x!u!r!m!j!e!a![!V!R!L!I!A!=!6!2!+!%!#!#!#!#!#!#!#!#!#!#!#!#!#!#!#!#!#                              ",;
"#5#5#4#4#2#.#-#+#*#&##!~!z!u!s!o!k!i!c!`!Y!U!O!K!F!A!:!6!/!+!%!#!#!#!#!#!#!#!#!#!#!#!#!#!#!#!#!#!#                              ",;
"#-#-#-#,#+#*#(#$#!!~!z!v!s!o!l!i!e!a!^!W!T!M!J!D!@!:!5!/!+!%!#!#!#!#!#!#!#!#!#!#!#!#!#!#!#!#!#!#!#                              ",;
"#(#(#&#&#$#!!~!|!x!u!s!o!l!j!g!b!`!Y!U!Q!L!I!B!?!8!4!-!*!#!#!#!#!#!#!#!#!#!#!#!#!#!#!#!#!#!#!#!#                                ",;
"!}!~!}!|!z!x!v!t!r!o!l!j!g!c!`![!V!T!M!J!D!A!<!6!2!,!(!#!#!#!#!#!#!#!#!#!#!#!#!#!#!#!#!#!#!#!#!#                                ",;
"!t!t!t!t!s!q!o!l!k!i!e!b!`![!W!T!O!L!I!B!?!8!5!/!+!%!#!#!#!#!#!#!#!#!#!#!#!#!#!#!#!#!#!#!#!#!#!#                                ",;
"!l!m!m!m!l!k!j!g!e!b!`!^!W!U!Q!L!J!D!@!:!7!4!-!(!#!#!#!#!#!#!#!#!#!#!#!#!#!#!#!#!#!#!#!#!#!#!#                                  ",;
"!c!e!g!e!e!c!b!a!^![!W!U!Q!L!J!F!A!=!8!5!/!+!%!#!#!#!#!#!#!#!#!#!#!#!#!#!#!#!#!#!#!#!#!#!#!#!#                                  ",;
"!W![!^!^!^![!Y!W!U!S!O!L!J!F!A!?!:!6!3!-!*!#!#!#!#!#!#!#!#!#!#!#!#!#!#!#!#!#!#!#!#!#!#!#!#!#                                    ",;
"!J!O!S!S!S!Q!O!M!L!J!H!D!A!>!:!6!3!-!+!%!#!#!#!#!#!#!#!#!#!#!#!#!#!#!#!#!#!#!#!#!#!#!#!#!#                                      ",;
"!7!D!H!J!J!H!H!F!B!A!?!<!8!6!1!-!+!%!#!#!#!#!#!#!#!#!#!#!#!#!#!#!#!#!#!#!#!#!#!#!#!#!#!#!#                                      ",;
"  !5!:!?!?!?!>!<!:!7!6!4!/!,!*!%!#!#!#!#!#!#!#!#!#!#!#!#!#!#!#!#!#!#!#!#!#!#!#!#!#!#!#!#                                        ",;
"    !-!1!4!5!5!3!1!/!,!+!'!#!#!#!#!#!#!#!#!#!#!#!#!#!#!#!#!#!#!#!#!#!#!#!#!#!#!#!#!#!#                                          ",;
"      !#!)!+!+!)!'!%!#!#!#!#!#!#!#!#!#!#!#!#!#!#!#!#!#!#!#!#!#!#!#!#!#!#!#!#!#!#!#!#                                            ",;
"        !#!#!#!#!#!#!#!#!#!#!#!#!#!#!#!#!#!#!#!#!#!#!#!#!#!#!#!#!#!#!#!#!#!#!#!#!#                                              ",;
"          !#!#!#!#!#!#!#!#!#!#!#!#!#!#!#!#!#!#!#!#!#!#!#!#!#!#!#!#!#!#!#!#!#!#!#                                                ",;
"            !#!#!#!#!#!#!#!#!#!#!#!#!#!#!#!#!#!#!#!#!#!#!#!#!#!#!#!#!#!#!#!#!#                                                  ",;
"                !#!#!#!#!#!#!#!#!#!#!#!#!#!#!#!#!#!#!#!#!#!#!#!#!#!#!#!#!#                                                      ",;
"                  !#!#!#!#!#!#!#!#!#!#!#!#!#!#!#!#!#!#!#!#!#!#!#!#!#!#!#                                                        ",;
"                      !#!#!#!#!#!#!#!#!#!#!#!#!#!#!#!#!#!#!#!#!#!#!#                                                            ",;
"                            !#!#!#!#!#!#!#!#!#!#!#!#!#!#!#!#!#                                                                  ",;
"                                    !#!#!#!#!#!#!#!#!#!!                                                                        ",;
"                                                                                                                                ",;
"                                                                                                                                ",;
"                                                                                                                                ",;
"                                                                                                                                ";
};
