/* XPM - frame 5 (angle 144deg) */
static char *frame5[] = {
"64 64 291 2 ",
"   c None",
"!! c #0E0202",
"!# c #100202",
"!$ c #110202",
"!% c #130202",
"!& c #140202",
"!' c #170303",
"!( c #180303",
"!) c #1A0303",
"!* c #1B0303",
"!+ c #1B0404",
"!, c #1C0303",
"!- c #1D0303",
"!. c #1D0404",
"!/ c #1E0303",
"!0 c #1E0404",
"!1 c #1F0404",
"!2 c #200404",
"!3 c #210404",
"!4 c #220404",
"!5 c #220505",
"!6 c #230404",
"!7 c #230505",
"!8 c #240404",
"!9 c #240505",
"!: c #250505",
"!; c #260505",
"!< c #270505",
"!= c #280505",
"!> c #290505",
"!? c #290606",
"!@ c #2A0505",
"!A c #2A0606",
"!B c #2B0505",
"!C c #2B0606",
"!D c #2C0606",
"!E c #2D0606",
"!F c #2E0606",
"!G c #2E0707",
"!H c #2F0606",
"!I c #2F0707",
"!J c #300707",
"!K c #310707",
"!L c #320707",
"!M c #330707",
"!N c #340707",
"!O c #350707",
"!P c #350808",
"!Q c #360707",
"!R c #370707",
"!S c #370808",
"!T c #380707",
"!U c #380808",
"!V c #390808",
"!W c #3A0808",
"!X c #3B0808",
"!Y c #3C0808",
"!Z c #3D0808",
"![ c #3D0909",
"!] c #3E0808",
"!^ c #3E0909",
"!_ c #3F0909",
"!` c #400909",
"!a c #410909",
"!b c #420909",
"!c c #430909",
"!d c #430A0A",
"!e c #440909",
"!f c #440A0A",
"!g c #450A0A",
"!h c #460A0A",
"!i c #470A0A",
"!j c #480A0A",
"!k c #490A0A",
"!l c #4A0A0A",
"!m c #4A0B0B",
"!n c #4B0A0A",
"!o c #4C0A0A",
"!p c #4C0B0B",
"!q c #4D0A0A",
"!r c #4D0B0B",
"!s c #4E0B0B",
"!t c #4F0B0B",
"!u c #500B0B",
"!v c #510B0B",
"!w c #510C0C",
"!x c #520B0B",
"!y c #520C0C",
"!z c #530B0B",
"!{ c #530C0C",
"!| c #540C0C",
"!} c #550C0C",
"!~ c #560C0C",
"#! c #570C0C",
"## c #580C0C",
"#$ c #580D0D",
"#% c #590D0D",
"#& c #5A0D0D",
"#' c #5B0D0D",
"#( c #5C0D0D",
"#) c #5D0D0D",
"#* c #5E0D0D",
"#+ c #5E0E0E",
"#, c #5F0D0D",
"#- c #5F0E0E",
"#. c #600E0E",
"#/ c #610E0E",
"#0 c #620E0E",
"#1 c #630E0E",
"#2 c #640E0E",
"#3 c #650E0E",
"#4 c #650F0F",
"#5 c #660E0E",
"#6 c #660F0F",
"#7 c #670E0E",
"#8 c #670F0F",
"#9 c #680F0F",
"#: c #690F0F",
"#; c #691010",
"#< c #6A0F0F",
"#= c #6B0F0F",
"#> c #6B1010",
"#? c #6B1111",
"#@ c #6C0F0F",
"#A c #6C1010",
"#B c #6D0F0F",
"#C c #6D1010",
"#D c #6E1010",
"#E c #6E1111",
"#F c #6F1010",
"#G c #6F1111",
"#H c #701010",
"#I c #701111",
"#J c #701212",
"#K c #711010",
"#L c #711111",
"#M c #711212",
"#N c #721010",
"#O c #721111",
"#P c #721212",
"#Q c #721313",
"#R c #731111",
"#S c #731313",
"#T c #741111",
"#U c #741212",
"#V c #741313",
"#W c #751111",
"#X c #751212",
"#Y c #751313",
"#Z c #761111",
"#[ c #761313",
"#] c #761414",
"#^ c #771111",
"#_ c #771212",
"#` c #781111",
"#a c #781212",
"#b c #791111",
"#c c #791212",
"#d c #791515",
"#e c #791616",
"#f c #7A1212",
"#g c #7A1313",
"#h c #7B1212",
"#i c #7B1616",
"#j c #7C1212",
"#k c #7C1313",
"#l c #7C1414",
"#m c #7D1212",
"#n c #7E1212",
"#o c #7E1313",
"#p c #7E1414",
"#q c #7E1515",
"#r c #7E1616",
"#s c #7E1717",
"#t c #7F1212",
"#u c #7F1515",
"#v c #801212",
"#w c #801313",
"#x c #801414",
"#y c #801616",
"#z c #811212",
"#{ c #811313",
"#| c #811414",
"#} c #811717",
"#~ c #821212",
"$! c #821313",
"$# c #821414",
"$$ c #831313",
"$% c #831919",
"$& c #841313",
"$' c #841414",
"$( c #841515",
"$) c #841919",
"$* c #851313",
"$+ c #851414",
"$, c #851515",
"$- c #851717",
"$. c #861313",
"$/ c #861414",
"$0 c #861515",
"$1 c #861616",
"$2 c #861717",
"$3 c #871313",
"$4 c #871414",
"$5 c #881313",
"$6 c #881414",
"$7 c #891414",
"$8 c #891515",
"$9 c #8A1414",
"$: c #8A1515",
"$; c #8A1616",
"$< c #8A1717",
"$= c #8A1818",
"$> c #8A1A1A",
"$? c #8B1414",
"$@ c #8B1616",
"$A c #8B1C1C",
"$B c #8B1D1D",
"$C c #8C1414",
"$D c #8C1616",
"$E c #8C1717",
"$F c #8C1A1A",
"$G c #8C1C1C",
"$H c #8D1616",
"$I c #8D1818",
"$J c #8D1919",
"$K c #8D1C1C",
"$L c #8E1818",
"$M c #8E1E1E",
"$N c #8F1A1A",
"$O c #8F1B1B",
"$P c #911919",
"$Q c #921D1D",
"$R c #931F1F",
"$S c #951B1B",
"$T c #951F1F",
"$U c #961C1C",
"$V c #961D1D",
"$W c #971C1C",
"$X c #991D1D",
"$Y c #991F1F",
"$Z c #992121",
"$[ c #9A2121",
"$] c #9A2222",
"$^ c #9B2020",
"$_ c #9E1F1F",
"$` c #9F2121",
"$a c #A12020",
"$b c #A12121",
"$c c #A12424",
"$d c #A12525",
"$e c #A22020",
"$f c #A22525",
"$g c #A22626",
"$h c #A62222",
"$i c #A62727",
"$j c #A72525",
"$k c #A82525",
"$l c #AA2727",
"$m c #AB2525",
"$n c #AE2727",
"$o c #AE2929",
"$p c #AE2A2A",
"$q c #B02727",
"$r c #B32C2C",
"$s c #B72C2C",
"$t c #B72E2E",
"$u c #B82D2D",
"$v c #B92B2B",
"$w c #B92C2C",
"$x c #BA2C2C",
"$y c #BB2E2E",
"$z c #BC2E2E",
"${ c #BC3030",
"$| c #C33535",
"$} c #C43535",
"$~ c #C43737",
"%! c #C53131",
"%# c #C73232",
"%$ c #C73535",
"%% c #C73636",
"%& c #C73737",
"%' c #C73939",
"%( c #C73B3B",
"%) c #C73D3D",
"%* c #C73E3E",
"%+ c #C74141",
"%, c #C74242",
"%- c #C74343",
"%. c #C74646",
"%/ c #C74949",
/* pixels */
"                                                                                                                                ",;
"                                                                                                                                ",;
"                                                                                                                                ",;
"                                                                                                                                ",;
"                                                                          !m#^#Z#R#K#D#<#3!Y                                    ",;
"                                                                    #f#v#t#m#h#c#^#T#K#D#<#5#/#)!x                              ",;
"                                                                $!$&$&$$#{#t#m#h#`#W#N#F#@#9#2#.#'!}!r                          ",;
"                                                            $$$.$4$.$*$&$!#v#n#h#`#Z#O#H#@#:#3#.#(#$!{!p!b                      ",;
"                                                          #T$7$7$6$4$.$&$!#v#n#h#`#W#N#H#@#:#3#/#)#$!|!s!k!T                    ",;
"                                                        $6$9$?$9$7$4$.$&$!#v#m#h#`#W#N#F#@#9#3#/#)#$!|!t!m!f!Y                  ",;
"                                                      $7$?$C$?$9$7$4$*$&#{#t#j#f#^#W#K#D#=#8#2#.#(#$!|!t!m!g!^!S                ",;
"                                                    $7$?$C$C$?$9$6$3$*$$#{#n#j#b#Z#R#H#C#<#6#1#.#(#$!{!t!m!g!_!V!K              ",;
"                                                  $*$?$C$C$?$9$7$4$.$*$$#w#n#h#`#W#N#F#@#:#5#0#+#'!~!{!s!k!g!_!W!M!?            ",;
"                                                #6$?$C$C$?$9$7$6$4$/$+$'#|#o#h#^#T#K#D#=#8#2#/#)#%!~!w!r!k!f!_!W!M!E!+          ",;
"                                              !i$7$?$C$?$9$7$7$7$:$@$E$<$1#|#k#^#R#H#@#:#5#1#-#(#$!|!u!p!j!d!^!V!M!E!:!#        ",;
"                                              $.$9$?$?$?$9$7$8$D$P$U$X$V$N$2#p#_#O#D#=#9#3#/#*#&!~!y!t!n!h!b![!U!L!E!;!1        ",;
"                                              $5$9$9$9$7$7$8$H$S$a$m$n$k$^$F#y#_#L#C#:#5#1#.#(#$!}!v!r!k!g!a!Y!S!L!D!;!1        ",;
"                                            $*$6$7$7$7$6$6$@$S$h$v%!%#$y$j$Q#}#[#I#>#8#3#/#*#&#!!{!t!n!j!d!_!W!Q!K!C!:!1!,      ",;
"                                          #t$*$4$6$6$6$4$8$P$e$x%&%*%)$}$o$T#}#Y#E#;#6#0#,#(##!}!x!s!l!h!b!^!V!N!I!A!9!0!,!,    ",;
"                                          $!$*$3$3$.$.$/$;$W$q%$%+%.%-$~$p$R#r#P#>#8#2#/#)#&#!!{!t!o!j!f!`!Y!S!L!F!>!7!0!,!,    ",;
"                                        #<$!$&$*$*$*$*$0$I$_$w%(%.%/%,$|$i$G#d#G#;#4#/#+#'#$!|!v!s!l!h!b!^!W!Q!K!D!<!4!-!,!,!(  ",;
"                                        #C#~$$$&$&$$$$$,$L$b$z%(%-%-%($t$]$%#V#?#6#1#.#(#%!~!{!t!n!i!e!`!Y!T!M!H!A!:!2!,!,!,!(  ",;
"                                        #C#z$!$!$!#z$!$($J$`$s%%%(%'${$g$A#e#E#9#2#.#)#&#!!|!u!r!k!h!b!]!W!Q!L!E!=!6!0!,!,!,!(  ",;
"                                      !s#j#t#v#v#v#t#t$#$=$Y$l$u${$r$f$M#s#Q#;#2#/#*#'##!|!v!s!l!i!e!`!Y!T!M!H!C!;!3!-!,!,!,!,!$",;
"                                      !s#h#n#n#n#n#n#m#x$-$O$[$c$d$Z$B#s#S#?#6#0#*#'#%!~!y!t!p!j!g!a![!W!Q!K!E!>!8!1!,!,!,!,!,!$",;
"                                      !r#f#h#j#j#h#h#h#k#u$-$>$K$A$)#i#Q#?#6#1#-#(#%!~!{!u!r!k!h!c!_!X!S!M!H!B!;!4!-!,!,!,!,!,!$",;
"                                      !p#`#f#f#f#f#c#a#a#g#l#q#r#i#]#J#>#6#1#-#)#&#!!|!u!r!l!i!d!`!Y!V!O!K!D!=!9!2!,!,!,!,!,!,!$",;
"                                      #N#Z#_#a#a#^#^#Z#W#X#X#X#U#M#E#;#6#1#-#)#&#!!|!v!s!n!j!g!a!Z!W!Q!M!I!A!;!5!.!,!,!,!,!,!,!,",;
"                                      #H#T#W#W#W#T#R#O#L#L#I#G#C#>#9#3#1#.#)#&#!!|!w!s!p!k!g!b!_!X!R!M!I!D!=!9!1!,!,!,!,!,!,!,!,",;
"                                      #F#N#R#R#R#N#K#H#F#D#A#>#:#8#2#/#-#)#&##!}!x!t!p!k!h!c!_!Y!T!O!K!E!?!:!3!.!,!,!,!,!,!,!,!,",;
"                                      #A#F#H#H#H#F#F#D#@#=#:#9#5#1#/#-#(#&#!!|!x!t!r!k!h!d!`!Z!V!O!L!F!C!<!4!0!,!,!,!,!,!,!,!,!,",;
"                                      #:#@#C#D#C#B#@#=#:#9#5#2#0#/#+#(#&#!!}!x!t!o!k!i!f!`![!W!Q!M!H!C!=!8!2!,!,!,!,!,!,!,!,!,!,",;
"                                      #8#<#=#=#<#<#:#9#7#3#1#/#-#)#(#%#!!|!y!t!o!l!i!d!a!^!W!S!N!J!D!>!:!3!-!,!,!,!,!,!,!,!,!,!,",;
"                                      #2#7#9#9#9#7#5#3#1#0#/#-#)#'#$!~!|!x!t!p!l!i!e!a!]!X!R!N!K!F!A!;!4!/!,!,!,!,!,!,!,!,!,!,!,",;
"                                      #.#2#2#2#2#2#1#0#/#-#+#(#&##!}!{!v!s!o!k!i!e!a!]!X!R!O!K!E!A!<!7!1!,!,!,!,!,!,!,!,!,!,!,!,",;
"                                      #)#.#/#/#/#/#.#-#*#(#'#%#!!}!z!u!s!o!k!h!d!a!]!X!T!O!K!F!C!<!7!2!,!,!,!,!,!,!,!,!,!,!,!,!,",;
"                                      #%#(#+#+#+#+#)#(#&#%#!!~!|!x!u!q!n!j!h!d!`![!X!U!O!L!F!C!=!9!2!-!,!,!,!,!,!,!,!,!,!,!,!,!,",;
"                                      !U#%#&#'#'#'#&#%#!!~!|!y!u!t!r!l!j!g!c!`!Z!X!U!O!L!H!C!=!:!3!-!,!,!,!,!,!,!,!,!,!,!,!,!,!$",;
"                                      !P!}#!#####!!~!}!|!{!v!t!r!n!l!i!g!b!`!Z!W!R!N!K!I!D!=!:!4!/!,!,!,!,!,!,!,!,!,!,!,!,!,!,!$",;
"                                      !L!v!{!|!|!{!{!x!v!t!s!o!l!j!h!f!b!_!Z!W!R!N!K!F!C!=!:!4!0!,!,!,!,!,!,!,!,!,!,!,!,!,!,!,!$",;
"                                      !H!o!t!u!u!u!t!s!r!o!l!k!i!g!b!a!^!Y!V!R!N!K!F!C!=!:!4!0!,!,!,!,!,!,!,!,!,!,!,!,!,!,!,!,!$",;
"                                        !_!n!o!q!o!o!n!l!k!i!g!c!a!_!Z!X!U!Q!M!K!F!C!=!9!4!0!,!,!,!,!,!,!,!,!,!,!,!,!,!,!,!,!(  ",;
"                                        !W!i!j!k!k!j!i!h!g!d!b!`!]!Y!W!R!O!L!J!E!C!<!9!3!0!,!,!,!,!,!,!,!,!,!,!,!,!,!,!,!,!,!(  ",;
"                                        !L!a!f!f!f!f!d!c!a!`!^!Y!W!U!Q!N!K!I!D!A!<!9!3!/!,!,!,!,!,!,!,!,!,!,!,!,!,!,!,!,!,!,!(  ",;
"                                          !Y!_!`!`!`!`!_!]!Y!W!V!R!O!L!J!F!C!>!;!9!2!.!,!,!,!,!,!,!,!,!,!,!,!,!,!,!,!,!,!,!,    ",;
"                                          !M!W!X!Y!Y!Y!X!W!T!R!O!M!K!I!E!A!=!:!6!2!-!,!,!,!,!,!,!,!,!,!,!,!,!,!,!,!,!,!,!,!,    ",;
"                                            !M!Q!T!T!T!R!Q!N!M!K!I!E!C!?!;!8!4!1!,!,!,!,!,!,!,!,!,!,!,!,!,!,!,!,!,!,!,!,!,      ",;
"                                              !K!M!M!M!L!K!J!F!E!C!>!<!:!6!2!0!,!,!,!,!,!,!,!,!,!,!,!,!,!,!,!,!,!,!,!,!,        ",;
"                                              !@!E!G!F!F!E!D!A!?!<!:!6!3!1!,!,!,!,!,!,!,!,!,!,!,!,!,!,!,!,!,!,!,!,!,!,!,        ",;
"                                              !%!<!?!?!>!=!=!;!:!7!3!1!-!,!,!,!,!,!,!,!,!,!,!,!,!,!,!,!,!,!,!,!,!,!,!,!!        ",;
"                                                !(!6!9!9!8!6!4!2!1!-!,!,!,!,!,!,!,!,!,!,!,!,!,!,!,!,!,!,!,!,!,!,!,!,!&          ",;
"                                                  !*!0!1!0!/!-!,!,!,!,!,!,!,!,!,!,!,!,!,!,!,!,!,!,!,!,!,!,!,!,!,!,!*            ",;
"                                                    !,!,!,!,!,!,!,!,!,!,!,!,!,!,!,!,!,!,!,!,!,!,!,!,!,!,!,!,!,!,!,              ",;
"                                                      !,!,!,!,!,!,!,!,!,!,!,!,!,!,!,!,!,!,!,!,!,!,!,!,!,!,!,!,!,                ",;
"                                                        !,!,!,!,!,!,!,!,!,!,!,!,!,!,!,!,!,!,!,!,!,!,!,!,!,!,!,                  ",;
"                                                          !(!,!,!,!,!,!,!,!,!,!,!,!,!,!,!,!,!,!,!,!,!,!,!,!'                    ",;
"                                                            !,!,!,!,!,!,!,!,!,!,!,!,!,!,!,!,!,!,!,!,!,!,!,                      ",;
"                                                                !,!,!,!,!,!,!,!,!,!,!,!,!,!,!,!,!,!,!,                          ",;
"                                                                    !*!,!,!,!,!,!,!,!,!,!,!,!,!,!)                              ",;
"                                                                          !$!,!,!,!,!,!,!,!$                                    ",;
"                                                                                                                                ",;
"                                                                                                                                ",;
"                                                                                                                                ",;
"                                                                                                                                ";
};
