/* XPM - frame 3 (angle 72deg) */
static char *frame3[] = {
"64 64 348 2 ",
"   c None",
"!! c #100202",
"!# c #130202",
"!$ c #150202",
"!% c #180303",
"!& c #1A0303",
"!' c #1E0404",
"!( c #1F0404",
"!) c #210404",
"!* c #220404",
"!+ c #230404",
"!, c #240404",
"!- c #240505",
"!. c #250404",
"!/ c #250505",
"!0 c #260505",
"!1 c #270505",
"!2 c #280505",
"!3 c #290505",
"!4 c #290606",
"!5 c #2A0505",
"!6 c #2A0606",
"!7 c #2B0505",
"!8 c #2B0606",
"!9 c #2C0606",
"!: c #2D0606",
"!; c #2E0606",
"!< c #2F0606",
"!= c #300606",
"!> c #300707",
"!? c #310606",
"!@ c #310707",
"!A c #320707",
"!B c #330707",
"!C c #340707",
"!D c #350707",
"!E c #360707",
"!F c #360808",
"!G c #370707",
"!H c #370808",
"!I c #380707",
"!J c #380808",
"!K c #390808",
"!L c #3A0808",
"!M c #3B0808",
"!N c #3C0808",
"!O c #3D0808",
"!P c #3D0909",
"!Q c #3E0808",
"!R c #3E0909",
"!S c #3F0909",
"!T c #400909",
"!U c #410909",
"!V c #420909",
"!W c #430909",
"!X c #430A0A",
"!Y c #440909",
"!Z c #440A0A",
"![ c #450A0A",
"!] c #460A0A",
"!^ c #470A0A",
"!_ c #480A0A",
"!` c #490A0A",
"!a c #490B0B",
"!b c #4A0A0A",
"!c c #4A0B0B",
"!d c #4B0A0A",
"!e c #4B0B0B",
"!f c #4C0B0B",
"!g c #4D0A0A",
"!h c #4D0B0B",
"!i c #4E0B0B",
"!j c #4F0B0B",
"!k c #500B0B",
"!l c #500C0C",
"!m c #510B0B",
"!n c #510C0C",
"!o c #520B0B",
"!p c #520C0C",
"!q c #530B0B",
"!r c #530C0C",
"!s c #540B0B",
"!t c #540C0C",
"!u c #550C0C",
"!v c #560C0C",
"!w c #570C0C",
"!x c #580C0C",
"!y c #580D0D",
"!z c #590C0C",
"!{ c #590D0D",
"!| c #5A0C0C",
"!} c #5A0D0D",
"!~ c #5B0D0D",
"#! c #5C0D0D",
"## c #5D0D0D",
"#$ c #5E0D0D",
"#% c #5F0D0D",
"#& c #5F0E0E",
"#' c #600D0D",
"#( c #600E0E",
"#) c #610D0D",
"#* c #610E0E",
"#+ c #620E0E",
"#, c #630E0E",
"#- c #640E0E",
"#. c #650E0E",
"#/ c #660E0E",
"#0 c #660F0F",
"#1 c #670E0E",
"#2 c #670F0F",
"#3 c #680F0F",
"#4 c #690F0F",
"#5 c #6A0F0F",
"#6 c #6B0F0F",
"#7 c #6C0F0F",
"#8 c #6C1010",
"#9 c #6D0F0F",
"#: c #6D1010",
"#; c #6E0F0F",
"#< c #6E1010",
"#= c #6F1010",
"#> c #701010",
"#? c #711010",
"#@ c #721010",
"#A c #721111",
"#B c #731010",
"#C c #731111",
"#D c #741111",
"#E c #751111",
"#F c #761111",
"#G c #771111",
"#H c #771212",
"#I c #781111",
"#J c #781212",
"#K c #791111",
"#L c #791212",
"#M c #7A1111",
"#N c #7A1212",
"#O c #7B1212",
"#P c #7B1313",
"#Q c #7C1212",
"#R c #7C1313",
"#S c #7D1212",
"#T c #7D1313",
"#U c #7E1212",
"#V c #7E1313",
"#W c #7E1414",
"#X c #7F1212",
"#Y c #7F1313",
"#Z c #7F1414",
"#[ c #801212",
"#] c #801313",
"#^ c #811313",
"#_ c #811414",
"#` c #821313",
"#a c #821414",
"#b c #821515",
"#c c #831313",
"#d c #831414",
"#e c #831515",
"#f c #841313",
"#g c #841414",
"#h c #851313",
"#i c #851414",
"#j c #851515",
"#k c #851616",
"#l c #851717",
"#m c #861313",
"#n c #861414",
"#o c #861616",
"#p c #871414",
"#q c #871515",
"#r c #871616",
"#s c #871717",
"#t c #881414",
"#u c #881616",
"#v c #891414",
"#w c #891515",
"#x c #891616",
"#y c #891717",
"#z c #8A1414",
"#{ c #8B1414",
"#| c #8B1717",
"#} c #8C1414",
"#~ c #8C1515",
"$! c #8D1414",
"$# c #8D1515",
"$$ c #8D1818",
"$% c #8E1515",
"$& c #8E1818",
"$' c #8E1919",
"$( c #8F1414",
"$) c #8F1515",
"$* c #8F1616",
"$+ c #8F1818",
"$, c #8F1A1A",
"$- c #901515",
"$. c #901717",
"$/ c #911515",
"$0 c #911616",
"$1 c #911818",
"$2 c #911B1B",
"$3 c #921515",
"$4 c #921A1A",
"$5 c #931515",
"$6 c #931616",
"$7 c #931B1B",
"$8 c #941616",
"$9 c #941919",
"$: c #941A1A",
"$; c #941B1B",
"$< c #941C1C",
"$= c #951616",
"$> c #951818",
"$? c #961616",
"$@ c #961717",
"$A c #961919",
"$B c #971616",
"$C c #981616",
"$D c #981717",
"$E c #981818",
"$F c #981D1D",
"$G c #991616",
"$H c #991818",
"$I c #9A1616",
"$J c #9A1717",
"$K c #9A1B1B",
"$L c #9B1616",
"$M c #9B1717",
"$N c #9B1B1B",
"$O c #9B1D1D",
"$P c #9C1616",
"$Q c #9C1717",
"$R c #9C1919",
"$S c #9C1B1B",
"$T c #9D1616",
"$U c #9D1717",
"$V c #9D1818",
"$W c #9D1D1D",
"$X c #9D1F1F",
"$Y c #9E1616",
"$Z c #9E1717",
"$[ c #9E1818",
"$] c #9E1A1A",
"$^ c #9E1D1D",
"$_ c #9F1717",
"$` c #9F1C1C",
"$a c #A01717",
"$b c #A01818",
"$c c #A11717",
"$d c #A11818",
"$e c #A11919",
"$f c #A11B1B",
"$g c #A11E1E",
"$h c #A12020",
"$i c #A21717",
"$j c #A21919",
"$k c #A21A1A",
"$l c #A21C1C",
"$m c #A31717",
"$n c #A31919",
"$o c #A31A1A",
"$p c #A31B1B",
"$q c #A41717",
"$r c #A41A1A",
"$s c #A42222",
"$t c #A51C1C",
"$u c #A52020",
"$v c #A52121",
"$w c #A61E1E",
"$x c #A61F1F",
"$y c #A62323",
"$z c #A71C1C",
"${ c #A71D1D",
"$| c #A72020",
"$} c #A81D1D",
"$~ c #A81F1F",
"%! c #A92323",
"%# c #AB1D1D",
"%$ c #AC1E1E",
"%% c #AD1F1F",
"%& c #AF2020",
"%' c #AF2222",
"%( c #AF2424",
"%) c #AF2626",
"%* c #B12323",
"%+ c #B12626",
"%, c #B22222",
"%- c #B22525",
"%. c #B32222",
"%/ c #B32626",
"%0 c #B62323",
"%1 c #B62424",
"%2 c #B62929",
"%3 c #B72626",
"%4 c #B82424",
"%5 c #B82626",
"%6 c #BA2626",
"%7 c #BA2A2A",
"%8 c #BB2424",
"%9 c #BB2929",
"%: c #BC2C2C",
"%; c #BE2B2B",
"%< c #C22929",
"%= c #C32C2C",
"%> c #C42B2B",
"%? c #C52D2D",
"%@ c #C52F2F",
"%A c #C72A2A",
"%B c #CA2D2D",
"%C c #CB2E2E",
"%D c #CD3232",
"%E c #CE3131",
"%F c #CE3232",
"%G c #CF2E2E",
"%H c #D02F2F",
"%I c #D03131",
"%J c #D23030",
"%K c #D33333",
"%L c #D43535",
"%M c #D63232",
"%N c #D73737",
"%O c #DA3535",
"%P c #DA3737",
"%Q c #DD3838",
"%R c #E13737",
"%S c #E33D3D",
"%T c #E53D3D",
"%U c #E54040",
"%V c #E63838",
"%W c #E73A3A",
"%X c #E73C3C",
"%Y c #E74040",
"%Z c #E74242",
"%[ c #E83B3B",
"%] c #E84141",
"%^ c #E93B3B",
"%_ c #E94444",
"%` c #E94545",
"%a c #E94747",
"%b c #E94A4A",
"%c c #E94C4C",
"%d c #E94D4D",
"%e c #E94E4E",
"%f c #E95151",
"%g c #E95353",
"%h c #E95454",
"%i c #E95656",
/* pixels */
"                                                                                                                                ",;
"                                                                                                                                ",;
"                                                                                                                                ",;
"                                                                                                                                ",;
"                                                                                      #}#{#v#n#c#]#S#I#7                        ",;
"                                                                              $=$?$=$6$/$)$##z#p#f#^#S#K#D#=#5!U                ",;
"                                                                        $($L$L$I$G$B$?$6$/$)#}#v#m#`#X#O#G#A#<#4#,!~            ",;
"                                                                    #N$T$Z$Z$T$P$I$G$B$8$3$)#}#v#n#c#X#Q#I#D#=#6#0#*!}!k        ",;
"                                                                  #D$c$c$a$_$Z$T$L$G$B$8$3$)#}#v#m#c#X#Q#I#D#>#6#2#+##!w!j      ",;
"                                                              !~$a$i$m$i$c$a$Z$T$L$C$?$8$/$)#}#v#h#`#X#O#G#D#>#6#2#+##!y!p!e!U  ",;
"                                                            !l$c$m$q$m$i$c$a$Z$P$I$C$=$5$-$%#{#t#f#^#U#N#G#C#=#6#0#+##!y!r!h!]!P",;
"                                                            $c$m$q$q$m$i$a$_$T$L$G$B$8$3$)#}#z#n#c#]#S#L#E#@#<#5#0#+##!y!r!i!_!U",;
"                                                          $c$m$q$q$m$i$c$_$Z$P$L$G$?$8$/$%#{#t#h#`#U#O#I#D#>#:#4#.#*#!!w!p!h!_!V",;
"                                                        $a$m$q$q$m$i$c$a$_$Z$U$Q$M$D$=$0$##z#p#c#]#S#N#F#C#>#7#3#-#&!~!v!n!h!_!V",;
"                                                      $_$i$m$q$m$i$c$a$a$d$j$o$p$f$]$E$6$%#z#m#`#X#Q#K#E#@#<#5#0#+#$!}!u!m!f!^!U",;
"                                                    $M$c$i$m$m$i$c$a$d$n$z%%%,%.%'$~$`$A$*#t#f#^#S#N#G#C#>#7#3#-#(#!!x!t!j!e!]!T",;
"                                                    $_$c$i$i$c$c$a$d$r%#%0%<%B%C%>%3$|$K$.#t#`#X#O#I#D#?#<#5#0#+#$!}!v!p!i!`!Z!S",;
"                                                  $M$_$a$c$c$a$_$b$o%$%8%G%R%^%W%O%?%($W$+#q#^#Q#K#F#@#=#6#3#-#(#!!x!t!k!f!^!V!P",;
"                                                $=$Q$Z$_$_$_$_$Z$e$}%4%H%[%`%b%a%T%E%/$^$&#j#Y#N#G#C#>#7#4#/#+#$!~!w!r!i!c![!T!M",;
"                                                $C$P$T$Y$Y$T$U$[$k%&%A%V%a%f%g%c%U%F%+$O#|#a#Q#I#D#?#<#6#2#-#(#!!z!u!k!f!_!X!R!K",;
"                                              $!$G$L$P$P$P$L$M$[$t%1%J%Y%e%i%h%b%S%@%!$;#r#Y#L#F#@#=#7#3#.#*#$!}!v!o!i!c!]!U!O!J",;
"                                              $/$C$I$I$I$I$I$J$V${%6%M%]%c%f%d%Z%L%2$X$$#b#P#F#B#>#7#4#/#+#%!~!w!r!j!e!^!W!S!L!E",;
"                                              $/$B$C$G$C$C$C$D$R$w%5%I%X%_%`%]%N%:$s$2#k#T#I#B#>#9#5#/#,#%#!!x!u!m!h!`![!U!O!J!B",;
"                                            #]$3$=$?$?$?$?$=$?$H$l%*%=%K%Q%P%D%7$y$<#s#W#J#D#?#9#5#1#,#'##!|!v!q!j!e!^!W!R!L!D!>",;
"                                            #]$/$6$8$8$8$6$6$6$@$S$x%-%9%;%7%)$h$7#s#Z#L#E#?#9#6#3#.#*#$!~!w!q!k!f!_!Z!T!M!H!A!;",;
"                                            #Y$)$-$/$/$/$-$-$-$0$>$N$g$u$v$h$F$,#l#W#L#E#?#;#6#3#.#+#$!~!w!t!k!h!`![!U!O!K!C!=!9",;
"                                            #U$#$)$)$)$)$%$#$#$#$*$1$9$:$4$'#y#e#T#J#D#?#<#6#3#.#+#$!~!x!t!m!i!b!]!V!R!M!E!A!:!3",;
"                                          #:#t#{#~$#$##}#{#{#z#v#w#w#x#u#o#e#Z#P#H#D#?#<#6#3#.#+#%!~!x!u!o!j!d!^!Y!T!N!J!B!<!6!0",;
"                                          #8#i#t#v#z#v#v#t#p#n#i#g#g#d#_#Y#R#L#F#C#>#:#5#2#.#+#%#!!z!v!o!j!e!_!Y!T!N!J!C!=!9!1!+",;
"                                          #4#c#h#n#n#n#m#h#f#c#`#^#Y#V#Q#N#I#E#@#>#:#5#3#.#+#%#!!z!v!o!j!f!_!Y!U!O!K!D!@!:!3!/!)",;
"                                          #3#]#c#f#f#c#c#`#^#[#U#S#Q#N#I#F#C#?#=#7#5#2#-#+#%#!!{!u!o!j!f!_![!U!Q!L!E!B!<!5!0!)!)",;
"                                          #.#S#X#]#^#]#[#X#U#S#O#M#I#F#D#@#>#:#6#4#0#-#*#$!~!x!u!p!k!f!`!]!V!Q!M!G!B!<!7!1!*!)!)",;
"                                          #,#N#Q#S#S#S#Q#Q#O#K#I#F#D#@#?#=#9#6#3#/#,#*#$!~!x!v!o!j!f!a![!V!Q!M!G!B!=!9!2!+!)!)!)",;
"                                          #%#F#K#L#L#L#K#I#G#F#D#B#?#>#<#7#4#2#.#+#'##!}!x!u!o!j!f!_![!V!R!M!I!C!=!9!2!.!)!)!)!)",;
"                                          #!#B#E#F#F#F#F#E#D#B#?#>#<#7#5#3#/#,#*#%#!!|!w!t!m!i!e!_![!V!S!N!J!C!@!:!3!.!)!)!)!)!)",;
"                                          !y#<#?#@#@#@#@#?#>#=#9#7#5#3#/#-#+#'#$!~!z!v!r!m!i!e!_![!V!S!M!J!C!@!:!4!/!*!)!)!)!)!)",;
"                                          !r#5#9#<#<#<#<#:#7#6#5#3#1#.#,#)#%##!|!x!u!q!k!h!c!^!Z!U!R!M!H!C!>!:!4!/!*!)!)!)!)!)!)",;
"                                            ###4#5#6#6#6#5#4#3#/#.#,#*#%##!~!z!v!t!m!j!f!`!^!Z!U!P!L!H!C!@!:!6!0!*!)!)!)!)!)!)!)",;
"                                            !y#-#/#1#1#/#/#.#-#+#*#%##!~!z!w!u!q!k!i!e!_!]!W!T!P!L!H!C!>!:!4!0!*!)!)!)!)!)!)!)!)",;
"                                            !r#'#+#,#,#+#+#*#'#$##!~!}!x!v!s!m!j!h!c!_![!V!S!N!K!E!B!=!9!3!/!*!)!)!)!)!)!)!)!)!)",;
"                                            !g!|###$#$#$#$###!!~!z!w!v!t!o!j!h!e!_!]!Y!U!R!M!J!D!A!<!9!3!0!*!)!)!)!)!)!)!)!)!)!)",;
"                                              !t!x!z!|!|!z!z!x!v!u!q!m!k!i!f!b!^![!V!T!O!M!J!D!A!<!8!2!/!)!)!)!)!)!)!)!)!)!)!)!)",;
"                                              !g!q!u!u!u!u!s!q!o!m!j!i!f!c!_!]!W!U!R!N!K!E!C!?!:!6!1!-!)!)!)!)!)!)!)!)!)!)!)!)!)",;
"                                              !W!h!j!k!k!k!k!j!i!f!e!a!^![!X!U!S!N!L!J!D!A!<!9!3!0!+!)!)!)!)!)!)!)!)!)!)!)!)!)!)",;
"                                                !]!c!e!f!f!e!c!a!_!^![!X!V!T!P!M!K!E!C!?!;!8!3!/!*!)!)!)!)!)!)!)!)!)!)!)!)!)!)!)",;
"                                                !N!Z![!]!^!]!]![!Z!V!U!S!P!M!K!F!C!A!<!9!5!1!,!)!)!)!)!)!)!)!)!)!)!)!)!)!)!)!)!)",;
"                                                  !N!S!U!V!V!U!T!S!P!N!L!J!F!C!A!>!:!8!2!/!*!)!)!)!)!)!)!)!)!)!)!)!)!)!)!)!)!)!)",;
"                                                    !K!M!N!N!N!M!L!K!H!E!C!A!=!;!8!3!0!-!)!)!)!)!)!)!)!)!)!)!)!)!)!)!)!)!)!)!)!)",;
"                                                    !<!C!E!H!E!E!D!B!A!>!<!:!8!2!0!-!*!)!)!)!)!)!)!)!)!)!)!)!)!)!)!)!)!)!)!)!)!)",;
"                                                      !9!<!>!>!=!=!<!:!9!6!2!0!-!*!)!)!)!)!)!)!)!)!)!)!)!)!)!)!)!)!)!)!)!)!)!)!)",;
"                                                        !1!3!6!8!5!3!2!0!/!+!)!)!)!)!)!)!)!)!)!)!)!)!)!)!)!)!)!)!)!)!)!)!)!)!)!)",;
"                                                          !*!-!-!,!+!+!)!)!)!)!)!)!)!)!)!)!)!)!)!)!)!)!)!)!)!)!)!)!)!)!)!)!)!)!)",;
"                                                            !)!)!)!)!)!)!)!)!)!)!)!)!)!)!)!)!)!)!)!)!)!)!)!)!)!)!)!)!)!)!)!)!)!)",;
"                                                            !!!)!)!)!)!)!)!)!)!)!)!)!)!)!)!)!)!)!)!)!)!)!)!)!)!)!)!)!)!)!)!)!)!)",;
"                                                              !#!)!)!)!)!)!)!)!)!)!)!)!)!)!)!)!)!)!)!)!)!)!)!)!)!)!)!)!)!)!)!)  ",;
"                                                                  !%!)!)!)!)!)!)!)!)!)!)!)!)!)!)!)!)!)!)!)!)!)!)!)!)!)!)!)      ",;
"                                                                    !&!)!)!)!)!)!)!)!)!)!)!)!)!)!)!)!)!)!)!)!)!)!)!)!)!)        ",;
"                                                                        !(!)!)!)!)!)!)!)!)!)!)!)!)!)!)!)!)!)!)!)!)!)            ",;
"                                                                              !)!)!)!)!)!)!)!)!)!)!)!)!)!)!)!)!$                ",;
"                                                                                      !)!)!)!)!)!)!)!)!'                        ",;
"                                                                                                                                ",;
"                                                                                                                                ",;
"                                                                                                                                ",;
"                                                                                                                                ";
};
