/* XPM - frame 4 (angle 108deg) */
static char *frame4[] = {
"64 64 312 2 ",
"   c None",
"!! c #100202",
"!# c #130202",
"!$ c #160303",
"!% c #180303",
"!& c #190303",
"!' c #1C0303",
"!( c #1E0404",
"!) c #1F0404",
"!* c #200404",
"!+ c #210404",
"!, c #210505",
"!- c #220404",
"!. c #220505",
"!/ c #230404",
"!0 c #230505",
"!1 c #240505",
"!2 c #250505",
"!3 c #260505",
"!4 c #270505",
"!5 c #280505",
"!6 c #290505",
"!7 c #290606",
"!8 c #2A0505",
"!9 c #2A0606",
"!: c #2B0505",
"!; c #2B0606",
"!< c #2C0505",
"!= c #2C0606",
"!> c #2D0606",
"!? c #2E0606",
"!@ c #2F0606",
"!A c #300606",
"!B c #300707",
"!C c #310606",
"!D c #310707",
"!E c #320606",
"!F c #320707",
"!G c #330707",
"!H c #340707",
"!I c #350707",
"!J c #360707",
"!K c #370707",
"!L c #370808",
"!M c #380707",
"!N c #380808",
"!O c #390808",
"!P c #3A0808",
"!Q c #3B0808",
"!R c #3C0808",
"!S c #3D0808",
"!T c #3D0909",
"!U c #3E0808",
"!V c #3E0909",
"!W c #3F0808",
"!X c #3F0909",
"!Y c #400909",
"!Z c #410909",
"![ c #420909",
"!] c #430909",
"!^ c #430A0A",
"!_ c #440909",
"!` c #440A0A",
"!a c #450909",
"!b c #450A0A",
"!c c #460A0A",
"!d c #470A0A",
"!e c #480A0A",
"!f c #490A0A",
"!g c #4A0A0A",
"!h c #4A0B0B",
"!i c #4B0A0A",
"!j c #4C0A0A",
"!k c #4C0B0B",
"!l c #4D0A0A",
"!m c #4D0B0B",
"!n c #4E0A0A",
"!o c #4E0B0B",
"!p c #4F0B0B",
"!q c #500B0B",
"!r c #510B0B",
"!s c #520B0B",
"!t c #520C0C",
"!u c #530B0B",
"!v c #530C0C",
"!w c #540C0C",
"!x c #550C0C",
"!y c #560C0C",
"!z c #570C0C",
"!{ c #580C0C",
"!| c #580D0D",
"!} c #590C0C",
"!~ c #590D0D",
"#! c #5A0D0D",
"## c #5B0D0D",
"#$ c #5C0D0D",
"#% c #5D0D0D",
"#& c #5E0D0D",
"#' c #5F0D0D",
"#( c #5F0E0E",
"#) c #600D0D",
"#* c #600E0E",
"#+ c #610E0E",
"#, c #620E0E",
"#- c #630E0E",
"#. c #640E0E",
"#/ c #640F0F",
"#0 c #650E0E",
"#1 c #650F0F",
"#2 c #660E0E",
"#3 c #660F0F",
"#4 c #670F0F",
"#5 c #680F0F",
"#6 c #690F0F",
"#7 c #6A0F0F",
"#8 c #6B0F0F",
"#9 c #6B1010",
"#: c #6C0F0F",
"#; c #6C1010",
"#< c #6D0F0F",
"#= c #6D1010",
"#> c #6E1010",
"#? c #6F1010",
"#@ c #6F1111",
"#A c #701010",
"#B c #701111",
"#C c #711010",
"#D c #711111",
"#E c #721010",
"#F c #721111",
"#G c #731010",
"#H c #731111",
"#I c #731212",
"#J c #741010",
"#K c #741111",
"#L c #741212",
"#M c #751010",
"#N c #751111",
"#O c #751212",
"#P c #751313",
"#Q c #761111",
"#R c #761212",
"#S c #761313",
"#T c #771111",
"#U c #771212",
"#V c #771313",
"#W c #781111",
"#X c #781212",
"#Y c #781313",
"#Z c #791111",
"#[ c #791212",
"#] c #791313",
"#^ c #7A1111",
"#_ c #7A1212",
"#` c #7B1111",
"#a c #7B1212",
"#b c #7B1313",
"#c c #7B1414",
"#d c #7C1212",
"#e c #7D1212",
"#f c #7D1313",
"#g c #7D1414",
"#h c #7D1515",
"#i c #7E1212",
"#j c #7E1313",
"#k c #7E1414",
"#l c #7E1515",
"#m c #7F1212",
"#n c #7F1313",
"#o c #7F1616",
"#p c #801212",
"#q c #801313",
"#r c #801616",
"#s c #801717",
"#t c #811212",
"#u c #811313",
"#v c #811616",
"#w c #821313",
"#x c #831313",
"#y c #831414",
"#z c #831616",
"#{ c #841313",
"#| c #851313",
"#} c #851515",
"#~ c #851616",
"$! c #851818",
"$# c #861313",
"$$ c #861414",
"$% c #861616",
"$& c #861717",
"$' c #861818",
"$( c #871414",
"$) c #881414",
"$* c #881515",
"$+ c #881717",
"$, c #881818",
"$- c #881919",
"$. c #891414",
"$/ c #891616",
"$0 c #8A1414",
"$1 c #8A1515",
"$2 c #8B1414",
"$3 c #8B1515",
"$4 c #8B1A1A",
"$5 c #8C1414",
"$6 c #8C1515",
"$7 c #8C1818",
"$8 c #8D1515",
"$9 c #8D1616",
"$: c #8D1B1B",
"$; c #8E1515",
"$< c #8E1717",
"$= c #8F1515",
"$> c #8F1717",
"$? c #8F1818",
"$@ c #8F1919",
"$A c #8F1C1C",
"$B c #901515",
"$C c #901616",
"$D c #911515",
"$E c #911616",
"$F c #911A1A",
"$G c #911C1C",
"$H c #921515",
"$I c #931515",
"$J c #931616",
"$K c #931818",
"$L c #931D1D",
"$M c #941515",
"$N c #941616",
"$O c #941C1C",
"$P c #951515",
"$Q c #951717",
"$R c #951818",
"$S c #951919",
"$T c #951A1A",
"$U c #961515",
"$V c #961717",
"$W c #961818",
"$X c #961A1A",
"$Y c #961D1D",
"$Z c #961E1E",
"$[ c #971818",
"$] c #972020",
"$^ c #981A1A",
"$_ c #981B1B",
"$` c #981E1E",
"$a c #991A1A",
"$b c #991D1D",
"$c c #9B1A1A",
"$d c #9B2121",
"$e c #9E1D1D",
"$f c #9F1C1C",
"$g c #9F2020",
"$h c #A01D1D",
"$i c #A02323",
"$j c #A21D1D",
"$k c #A22323",
"$l c #A32020",
"$m c #A32121",
"$n c #A32424",
"$o c #A41F1F",
"$p c #A52323",
"$q c #A82424",
"$r c #A82525",
"$s c #A92121",
"$t c #AA2323",
"$u c #AB2222",
"$v c #AC2424",
"$w c #AC2626",
"$x c #AD2626",
"$y c #AE2525",
"$z c #AE2828",
"${ c #AF2323",
"$| c #B32A2A",
"$} c #B52727",
"$~ c #B52B2B",
"%! c #B62929",
"%# c #B82929",
"%$ c #B92D2D",
"%% c #BA2828",
"%& c #BB2A2A",
"%' c #BE2C2C",
"%( c #C23131",
"%) c #C32C2C",
"%* c #C32E2E",
"%+ c #C42D2D",
"%, c #C52E2E",
"%- c #C53030",
"%. c #C53131",
"%/ c #C83030",
"%0 c #C83232",
"%1 c #C93434",
"%2 c #CB3434",
"%3 c #CE3737",
"%4 c #CF3434",
"%5 c #D03838",
"%6 c #D23434",
"%7 c #D63636",
"%8 c #D63737",
"%9 c #D63939",
"%: c #D63D3D",
"%; c #D63E3E",
"%< c #D63F3F",
"%= c #D64141",
"%> c #D64343",
"%? c #D64444",
"%@ c #D64747",
"%A c #D64949",
"%B c #D64A4A",
"%C c #D64B4B",
"%D c #D64E4E",
/* pixels */
"                                                                                                                                ",;
"                                                                                                                                ",;
"                                                                                                                                ",;
"                                                                                                                                ",;
"                                                                                      #q#p#i#d#Z#Q#E#<!_                        ",;
"                                                                              !h$.$.$)$$#{#w#m#d#Z#Q#E#>#6#.#&                  ",;
"                                                                          $2$;$;$8$6$2$)$##{#t#i#`#T#J#A#;#5#-#%!z!P            ",;
"                                                                      #{$D$D$D$B$;$8$2$.$##{#t#i#a#W#J#C#=#6#.#*##!x!k          ",;
"                                                                    #K$M$M$I$H$D$=$8$2$.$##{#t#i#`#W#J#C#=#6#0#+#$!z!r!g        ",;
"                                                                  $I$P$P$P$M$H$D$=$8$2$.$##{#t#i#^#T#J#A#=#6#0#+#$!z!t!k!b!R    ",;
"                                                                $M$U$U$U$P$M$H$B$;$8$0$)#|#x#p#e#Z#Q#G#A#;#5#.#*#$!z!t!m!d!Y!L  ",;
"                                                              $M$U$U$U$U$P$I$H$B$;$6$.$(#{#u#m#a#W#N#E#>#8#5#.#*##!z!t!m!e![!Q!;",;
"                                                            $I$U$U$U$U$P$M$H$D$=$;$3$.$$#x#q#e#^#T#J#C#>#7#3#-#&#!!y!r!k!e![!R!I",;
"                                                          $H$U$U$U$U$P$M$I$H$D$B$=$8$1$(#x#n#d#Z#Q#G#?#;#5#0#+#%!~!x!q!k!d![!R!I",;
"                                                        #p$P$U$U$U$P$M$I$I$N$Q$W$S$K$<$*#x#n#a#W#J#C#>#8#4#-#(#$!{!w!q!i!c!Z!Q!I",;
"                                                      #5$H$P$U$U$P$M$I$N$V$c$h$o$l$e$X$7#}#j#[#Q#E#?#;#6#0#,#&#!!y!s!o!f!b!Y!P!I",;
"                                                      #8$M$P$P$M$M$I$N$[$f$u$}%&%#$y$g$F$%#j#X#K#C#>#7#4#.#*#$!{!w!q!k!e!]!V!P!H",;
"                                                    !v$B$I$M$M$I$I$J$W$f${%)%6%7%4%'$q$O$&#f#U#F#?#:#5#0#,#&#!!y!u!p!g!c![!S!N!G",;
"                                                    $5$D$H$H$H$H$D$J$c$u%+%9%=%>%:%0$x$Y$&#b#O#B#=#7#3#-#)#$!}!x!r!m!f!`!Y!Q!J!D",;
"                                                    $8$B$D$D$B$B$E$R$j%%%8%?%C%B%=%1$w$L#z#Y#F#>#9#5#/#+#%#!!y!u!p!i!d!]!V!O!I!A",;
"                                                  $)$8$=$B$B$=$=$C$^$s%,%:%B%D%B%<%($n$:#l#O#B#;#5#1#,#(##!{!w!r!l!f!b!Z!R!M!G!?",;
"                                                  $.$5$;$;$;$8$8$C$a$v%/%;%@%A%>%3$|$]$!#]#F#=#6#4#-#*#%!~!y!s!o!g!c![!W!P!I!C!=",;
"                                                  $.$2$5$6$3$2$6$>$_$t%*%9%<%;%5%$$i$4#h#L#?#7#4#.#+#%#!!z!v!p!j!e!a!Y!R!M!H!@!8",;
"                                                #x$($.$0$0$0$.$.$9$T$m%!%-%2%.$~$k$A#r#S#@#9#5#.#,#'##!{!w!r!o!g!c![!U!P!J!C!=!4",;
"                                                #x$#$)$)$)$($($($1$?$b$p$x$z$r$d$:#s#V#D#;#5#0#,#(#$!|!x!t!o!i!d!^!Y!R!K!G!?!8!3",;
"                                                #u#{#|$#$##|#|#{$$$/$@$O$`$Z$G$-#o#V#B#;#6#0#,#(#$#!!y!v!p!k!e!b!Z!T!O!I!C!=!5!/",;
"                                                #p#w#x#x#x#x#w#u#w#y#~$+$,$'#v#c#P#B#;#5#2#-#*#%#!!y!v!q!m!f!c![!V!P!L!F!?!7!2!+",;
"                                              #W#i#p#u#u#u#p#m#i#i#j#k#k#g#c#Y#I#@#;#6#1#-#)#%#!!z!w!r!o!g!d!]!Y!R!N!H!B!;!4!0!)",;
"                                              #T#a#e#i#i#i#e#d#a#_#_#[#X#R#K#D#>#9#5#1#-#*#%#!!z!w!r!o!g!d!`!Y!R!N!I!D!>!6!1!*!(",;
"                                              #M#Z#a#a#a#a#`#^#Z#W#Q#N#H#C#?#=#7#5#1#,#*#%#!!z!w!s!p!i!e!b!Z!U!P!J!F!?!9!3!.!(!(",;
"                                              #G#Q#W#Z#Z#W#W#T#Q#J#G#C#A#>#;#6#4#0#,#*#%#!!{!x!t!o!i!e!b![!V!P!K!G!A!=!4!0!(!(!(",;
"                                              #?#G#N#Q#Q#Q#M#J#G#C#A#>#;#7#5#3#.#,#(#$#!!z!w!r!p!k!f!b![!X!Q!M!H!A!=!5!1!*!(!(!(",;
"                                              #=#C#G#G#G#E#E#C#A#>#=#9#6#4#0#-#+#&#$#!!z!w!r!p!i!e!b![!X!Q!M!H!C!?!8!2!+!(!(!(!(",;
"                                              #6#>#?#A#A#A#?#>#=#9#6#5#3#/#,#*#&##!}!y!w!r!o!j!f!c![!X!R!N!I!E!?!8!3!-!)!(!(!(!(",;
"                                              #1#7#;#;#;#;#9#7#6#5#4#1#-#+#(#%#!!}!y!u!r!o!i!e!b![!X!R!O!I!F!?!:!4!/!)!(!(!(!(!(",;
"                                              #+#3#5#6#6#6#5#4#3#0#-#,#*#&#$#!!z!x!s!q!o!i!e!b![!X!R!O!I!F!@!;!4!/!*!(!(!(!(!(!(",;
"                                              #$#-#0#1#1#1#1#.#-#+#*#&#$#!!{!y!w!s!p!l!g!d!`!Z!X!R!O!J!F!@!;!5!1!*!(!(!(!(!(!(!(",;
"                                                #'#+#,#,#,#+#*#(#&#%##!~!z!x!v!r!o!k!g!d!_!Z!X!Q!N!I!F!@!;!5!1!+!(!(!(!(!(!(!(!(",;
"                                                #!#%#&#'#&#&#%#$##!}!{!y!w!s!q!m!i!e!c!]!Y!U!Q!N!I!F!@!;!5!2!+!(!(!(!(!(!(!(!(!(",;
"                                                !x!~#!#####!#!!{!z!x!w!s!q!o!j!g!e!b!^!Y!T!P!K!H!C!@!:!5!2!+!(!(!(!(!(!(!(!(!(!(",;
"                                                !p!w!y!y!y!y!x!w!v!s!q!p!l!i!e!c!`![!X!S!P!L!H!C!?!:!4!2!+!(!(!(!(!(!(!(!(!(!(!(",;
"                                                  !p!r!u!u!s!s!r!p!o!l!i!f!d!b!]!Y!V!Q!O!J!G!D!?!:!4!1!+!(!(!(!(!(!(!(!(!(!(!(!(",;
"                                                  !g!l!o!p!o!n!l!j!g!e!d!b!]!Z!X!S!P!N!I!F!A!>!8!4!1!+!(!(!(!(!(!(!(!(!(!(!(!(!(",;
"                                                  ![!e!f!g!g!g!f!e!c!b!^!Z!X!S!Q!O!K!H!F!@!=!6!3!0!*!(!(!(!(!(!(!(!(!(!(!(!(!(!(",;
"                                                    ![!`!b!b!b!`!^![!Z!X!V!R!P!K!I!F!A!>!:!5!3!.!)!(!(!(!(!(!(!(!(!(!(!(!(!(!(!(",;
"                                                    !Q!X!Y!Z!Y!Y!X!V!S!Q!P!N!J!G!C!@!=!6!4!1!+!(!(!(!(!(!(!(!(!(!(!(!(!(!(!(!(!(",;
"                                                    !*!O!Q!R!R!R!Q!P!N!K!I!G!D!@!>!;!5!3!0!*!(!(!(!(!(!(!(!(!(!(!(!(!(!(!(!(!(!(",;
"                                                      !3!I!K!K!K!J!I!H!F!C!@!>!:!6!4!1!-!)!(!(!(!(!(!(!(!(!(!(!(!(!(!(!(!(!(!(!(",;
"                                                      !)!@!C!F!F!C!C!@!?!=!:!6!4!1!.!*!(!(!(!(!(!(!(!(!(!(!(!(!(!(!(!(!(!(!(!(!(",;
"                                                        !0!:!=!=!=!<!:!6!5!3!1!.!*!(!(!(!(!(!(!(!(!(!(!(!(!(!(!(!(!(!(!(!(!(!(!(",;
"                                                          !0!3!4!4!4!3!2!0!-!*!(!(!(!(!(!(!(!(!(!(!(!(!(!(!(!(!(!(!(!(!(!(!(!(!(",;
"                                                            !(!+!,!+!*!*!(!(!(!(!(!(!(!(!(!(!(!(!(!(!(!(!(!(!(!(!(!(!(!(!(!(!(!(",;
"                                                              !(!(!(!(!(!(!(!(!(!(!(!(!(!(!(!(!(!(!(!(!(!(!(!(!(!(!(!(!(!(!(!(!&",;
"                                                                !(!(!(!(!(!(!(!(!(!(!(!(!(!(!(!(!(!(!(!(!(!(!(!(!(!(!(!(!(!(!(  ",;
"                                                                  !(!(!(!(!(!(!(!(!(!(!(!(!(!(!(!(!(!(!(!(!(!(!(!(!(!(!(!(!(    ",;
"                                                                    !%!(!(!(!(!(!(!(!(!(!(!(!(!(!(!(!(!(!(!(!(!(!(!(!(!(        ",;
"                                                                      !'!(!(!(!(!(!(!(!(!(!(!(!(!(!(!(!(!(!(!(!(!(!(!(          ",;
"                                                                          !(!(!(!(!(!(!(!(!(!(!(!(!(!(!(!(!(!(!(!(!$            ",;
"                                                                              !!!(!(!(!(!(!(!(!(!(!(!(!(!(!(!(                  ",;
"                                                                                      !(!(!(!(!(!(!(!(!#                        ",;
"                                                                                                                                ",;
"                                                                                                                                ",;
"                                                                                                                                ",;
"                                                                                                                                ";
};
