/* XPM - frame 9 (angle 288deg) */
static char *frame9[] = {
"64 64 359 2 ",
"   c None",
"!! c #100202",
"!# c #120202",
"!$ c #130202",
"!% c #150202",
"!& c #1A0303",
"!' c #1C0303",
"!( c #1C0404",
"!) c #1E0404",
"!* c #200404",
"!+ c #210404",
"!, c #220404",
"!- c #220505",
"!. c #230404",
"!/ c #230505",
"!0 c #240404",
"!1 c #240505",
"!2 c #250404",
"!3 c #250505",
"!4 c #260505",
"!5 c #270505",
"!6 c #280505",
"!7 c #280606",
"!8 c #290505",
"!9 c #290606",
"!: c #2A0505",
"!; c #2A0606",
"!< c #2B0505",
"!= c #2B0606",
"!> c #2C0505",
"!? c #2C0606",
"!@ c #2D0606",
"!A c #2E0606",
"!B c #2F0606",
"!C c #300606",
"!D c #300707",
"!E c #310606",
"!F c #310707",
"!G c #320606",
"!H c #320707",
"!I c #330707",
"!J c #340707",
"!K c #350707",
"!L c #350808",
"!M c #360707",
"!N c #360808",
"!O c #370707",
"!P c #370808",
"!Q c #380707",
"!R c #380808",
"!S c #390808",
"!T c #3A0808",
"!U c #3B0808",
"!V c #3C0808",
"!W c #3D0808",
"!X c #3D0909",
"!Y c #3E0808",
"!Z c #3E0909",
"![ c #3F0808",
"!] c #3F0909",
"!^ c #400909",
"!_ c #410909",
"!` c #420909",
"!a c #420A0A",
"!b c #430909",
"!c c #430A0A",
"!d c #440909",
"!e c #440A0A",
"!f c #450909",
"!g c #450A0A",
"!h c #460909",
"!i c #460A0A",
"!j c #470A0A",
"!k c #480A0A",
"!l c #490A0A",
"!m c #490B0B",
"!n c #4A0A0A",
"!o c #4A0B0B",
"!p c #4B0A0A",
"!q c #4B0B0B",
"!r c #4C0A0A",
"!s c #4C0B0B",
"!t c #4D0B0B",
"!u c #4E0B0B",
"!v c #4F0B0B",
"!w c #500B0B",
"!x c #510B0B",
"!y c #510C0C",
"!z c #520B0B",
"!{ c #520C0C",
"!| c #530B0B",
"!} c #530C0C",
"!~ c #540B0B",
"#! c #540C0C",
"## c #550B0B",
"#$ c #550C0C",
"#% c #560C0C",
"#& c #570C0C",
"#' c #580C0C",
"#( c #590C0C",
"#) c #590D0D",
"#* c #5A0C0C",
"#+ c #5A0D0D",
"#, c #5B0C0C",
"#- c #5B0D0D",
"#. c #5C0D0D",
"#/ c #5D0D0D",
"#0 c #5E0D0D",
"#1 c #5F0D0D",
"#2 c #5F0E0E",
"#3 c #600D0D",
"#4 c #600E0E",
"#5 c #610D0D",
"#6 c #610E0E",
"#7 c #620E0E",
"#8 c #630E0E",
"#9 c #640E0E",
"#: c #650E0E",
"#; c #650F0F",
"#< c #660E0E",
"#= c #660F0F",
"#> c #670E0E",
"#? c #670F0F",
"#@ c #680F0F",
"#A c #690F0F",
"#B c #6A0F0F",
"#C c #6B0F0F",
"#D c #6C0F0F",
"#E c #6C1010",
"#F c #6D0F0F",
"#G c #6D1010",
"#H c #6E0F0F",
"#I c #6E1010",
"#J c #6F1010",
"#K c #701010",
"#L c #711010",
"#M c #721010",
"#N c #721111",
"#O c #731010",
"#P c #731111",
"#Q c #741010",
"#R c #741111",
"#S c #751111",
"#T c #761111",
"#U c #761212",
"#V c #771111",
"#W c #771212",
"#X c #781111",
"#Y c #781212",
"#Z c #791111",
"#[ c #791212",
"#] c #7A1111",
"#^ c #7A1212",
"#_ c #7B1111",
"#` c #7B1212",
"#a c #7B1313",
"#b c #7C1212",
"#c c #7C1313",
"#d c #7D1212",
"#e c #7D1313",
"#f c #7E1212",
"#g c #7E1313",
"#h c #7E1414",
"#i c #7F1212",
"#j c #7F1313",
"#k c #801212",
"#l c #801313",
"#m c #801414",
"#n c #811212",
"#o c #811313",
"#p c #811414",
"#q c #821313",
"#r c #821414",
"#s c #821515",
"#t c #831313",
"#u c #831414",
"#v c #831515",
"#w c #841313",
"#x c #841414",
"#y c #851313",
"#z c #851414",
"#{ c #851515",
"#| c #861313",
"#} c #861414",
"#~ c #861515",
"$! c #861616",
"$# c #871313",
"$$ c #871414",
"$% c #871616",
"$& c #881313",
"$' c #881414",
"$( c #881616",
"$) c #891414",
"$* c #891515",
"$+ c #891616",
"$, c #8A1414",
"$- c #8B1414",
"$. c #8B1616",
"$/ c #8B1818",
"$0 c #8C1414",
"$1 c #8C1515",
"$2 c #8C1818",
"$3 c #8D1515",
"$4 c #8D1919",
"$5 c #8E1515",
"$6 c #8E1616",
"$7 c #8E1919",
"$8 c #8F1515",
"$9 c #901515",
"$: c #901616",
"$; c #901717",
"$< c #911515",
"$= c #911616",
"$> c #911A1A",
"$? c #921616",
"$@ c #921717",
"$A c #921818",
"$B c #921A1A",
"$C c #931616",
"$D c #931818",
"$E c #931A1A",
"$F c #941616",
"$G c #941919",
"$H c #941B1B",
"$I c #951616",
"$J c #951919",
"$K c #951C1C",
"$L c #961616",
"$M c #961717",
"$N c #961818",
"$O c #961A1A",
"$P c #961B1B",
"$Q c #971616",
"$R c #971A1A",
"$S c #981616",
"$T c #981818",
"$U c #991616",
"$V c #991717",
"$W c #9A1616",
"$X c #9A1717",
"$Y c #9B1616",
"$Z c #9B1717",
"$[ c #9B1919",
"$] c #9B1A1A",
"$^ c #9B1E1E",
"$_ c #9C1616",
"$` c #9C1717",
"$a c #9C1919",
"$b c #9D1616",
"$c c #9D1717",
"$d c #9D1C1C",
"$e c #9D1E1E",
"$f c #9E1717",
"$g c #9E1818",
"$h c #9E1F1F",
"$i c #9E2020",
"$j c #9F1717",
"$k c #9F1919",
"$l c #9F1A1A",
"$m c #9F1C1C",
"$n c #A01717",
"$o c #A01818",
"$p c #A01919",
"$q c #A01A1A",
"$r c #A11717",
"$s c #A11919",
"$t c #A11E1E",
"$u c #A21717",
"$v c #A21919",
"$w c #A21A1A",
"$x c #A21B1B",
"$y c #A31717",
"$z c #A31A1A",
"${ c #A31B1B",
"$| c #A31F1F",
"$} c #A32121",
"$~ c #A41717",
"%! c #A41A1A",
"%# c #A41D1D",
"%$ c #A52121",
"%% c #A61B1B",
"%& c #A61C1C",
"%' c #A62121",
"%( c #A62222",
"%) c #A71B1B",
"%* c #A71F1F",
"%+ c #A92222",
"%, c #A92323",
"%- c #AA1D1D",
"%. c #AA2424",
"%/ c #AB1F1F",
"%0 c #AB2222",
"%1 c #AC2121",
"%2 c #AD2020",
"%3 c #AE1F1F",
"%4 c #AE2020",
"%5 c #AF2020",
"%6 c #B02020",
"%7 c #B02424",
"%8 c #B12222",
"%9 c #B12727",
"%: c #B22020",
"%; c #B22222",
"%< c #B62727",
"%= c #B62828",
"%> c #B82424",
"%? c #B82727",
"%@ c #B82929",
"%A c #BB2929",
"%B c #BC2626",
"%C c #BD2A2A",
"%D c #BD2B2B",
"%E c #BF2929",
"%F c #C12929",
"%G c #C12C2C",
"%H c #C22828",
"%I c #C22A2A",
"%J c #C22C2C",
"%K c #C32828",
"%L c #C52B2B",
"%M c #C52F2F",
"%N c #C62B2B",
"%O c #C73030",
"%P c #C82D2D",
"%Q c #CA2F2F",
"%R c #CB2D2D",
"%S c #CB3232",
"%T c #D13232",
"%U c #D43030",
"%V c #D53535",
"%W c #D63737",
"%X c #D73232",
"%Y c #D83535",
"%Z c #DB3434",
"%[ c #DB3636",
"%] c #DC3838",
"%^ c #DD3737",
"%_ c #DD3A3A",
"%` c #DF3838",
"%a c #E13D3D",
"%b c #E23939",
"%c c #E23C3C",
"%d c #E53939",
"%e c #E93B3B",
"%f c #E93F3F",
"%g c #E94040",
"%h c #E94343",
"%i c #E94545",
"%j c #E94646",
"%k c #E94747",
"%l c #E94848",
"%m c #E94949",
"%n c #E94C4C",
"%o c #E94E4E",
"%p c #E94F4F",
"%q c #E95050",
"%r c #E95151",
"%s c #E95252",
"%t c #E95555",
/* pixels */
"                                                                                                                                ",;
"                                                                                                                                ",;
"                                                                                                                                ",;
"                                                                                                                                ",;
"                        #Y$0$,$'#z#q#i#]#T                                                                                      ",;
"                #!$L$I$F$?$<$8$1$)#|#t#i#_#V#M#F#>                                                                              ",;
"            $S$Y$Y$W$S$Q$F$?$9$3$,$&#w#n#d#Z#S#L#D#<#3#%                                                                        ",;
"        $W$f$f$f$b$Y$W$S$I$C$9$3$-$'#y#n#f#]#T#M#H#A#9#0#&!b                                                                    ",;
"      $j$r$r$n$j$f$_$W$S$I$C$9$3$,$&#y#n#f#]#T#M#H#B#:#3#*!~!Y                                                                  ",;
"  $b$r$u$u$u$r$j$f$_$U$Q$I$?$9$3$,$##w#n#d#Z#T#M#H#B#:#3#-#%!v!j!8                                                              ",;
"$X$y$~$y$u$u$r$j$c$Y$U$L$F$<$8$1$,#|#t#k#b#Z#S#L#H#A#:#3#-#%!x!n!`!/                                                            ",;
"$y$~$~$y$u$r$n$f$_$W$S$L$C$<$5$-$'#y#q#i#`#X#Q#L#F#A#9#3#-#%!x!p!f!W!(                                                          ",;
"$~$~$~$y$u$n$j$c$_$W$S$I$C$9$3$,$$#w#n#d#]#V#O#J#C#>#8#1#*#$!w!p!f![!O                                                          ",;
"$~$~$y$u$r$n$j$f$c$`$V$M$F$:$1$)#}#q#i#b#X#S#L#H#B#<#7#/#(#!!v!n!f![!Q!B                                                        ",;
"$~$y$u$r$n$o$s$w${$x$q$[$N$=$1$'#w#o#d#]#V#O#K#D#@#9#3#.#'!|!u!l!d!Y!Q!E!6                                                      ",;
"$y$u$r$o$s%!%-%5%;%8%2%#$]$D$1#}#q#j#`#X#S#M#H#B#<#7#0#*#%!z!t!l!b!W!O!E!:!,                                                    ",;
"$r$r$n$v%)%6%B%N%R%P%E%7$t$J$1#z#l#d#^#T#P#K#D#@#9#3#.#(#$!w!r!j!`!V!O!E!:!,                                                    ",;
"$n$j$o%%%:%K%X%d%e%b%T%A%'$O$.#x#g#`#X#R#L#G#B#<#8#1#,#&!|!u!n!f!^!U!M!C!8!,!+                                                  ",;
"$f$f$z%3%H%Z%g%k%m%h%]%J%+$P$+#p#e#[#T#N#J#C#@#9#5#/#(#$!x!s!k!b!Y!S!J!A!6!,!+!+                                                ",;
"$c$g%&%>%U%f%n%s%q%k%_%G%($B#~#j#^#T#P#K#E#A#;#7#0#,#&!|!u!n!i!_!V!O!G!@!5!,!+!+                                                ",;
"$Z$k%/%F%^%j%r%t%q%i%W%@$h$4#v#c#W#R#K#G#B#?#8#4#.#'#!!w!s!k!d![!T!M!E!<!2!+!+!+!+                                              ",;
"$X$p%4%L%`%j%o%p%l%a%O%.$K$%#h#Y#R#L#I#C#@#9#6#/#)#$!y!u!n!h!`!W!Q!J!A!8!.!+!+!+!+                                              ",;
"$V$l%1%I%[%f%i%h%c%S%9$^$/#m#^#S#M#J#D#@#:#7#0#-#&!}!w!s!k!b![!U!M!E!>!5!,!+!+!+!+                                              ",;
"$Q$a%*%?%Q%Y%]%V%M%9$i$7#v#a#T#P#J#D#A#<#7#1#-#'#$!x!t!m!g!_!V!R!I!A!8!0!+!+!+!+!+!*                                            ",;
"$F$T$m%0%<%C%D%=%,$^$4#v#c#W#P#J#D#A#=#8#2#/#)#$!z!u!o!i!a!Z!S!L!F!?!5!,!+!+!+!+!+!*                                            ",;
"$9$@$R$d$|%$$}$e$H$/#s#c#U#P#J#D#A#=#9#4#/#)#%!{!v!q!j!c!^!U!P!I!A!;!3!+!+!+!+!+!+!*                                            ",;
"$3$6$;$A$G$E$>$2$!#m#`#V#P#K#F#B#?#9#6#/#+#&!}!w!s!l!g!_!X!S!J!D!=!5!-!+!+!+!+!+!+!*                                            ",;
"$)$*$*$+$+$(#{#r#e#[#T#O#J#F#B#>#9#6#/#+#&#!!w!t!l!i!`!Z!T!N!F!@!7!1!+!+!+!+!+!+!+!+!)                                          ",;
"#z#x#x#u#r#l#g#`#X#S#M#J#D#A#<#8#4#/#+#&#!!x!t!o!i!`!Z!T!N!H!A!;!3!,!+!+!+!+!+!+!+!+!)                                          ",;
"#t#q#l#j#e#`#Z#T#O#L#I#C#A#<#8#3#0#-#'#!!x!u!o!i!b!]!U!R!J!D!?!5!/!+!+!+!+!+!+!+!+!+!)                                          ",;
"#i#f#b#`#[#V#S#M#K#H#C#A#<#8#5#0#-#'#!!x!u!q!j!e!^!W!S!K!F!@!6!1!+!+!+!+!+!+!+!+!+!+!)                                          ",;
"#b#^#Z#V#S#P#L#J#F#C#@#:#8#3#/#*#&#!!x!u!o!j!e!^!W!S!K!F!@!8!3!+!+!+!+!+!+!+!+!+!+!+!)                                          ",;
"#Z#X#T#R#M#K#I#D#A#?#9#7#1#.#(#&!~!w!u!q!j!e!^!W!S!K!H!A!;!4!,!+!+!+!+!+!+!+!+!+!+!+!)                                          ",;
"#S#R#M#L#J#G#C#@#=#9#6#1#.#(#&!~!x!u!n!j!d!_!W!T!M!I!B!=!5!.!+!+!+!+!+!+!+!+!+!+!+!+!)                                          ",;
"#M#K#J#G#C#A#?#:#7#4#0#-#(#%!|!w!t!n!j!d!^!W!T!M!I!B!=!5!.!+!+!+!+!+!+!+!+!+!+!+!+!+!)                                          ",;
"#I#F#C#B#@#<#9#7#1#/#+#'#$!z!v!s!l!i!b!^!W!T!M!I!B!=!5!.!+!+!+!+!+!+!+!+!+!+!+!+!+!+!)                                          ",;
"#C#A#@#<#9#7#3#0#-#(#%#!!z!v!s!l!i!b!^!W!S!M!H!B!?!6!0!+!+!+!+!+!+!+!+!+!+!+!+!+!+!+!)                                          ",;
"#>#:#9#7#4#0#.#+#'#$!}!x!u!q!k!i!b!]!V!S!M!H!B!=!6!0!+!+!+!+!+!+!+!+!+!+!+!+!+!+!+!*                                            ",;
"#8#7#3#1#/#-#(#&#!!z!v!t!o!j!e!_!Z!U!R!K!H!B!=!6!0!+!+!+!+!+!+!+!+!+!+!+!+!+!+!+!+!*                                            ",;
"#1#0#.#-#(#&#$!|!w!u!q!m!i!e!_!Z!U!R!K!G!A!<!5!0!+!+!+!+!+!+!+!+!+!+!+!+!+!+!+!+!+!*                                            ",;
"#-#*#'#%#$!|!x!u!s!o!k!g!b!^!X!T!P!J!F!A!;!5!0!+!+!+!+!+!+!+!+!+!+!+!+!+!+!+!+!+!+!*                                            ",;
"#&#%##!|!x!v!t!q!l!i!e!_!Z!V!S!N!I!D!@!;!5!/!+!+!+!+!+!+!+!+!+!+!+!+!+!+!+!+!+!+!+                                              ",;
"!|!z!w!u!t!q!l!j!g!`!^!X!U!R!K!I!C!?!9!4!/!+!+!+!+!+!+!+!+!+!+!+!+!+!+!+!+!+!+!+!+                                              ",;
"!u!t!s!o!k!i!e!`!^!Z!V!S!P!J!F!A!=!6!3!,!+!+!+!+!+!+!+!+!+!+!+!+!+!+!+!+!+!+!+!+!+                                              ",;
"!o!l!k!i!e!b!_!Z!V!T!P!K!H!B!?!;!5!1!+!+!+!+!+!+!+!+!+!+!+!+!+!+!+!+!+!+!+!+!+!+                                                ",;
"!g!e!b!_!^!Z!V!T!R!K!I!F!A!?!8!4!.!+!+!+!+!+!+!+!+!+!+!+!+!+!+!+!+!+!+!+!+!+!+!+                                                ",;
"!_!^!]!W!V!T!R!M!I!F!B!?!:!5!1!+!+!+!+!+!+!+!+!+!+!+!+!+!+!+!+!+!+!+!+!+!+!+!+                                                  ",;
"!U!T!S!R!N!K!I!E!B!@!:!6!3!.!+!+!+!+!+!+!+!+!+!+!+!+!+!+!+!+!+!+!+!+!+!+!+!+                                                    ",;
"!M!M!J!I!F!D!A!?!:!6!4!.!+!+!+!+!+!+!+!+!+!+!+!+!+!+!+!+!+!+!+!+!+!+!+!+!+!+                                                    ",;
"!D!C!B!A!?!=!9!5!3!.!+!+!+!+!+!+!+!+!+!+!+!+!+!+!+!+!+!+!+!+!+!+!+!+!+!+!+                                                      ",;
"!=!=!:!8!5!4!1!,!+!+!+!+!+!+!+!+!+!+!+!+!+!+!+!+!+!+!+!+!+!+!+!+!+!+!+!+                                                        ",;
"!1!1!.!.!,!+!+!+!+!+!+!+!+!+!+!+!+!+!+!+!+!+!+!+!+!+!+!+!+!+!+!+!+!+!+                                                          ",;
"!+!+!+!+!+!+!+!+!+!+!+!+!+!+!+!+!+!+!+!+!+!+!+!+!+!+!+!+!+!+!+!+!+!+!!                                                          ",;
"!*!+!+!+!+!+!+!+!+!+!+!+!+!+!+!+!+!+!+!+!+!+!+!+!+!+!+!+!+!+!+!+!+!$                                                            ",;
"  !+!+!+!+!+!+!+!+!+!+!+!+!+!+!+!+!+!+!+!+!+!+!+!+!+!+!+!+!+!+!+!%                                                              ",;
"      !+!+!+!+!+!+!+!+!+!+!+!+!+!+!+!+!+!+!+!+!+!+!+!+!+!+!+!&                                                                  ",;
"        !+!+!+!+!+!+!+!+!+!+!+!+!+!+!+!+!+!+!+!+!+!+!+!+!+!(                                                                    ",;
"            !+!+!+!+!+!+!+!+!+!+!+!+!+!+!+!+!+!+!+!+!+!+                                                                        ",;
"                !#!+!+!+!+!+!+!+!+!+!+!+!+!+!+!+!+                                                                              ",;
"                        !'!+!+!+!+!+!+!+!+                                                                                      ",;
"                                                                                                                                ",;
"                                                                                                                                ",;
"                                                                                                                                ",;
"                                                                                                                                ";
};
