/* XPM - frame 1 (angle 0deg) */
static char *frame1[] = {
"64 64 330 2 ",
"   c None",
"!! c #240505",
"!# c #250505",
"!$ c #260505",
"!% c #270505",
"!& c #280606",
"!' c #290606",
"!( c #2A0606",
"!) c #2B0606",
"!* c #2C0606",
"!+ c #2D0606",
"!, c #2E0606",
"!- c #2E0707",
"!. c #2F0707",
"!/ c #300707",
"!0 c #310707",
"!1 c #320707",
"!2 c #330707",
"!3 c #340707",
"!4 c #350707",
"!5 c #350808",
"!6 c #360808",
"!7 c #370808",
"!8 c #380808",
"!9 c #390808",
"!: c #3A0808",
"!; c #3B0808",
"!< c #3C0909",
"!= c #3D0909",
"!> c #3E0909",
"!? c #3F0909",
"!@ c #400909",
"!A c #410909",
"!B c #420909",
"!C c #420A0A",
"!D c #430A0A",
"!E c #440A0A",
"!F c #450A0A",
"!G c #460A0A",
"!H c #470A0A",
"!I c #480A0A",
"!J c #490A0A",
"!K c #490B0B",
"!L c #4A0B0B",
"!M c #4B0B0B",
"!N c #4C0B0B",
"!O c #4D0B0B",
"!P c #4E0B0B",
"!Q c #4F0B0B",
"!R c #500C0C",
"!S c #510C0C",
"!T c #520C0C",
"!U c #530C0C",
"!V c #540C0C",
"!W c #550C0C",
"!X c #560C0C",
"!Y c #560D0D",
"!Z c #570D0D",
"![ c #580D0D",
"!] c #590D0D",
"!^ c #5A0D0D",
"!_ c #5B0D0D",
"!` c #5C0D0D",
"!a c #5D0D0D",
"!b c #5D0E0E",
"!c c #5E0E0E",
"!d c #5F0E0E",
"!e c #600E0E",
"!f c #610E0E",
"!g c #620E0E",
"!h c #630E0E",
"!i c #640F0F",
"!j c #650F0F",
"!k c #660F0F",
"!l c #670F0F",
"!m c #680F0F",
"!n c #690F0F",
"!o c #6A0F0F",
"!p c #6A1010",
"!q c #6B1010",
"!r c #6C1010",
"!s c #6D1010",
"!t c #6E1010",
"!u c #6F1010",
"!v c #701010",
"!w c #711010",
"!x c #711111",
"!y c #721111",
"!z c #731111",
"!{ c #741111",
"!| c #751111",
"!} c #761111",
"!~ c #771111",
"#! c #781212",
"## c #791212",
"#$ c #7A1212",
"#% c #7B1212",
"#& c #7C1212",
"#' c #7D1212",
"#( c #7D1313",
"#) c #7E1212",
"#* c #7E1313",
"#+ c #7F1313",
"#, c #801313",
"#- c #811313",
"#. c #811414",
"#/ c #821313",
"#0 c #821414",
"#1 c #831313",
"#2 c #831414",
"#3 c #841313",
"#4 c #841414",
"#5 c #851313",
"#6 c #851414",
"#7 c #861414",
"#8 c #861515",
"#9 c #871414",
"#: c #871515",
"#; c #881414",
"#< c #881515",
"#= c #891414",
"#> c #891515",
"#? c #8A1414",
"#@ c #8A1616",
"#A c #8B1414",
"#B c #8B1515",
"#C c #8C1515",
"#D c #8C1616",
"#E c #8C1717",
"#F c #8D1515",
"#G c #8D1616",
"#H c #8E1515",
"#I c #8E1616",
"#J c #8E1717",
"#K c #8F1515",
"#L c #8F1616",
"#M c #8F1717",
"#N c #901515",
"#O c #901616",
"#P c #901717",
"#Q c #901818",
"#R c #911515",
"#S c #911616",
"#T c #921515",
"#U c #921616",
"#V c #931616",
"#W c #931818",
"#X c #941616",
"#Y c #941A1A",
"#Z c #951616",
"#[ c #951818",
"#] c #961616",
"#^ c #961717",
"#_ c #961818",
"#` c #961919",
"#a c #961A1A",
"#b c #971616",
"#c c #971B1B",
"#d c #981616",
"#e c #981919",
"#f c #981B1B",
"#g c #991616",
"#h c #991717",
"#i c #991818",
"#j c #991B1B",
"#k c #9A1717",
"#l c #9B1717",
"#m c #9B1818",
"#n c #9C1717",
"#o c #9C1C1C",
"#p c #9D1717",
"#q c #9D1818",
"#r c #9D1919",
"#s c #9E1717",
"#t c #9E1818",
"#u c #9E1D1D",
"#v c #9F1717",
"#w c #9F1B1B",
"#x c #9F1C1C",
"#y c #A01818",
"#z c #A01919",
"#{ c #A01A1A",
"#| c #A01D1D",
"#} c #A01E1E",
"#~ c #A11818",
"$! c #A21818",
"$# c #A21919",
"$$ c #A21C1C",
"$% c #A21D1D",
"$& c #A31818",
"$' c #A31A1A",
"$( c #A31D1D",
"$) c #A41818",
"$* c #A41919",
"$+ c #A41F1F",
"$, c #A51818",
"$- c #A51919",
"$. c #A51C1C",
"$/ c #A52020",
"$0 c #A61818",
"$1 c #A61919",
"$2 c #A61B1B",
"$3 c #A71919",
"$4 c #A71A1A",
"$5 c #A72020",
"$6 c #A72121",
"$7 c #A81919",
"$8 c #A81D1D",
"$9 c #A91919",
"$: c #A91A1A",
"$; c #A91C1C",
"$< c #AA1919",
"$= c #AA1A1A",
"$> c #AA1C1C",
"$? c #AA2121",
"$@ c #AB1919",
"$A c #AB1A1A",
"$B c #AB1F1F",
"$C c #AC1919",
"$D c #AC1A1A",
"$E c #AD1919",
"$F c #AD1A1A",
"$G c #AD1B1B",
"$H c #AD1D1D",
"$I c #AD1F1F",
"$J c #AE1A1A",
"$K c #AE1C1C",
"$L c #AE1D1D",
"$M c #AE2020",
"$N c #AF1A1A",
"$O c #AF1B1B",
"$P c #B01A1A",
"$Q c #B01B1B",
"$R c #B02323",
"$S c #B11A1A",
"$T c #B11C1C",
"$U c #B11E1E",
"$V c #B12222",
"$W c #B21A1A",
"$X c #B21C1C",
"$Y c #B21D1D",
"$Z c #B22020",
"$[ c #B22424",
"$] c #B22525",
"$^ c #B31A1A",
"$_ c #B31D1D",
"$` c #B31E1E",
"$a c #B32323",
"$b c #B41D1D",
"$c c #B41E1E",
"$d c #B42525",
"$e c #B42626",
"$f c #B52121",
"$g c #B52424",
"$h c #B71F1F",
"$i c #B82121",
"$j c #B92424",
"$k c #BA2323",
"$l c #BA2828",
"$m c #BB2121",
"$n c #BB2222",
"$o c #BB2323",
"$p c #BC2121",
"$q c #BD2222",
"$r c #BD2626",
"$s c #BE2222",
"$t c #C12626",
"$u c #C12A2A",
"$v c #C22525",
"$w c #C22B2B",
"$x c #C42525",
"$y c #C42626",
"$z c #C52A2A",
"${ c #C62929",
"$| c #C82727",
"$} c #C82B2B",
"$~ c #CC2E2E",
"%! c #CC2F2F",
"%# c #CD2929",
"%$ c #CD2A2A",
"%% c #CD2C2C",
"%& c #CE2929",
"%' c #CE2E2E",
"%( c #CF2C2C",
"%) c #CF3030",
"%* c #D03030",
"%+ c #D03131",
"%, c #D22D2D",
"%- c #D42D2D",
"%. c #D43333",
"%/ c #D93131",
"%0 c #D93232",
"%1 c #DD3131",
"%2 c #DF3131",
"%3 c #DF3333",
"%4 c #DF3434",
"%5 c #E23838",
"%6 c #E33333",
"%7 c #E73535",
"%8 c #E93838",
"%9 c #E93939",
"%: c #EB3A3A",
"%; c #EC3838",
"%< c #EC3C3C",
"%= c #EF3D3D",
"%> c #F03A3A",
"%? c #F03E3E",
"%@ c #F23E3E",
"%A c #F33D3D",
"%B c #F63C3C",
"%C c #FF4040",
"%D c #FF4141",
"%E c #FF4242",
"%F c #FF4343",
"%G c #FF4646",
"%H c #FF4747",
"%I c #FF4848",
"%J c #FF4949",
"%K c #FF4A4A",
"%L c #FF4B4B",
"%M c #FF4C4C",
"%N c #FF4F4F",
"%O c #FF5151",
"%P c #FF5454",
"%Q c #FF5555",
"%R c #FF5656",
"%S c #FF5959",
"%T c #FF5B5B",
"%U c #FF5D5D",
"%V c #FF5E5E",
/* pixels */
"                                                                                                                                ",;
"                                                                                                                                ",;
"                                                                                                                                ",;
"                                                                                                                                ",;
"                                                      #h#g#b#Z#U#K#C#;#1#)                                                      ",;
"                                              $&$)$&$!#y#s#n#h#]#V#N#F#=#5#,#%!}!u                                              ",;
"                                        $,$9$<$9$7$1$,$!#y#s#l#d#Z#T#H#A#9#1#*#$!|!u!n!c                                        ",;
"                                    $3$C$F$F$C$@$9$7$0$&#~#s#l#g#Z#U#K#A#;#3#,#%!~!y!s!l!e!V                                    ",;
"                                  $J$P$P$N$J$F$C$<$7$0$&#~#s#l#d#Z#T#K#A#;#3#,#&!~!z!t!n!h!a!W                                  ",;
"                              $C$P$S$W$S$P$N$F$C$<$3$,$&#y#s#l#d#Z#R#H#A#9#1#,#&!~!z!t!n!i!d![!S!G                              ",;
"                            $J$W$^$^$W$S$P$N$F$@$9$3$)$!#v#p#k#b#X#N#F#?#7#1#+#%!~!y!t!n!i!d!^!U!N!D                            ",;
"                          $N$W$^$^$^$W$S$N$J$C$<$7$1$&#~#s#l#d#]#U#K#C#=#6#-#)#$!}!y!s!n!i!d!^!V!P!H!>                          ",;
"                        $N$W$^$^$^$W$S$P$J$F$@$<$7$-$&#y#p#k#b#X#R#H#?#9#3#,#&#!!|!v!r!m!h!c!]!V!P!I!A!7                        ",;
"                      $J$W$^$^$^$W$S$P$N$J$F$D$A$=$4$*#~#q#h#]#V#K#C#=#6#/#*#%!~!z!u!q!k!g!b![!U!P!I!A!:!/                      ",;
"                    $C$S$W$^$^$W$S$P$N$N$Q$T$Y$`$U$L$;$'#t#h#Z#R#H#?#9#3#,#'##!|!x!s!n!j!f!`!Z!T!O!H!A!;!2!&                    ",;
"                  $7$N$S$W$W$W$S$P$N$Q$X$h$q$v$y$t$o$Z$8#{#i#V#K#C#;#6#/#*#%!~!z!u!q!l!h!d!^!X!S!N!G!@!:!2!)!!                  ",;
"                  $E$P$S$S$S$P$P$N$Q$b$p$|%-%1%3%/%%$r$M$$#i#U#F#?#7#1#+#&##!|!x!s!n!j!f!b![!V!Q!L!F!?!9!2!)!!                  ",;
"                $9$F$N$P$P$N$N$J$O$_$s%&%6%B%D%D%A%4$}$a$(#e#S#B#9#3#-#'#$!}!z!u!q!l!h!d!_!Y!T!O!I!D!>!8!1!)!!!!                ",;
"              $!$<$F$J$J$J$J$F$F$T$m%#%7%E%M%O%N%G%:%'$g$(#`#I#>#6#/#*#%!~!{!v!s!n!j!f!b!]!V!R!M!G!A!<!6!/!(!!!!!!              ",;
"              $1$<$C$E$E$C$C$D$G$c$x%2%C%N%S%T%R%K%<$~$[#x#W#B#7#/#+#&#!!|!x!t!p!k!h!d!_!Y!T!P!K!E!?!:!4!.!'!!!!!!              ",;
"            #p$3$9$<$@$@$<$<$=$K$i%$%;%I%R%V%U%P%H%5$w$?#j#M#<#2#,#&##!}!y!u!q!m!i!e!`![!V!R!M!H!B!=!8!2!+!%!!!!!!!!            ",;
"            #~$0$7$9$9$9$7$7$:$K$n%,%>%J%P%S%Q%L%?%+$e#}#W#@#4#,#'#$!}!z!v!r!n!j!f!b!]!W!S!O!J!E!?!;!6!/!)!#!!!!!!!!            ",;
"            #~$,$0$3$3$1$0$1$4$H$k%(%8%F%L%M%I%?%.$l$/#a#D#7#-#'#$!~!{!v!s!n!k!g!c!_!Z!U!Q!L!G!B!=!8!2!,!&!!!!!!!!!!            ",;
"          #k#y$&$)$)$)$)$&$&$-$>$f${%0%9%@%=%5%)$l$6#f#J#8#-#*#$!~!{!w!s!o!k!h!d!`![!V!R!N!I!D!?!:!5!/!)!$!!!!!!!!!!!!          ",;
"          #k#v#~$!$!$!#~#~#y$#$2$I$j$z%'%*%!$u$]$+#c#J#:#0#*#$!~!{!x!t!p!l!i!e!`!]!W!S!O!K!F!@!<!7!2!,!'!!!!!!!!!!!!!!          ",;
"          #h#p#s#v#v#v#s#s#p#t#z$.$B$V$g$d$R$5#u#Y#E#8#.#*#$!~!{!x!t!q!l!i!e!b!]!X!T!P!L!G!B!=!9!3!/!)!$!!!!!!!!!!!!!!          ",;
"          #b#k#n#n#n#n#n#l#k#k#m#r#w$$$%#|#o#a#Q#@#6#-#(#$!~!{!x!t!q!l!i!f!b!^!Y!U!Q!M!H!D!?!:!6!0!+!&!!!!!!!!!!!!!!!!          ",;
"        #H#Z#d#h#k#k#h#g#d#b#]#^#^#_#_#[#W#P#D#:#2#,#'##!~!{!w!t!q!l!i!f!c!^!Z!U!Q!N!I!E!@!<!7!2!-!(!#!!!!!!!!!!!!!!!!!!        ",;
"        #F#U#Z#]#b#]#]#Z#X#V#U#S#S#O#L#G#B#<#6#/#+#&##!}!z!v!s!p!l!i!f!c!^!Z!U!R!N!I!E!@!<!8!3!/!)!$!!!!!!!!!!!!!!!!!!!!        ",;
"        #?#N#T#V#V#V#V#T#R#N#K#H#C#B#>#9#6#1#,#'#%#!!|!z!v!s!o!l!i!f!c!^!Z!V!R!N!J!F!A!=!9!5!0!*!&!!!!!!!!!!!!!!!!!!!!!!        ",;
"        #;#C#K#N#N#N#K#K#H#F#A#?#;#9#6#1#-#*#&#$!~!|!y!u!r!o!l!i!f!b!^!Z!V!R!O!K!F!B!>!:!6!1!+!'!!!!!!!!!!!!!!!!!!!!!!!!        ",;
"        #3#=#A#C#F#C#C#A#?#=#;#7#5#1#-#+#'#%#!!}!{!x!t!r!n!k!h!e!b!^!Z!U!R!O!K!F!B!>!:!6!1!,!(!#!!!!!!!!!!!!!!!!!!!!!!!!        ",;
"        #-#7#;#=#=#=#;#;#9#7#3#1#-#+#'#%##!~!|!y!v!s!q!m!j!g!e!a!]!Y!U!R!N!K!F!B!>!:!7!2!.!(!$!!!!!!!!!!!!!!!!!!!!!!!!!!        ",;
"        #'#/#3#6#6#6#5#3#1#/#,#+#'#&#$#!!}!z!x!u!r!o!l!i!g!d!`!]!X!U!Q!N!J!F!B!>!;!7!2!.!)!%!!!!!!!!!!!!!!!!!!!!!!!!!!!!        ",;
"        #!#)#,#-#-#-#-#,#+#)#'#%#$#!!}!{!y!v!s!q!n!k!h!f!c!_![!W!T!Q!N!I!F!B!>!:!7!2!.!)!%!!!!!!!!!!!!!!!!!!!!!!!!!!!!!!        ",;
"        !z###&#'#'#'#'#&#%#$##!~!}!{!y!v!t!r!o!l!j!g!e!b!^!Z!V!S!P!M!I!F!A!>!:!7!2!.!)!%!!!!!!!!!!!!!!!!!!!!!!!!!!!!!!!!        ",;
"        !s!|!~#########!!~!}!|!z!y!v!t!r!o!m!k!h!f!c!`!]!Y!U!R!O!L!H!E!A!=!:!6!2!.!)!%!!!!!!!!!!!!!!!!!!!!!!!!!!!!!!!!!!        ",;
"          !v!z!{!|!|!|!{!z!y!w!u!t!r!p!m!k!i!g!d!b!^![!W!T!Q!O!L!G!D!@!=!9!6!1!.!)!%!!!!!!!!!!!!!!!!!!!!!!!!!!!!!!!!!!          ",;
"          !p!t!v!w!w!v!v!u!t!s!q!o!m!k!i!g!e!c!_!]!Y!V!S!P!M!I!F!C!?!<!9!5!1!-!)!%!!!!!!!!!!!!!!!!!!!!!!!!!!!!!!!!!!!!          ",;
"          !i!n!q!r!r!r!q!q!o!m!l!j!i!g!e!c!`!]!Z!W!T!R!O!L!H!E!A!>!;!8!4!0!,!(!%!!!!!!!!!!!!!!!!!!!!!!!!!!!!!!!!!!!!!!          ",;
"          !a!h!k!l!l!l!l!k!j!i!h!f!d!c!`!^!Z!W!U!R!P!M!J!G!D!@!=!:!7!3!/!+!(!$!!!!!!!!!!!!!!!!!!!!!!!!!!!!!!!!!!!!!!!!          ",;
"            !b!e!g!h!h!g!g!f!d!c!a!_!]!Z!W!U!S!Q!N!L!H!E!B!?!<!9!6!2!.!*!'!#!!!!!!!!!!!!!!!!!!!!!!!!!!!!!!!!!!!!!!!!            ",;
"            !X!_!a!b!c!b!a!`!_!^![!Y!W!U!S!Q!O!L!I!F!D!@!=!:!8!4!0!-!)!&!!!!!!!!!!!!!!!!!!!!!!!!!!!!!!!!!!!!!!!!!!!!            ",;
"            !M!V!Z![![![![!Z!X!W!U!T!R!P!N!L!I!G!D!A!>!<!9!6!2!/!+!(!%!!!!!!!!!!!!!!!!!!!!!!!!!!!!!!!!!!!!!!!!!!!!!!            ",;
"              !O!S!T!U!U!U!T!S!R!Q!O!M!L!I!G!D!A!?!<!:!7!3!0!.!*!&!#!!!!!!!!!!!!!!!!!!!!!!!!!!!!!!!!!!!!!!!!!!!!!!              ",;
"              !A!L!N!O!P!O!O!N!M!L!I!H!F!D!A!?!<!:!8!5!1!/!+!(!%!!!!!!!!!!!!!!!!!!!!!!!!!!!!!!!!!!!!!!!!!!!!!!!!!!              ",;
"                !A!F!H!I!I!I!H!G!F!D!B!@!>!<!:!7!5!2!/!,!)!&!#!!!!!!!!!!!!!!!!!!!!!!!!!!!!!!!!!!!!!!!!!!!!!!!!!!                ",;
"                  !>!@!B!B!B!A!@!?!>!<!;!9!7!4!2!/!,!)!'!$!!!!!!!!!!!!!!!!!!!!!!!!!!!!!!!!!!!!!!!!!!!!!!!!!!!!                  ",;
"                  !1!9!;!<!<!;!;!:!8!7!5!3!1!/!+!)!'!$!!!!!!!!!!!!!!!!!!!!!!!!!!!!!!!!!!!!!!!!!!!!!!!!!!!!!!!!                  ",;
"                    !.!2!5!5!5!4!3!2!0!/!-!*!(!&!$!!!!!!!!!!!!!!!!!!!!!!!!!!!!!!!!!!!!!!!!!!!!!!!!!!!!!!!!!!                    ",;
"                      !(!+!-!.!.!,!+!*!(!'!%!#!!!!!!!!!!!!!!!!!!!!!!!!!!!!!!!!!!!!!!!!!!!!!!!!!!!!!!!!!!!!                      ",;
"                        !!!%!&!&!%!%!$!!!!!!!!!!!!!!!!!!!!!!!!!!!!!!!!!!!!!!!!!!!!!!!!!!!!!!!!!!!!!!!!!!                        ",;
"                          !!!!!!!!!!!!!!!!!!!!!!!!!!!!!!!!!!!!!!!!!!!!!!!!!!!!!!!!!!!!!!!!!!!!!!!!!!!!                          ",;
"                            !!!!!!!!!!!!!!!!!!!!!!!!!!!!!!!!!!!!!!!!!!!!!!!!!!!!!!!!!!!!!!!!!!!!!!!!                            ",;
"                              !!!!!!!!!!!!!!!!!!!!!!!!!!!!!!!!!!!!!!!!!!!!!!!!!!!!!!!!!!!!!!!!!!!!                              ",;
"                                  !!!!!!!!!!!!!!!!!!!!!!!!!!!!!!!!!!!!!!!!!!!!!!!!!!!!!!!!!!!!                                  ",;
"                                    !!!!!!!!!!!!!!!!!!!!!!!!!!!!!!!!!!!!!!!!!!!!!!!!!!!!!!!!                                    ",;
"                                        !!!!!!!!!!!!!!!!!!!!!!!!!!!!!!!!!!!!!!!!!!!!!!!!                                        ",;
"                                              !!!!!!!!!!!!!!!!!!!!!!!!!!!!!!!!!!!!                                              ",;
"                                                      !!!!!!!!!!!!!!!!!!!!                                                      ",;
"                                                                                                                                ",;
"                                                                                                                                ",;
"                                                                                                                                ",;
"                                                                                                                                ";
};
