/* XPM - frame 7 (angle 216deg) */
static char *frame7[] = {
"64 64 303 2 ",
"   c None",
"!! c #0E0202",
"!# c #110202",
"!$ c #120202",
"!% c #140202",
"!& c #150202",
"!' c #170303",
"!( c #180303",
"!) c #1B0303",
"!* c #1C0303",
"!+ c #1C0404",
"!, c #1D0303",
"!- c #1E0303",
"!. c #1E0404",
"!/ c #1F0404",
"!0 c #200404",
"!1 c #210404",
"!2 c #220404",
"!3 c #220505",
"!4 c #230404",
"!5 c #230505",
"!6 c #240404",
"!7 c #240505",
"!8 c #250505",
"!9 c #260505",
"!: c #270505",
"!; c #280505",
"!< c #290505",
"!= c #290606",
"!> c #2A0505",
"!? c #2A0606",
"!@ c #2B0606",
"!A c #2C0606",
"!B c #2D0606",
"!C c #2E0606",
"!D c #2E0707",
"!E c #2F0606",
"!F c #2F0707",
"!G c #300606",
"!H c #300707",
"!I c #310707",
"!J c #320707",
"!K c #330707",
"!L c #340707",
"!M c #350707",
"!N c #360707",
"!O c #360808",
"!P c #370707",
"!Q c #370808",
"!R c #380707",
"!S c #380808",
"!T c #390707",
"!U c #390808",
"!V c #3A0808",
"!W c #3B0808",
"!X c #3C0808",
"!Y c #3D0808",
"!Z c #3D0909",
"![ c #3E0808",
"!] c #3E0909",
"!^ c #3F0909",
"!_ c #400909",
"!` c #410909",
"!a c #420909",
"!b c #430909",
"!c c #430A0A",
"!d c #440909",
"!e c #440A0A",
"!f c #450909",
"!g c #450A0A",
"!h c #460A0A",
"!i c #470A0A",
"!j c #480A0A",
"!k c #490A0A",
"!l c #4A0A0A",
"!m c #4B0A0A",
"!n c #4B0B0B",
"!o c #4C0A0A",
"!p c #4C0B0B",
"!q c #4D0A0A",
"!r c #4D0B0B",
"!s c #4E0B0B",
"!t c #4F0B0B",
"!u c #500B0B",
"!v c #510B0B",
"!w c #520B0B",
"!x c #520C0C",
"!y c #530B0B",
"!z c #530C0C",
"!{ c #540C0C",
"!| c #550C0C",
"!} c #560C0C",
"!~ c #570C0C",
"#! c #570D0D",
"## c #580C0C",
"#$ c #580D0D",
"#% c #590C0C",
"#& c #590D0D",
"#' c #5A0D0D",
"#( c #5B0D0D",
"#) c #5C0D0D",
"#* c #5D0D0D",
"#+ c #5D0E0E",
"#, c #5E0D0D",
"#- c #5E0E0E",
"#. c #5F0D0D",
"#/ c #5F0E0E",
"#0 c #600E0E",
"#1 c #610E0E",
"#2 c #620E0E",
"#3 c #630E0E",
"#4 c #630F0F",
"#5 c #640E0E",
"#6 c #650E0E",
"#7 c #650F0F",
"#8 c #660E0E",
"#9 c #660F0F",
"#: c #670E0E",
"#; c #670F0F",
"#< c #671010",
"#= c #680F0F",
"#> c #690F0F",
"#? c #691010",
"#@ c #6A0F0F",
"#A c #6A1010",
"#B c #6B0F0F",
"#C c #6B1010",
"#D c #6B1111",
"#E c #6C0F0F",
"#F c #6C1010",
"#G c #6C1111",
"#H c #6D0F0F",
"#I c #6D1010",
"#J c #6D1111",
"#K c #6E1010",
"#L c #6E1111",
"#M c #6F1010",
"#N c #6F1111",
"#O c #701010",
"#P c #701111",
"#Q c #701212",
"#R c #711010",
"#S c #711111",
"#T c #711212",
"#U c #721010",
"#V c #721111",
"#W c #721212",
"#X c #721313",
"#Y c #731010",
"#Z c #731111",
"#[ c #731313",
"#] c #741111",
"#^ c #741212",
"#_ c #741313",
"#` c #741414",
"#a c #751111",
"#b c #751212",
"#c c #751414",
"#d c #761111",
"#e c #771111",
"#f c #771414",
"#g c #771515",
"#h c #781111",
"#i c #781212",
"#j c #781313",
"#k c #781414",
"#l c #791111",
"#m c #791212",
"#n c #791313",
"#o c #7A1212",
"#p c #7B1212",
"#q c #7B1414",
"#r c #7C1212",
"#s c #7C1616",
"#t c #7C1717",
"#u c #7D1212",
"#v c #7D1313",
"#w c #7D1717",
"#x c #7E1212",
"#y c #7E1414",
"#z c #7E1515",
"#{ c #7E1616",
"#| c #7F1212",
"#} c #7F1313",
"#~ c #7F1515",
"$! c #801212",
"$# c #801313",
"$$ c #801818",
"$% c #801919",
"$& c #811212",
"$' c #811313",
"$( c #821212",
"$) c #821313",
"$* c #821414",
"$+ c #821515",
"$, c #821717",
"$- c #821818",
"$. c #831313",
"$/ c #831414",
"$0 c #841313",
"$1 c #841616",
"$2 c #841717",
"$3 c #841818",
"$4 c #851313",
"$5 c #851414",
"$6 c #851818",
"$7 c #861313",
"$8 c #861414",
"$9 c #861A1A",
"$: c #861B1B",
"$; c #871313",
"$< c #871414",
"$= c #871616",
"$> c #881313",
"$? c #881414",
"$@ c #881717",
"$A c #881818",
"$B c #891414",
"$C c #891515",
"$D c #891616",
"$E c #891A1A",
"$F c #8A1414",
"$G c #8A1515",
"$H c #8A1616",
"$I c #8A1717",
"$J c #8B1414",
"$K c #8B1616",
"$L c #8B1717",
"$M c #8B1818",
"$N c #8C1414",
"$O c #8C1616",
"$P c #8C1717",
"$Q c #8C1C1C",
"$R c #8D1A1A",
"$S c #8D1C1C",
"$T c #8E1E1E",
"$U c #8F1818",
"$V c #8F1B1B",
"$W c #901818",
"$X c #901E1E",
"$Y c #911B1B",
"$Z c #921F1F",
"$[ c #931A1A",
"$] c #941A1A",
"$^ c #951B1B",
"$_ c #951D1D",
"$` c #961F1F",
"$a c #971D1D",
"$b c #972020",
"$c c #982020",
"$d c #991D1D",
"$e c #992020",
"$f c #9A1E1E",
"$g c #9B1F1F",
"$h c #9B2222",
"$i c #9D1F1F",
"$j c #9E1F1F",
"$k c #9E2121",
"$l c #9F1F1F",
"$m c #9F2424",
"$n c #A12424",
"$o c #A12525",
"$p c #A22020",
"$q c #A62727",
"$r c #A72626",
"$s c #A72828",
"$t c #A92424",
"$u c #AA2626",
"$v c #AB2424",
"$w c #AB2727",
"$x c #AC2A2A",
"$y c #AE2727",
"$z c #B32A2A",
"${ c #B42A2A",
"$| c #B42B2B",
"$} c #B42D2D",
"$~ c #B52929",
"%! c #B52D2D",
"%# c #B62A2A",
"%$ c #B62C2C",
"%% c #B82B2B",
"%& c #BC3030",
"%' c #BC3131",
"%( c #BE2F2F",
"%) c #BF3232",
"%* c #C43030",
"%+ c #C73232",
"%, c #C73434",
"%- c #C73535",
"%. c #C73737",
"%/ c #C73838",
"%0 c #C73939",
"%1 c #C73A3A",
"%2 c #C73C3C",
"%3 c #C73D3D",
"%4 c #C73E3E",
"%5 c #C74040",
"%6 c #C74242",
"%7 c #C74343",
"%8 c #C74444",
"%9 c #C74545",
"%: c #C74646",
"%; c #C74949",
/* pixels */
"                                                                                                                                ",;
"                                                                                                                                ",;
"                                                                                                                                ",;
"                                                                                                                                ",;
"                                      #e#d#]#S#K#B#8!y                                                                          ",;
"                              #)$!#|#x#r#o#e#]#R#M#B#:#2#*!~                                                                    ",;
"                          $)$0$0$.$'$!#u#p#l#d#Y#O#E#>#6#0#)!}!t!9                                                              ",;
"                      #K$7$<$;$7$0$.$&#x#r#l#d#Z#O#H#>#8#1#*#&!{!s!d                                                            ",;
"                    !{$B$B$?$<$7$4$.$&#x#r#l#d#Y#O#H#>#8#2#*#&!|!t!l!b                                                          ",;
"                  $;$F$J$F$B$?$7$4$)$!#x#p#l#d#Y#M#E#>#6#2#*#&!|!u!n!g!]!2                                                      ",;
"                $?$J$N$J$F$B$?$7$0$)#|#u#p#h#a#U#M#E#=#6#1#*#&!|!u!n!h!_!S                                                      ",;
"              $.$J$N$N$J$F$?$;$4$.$'#|#r#m#d#]#R#K#B#;#5#0#)#&!{!u!n!h!`!W!K                                                    ",;
"            #7$J$N$N$J$F$B$?$7$4$.$##x#p#i#d#Z#O#E#>#8#3#/#)!~!z!t!l!g!`!W!M!A                                                  ",;
"          !h$F$N$N$J$F$B$?$?$<$8$5$*#}#r#i#a#V#K#B#=#6#1#,#'!}!x!s!k!g!_!W!M!C!7                                                ",;
"          $>$J$N$N$J$F$B$B$G$H$L$I$=$+#v#i#]#O#I#@#:#3#0#)#&!|!v!r!k!e!^!V!L!E!:!'                                              ",;
"        $4$B$J$J$J$F$B$C$K$W$^$d$a$Y$A#~#j#V#M#F#=#6#2#.#(!~!z!t!o!i!b!]!U!L!C!:!0!!                                            ",;
"        $>$F$F$F$B$B$B$O$[$l$t$y$u$k$V$,#j#V#I#@#;#3#0#*#&!|!w!s!l!h!a!Y!S!K!B!:!0!!                                            ",;
"      $0$<$B$B$B$?$?$H$[$p$~%*%+%($w$`$3#k#S#C#=#6#2#.#(##!{!u!o!j!e!_!W!N!J!A!9!0!*                                            ",;
"    #F$4$<$?$?$?$<$?$U$j%#%-%3%4%.$|$e$6#f#L#A#9#3#0#)#&!}!w!s!m!i!a!]!V!M!H!@!8!/!*!*                                          ",;
"    #M$4$7$;$7$7$8$D$]$v%+%5%:%8%1$}$b$-#_#F#=#5#1#-#(#!!{!u!q!k!g!`!Y!S!K!E!>!7!/!*!*                                          ",;
"  !s$'$0$4$4$4$4$5$L$f${%0%9%;%7%/$x$X#s#T#A#7#2#/#)#$!|!x!s!m!i!b!^!W!P!J!B!;!4!,!*!*!*                                        ",;
"  !u$&$.$0$0$.$.$5$P$i%%%0%6%8%2%'$m$:#f#J#;#3#0#*#'!~!z!u!p!j!d!`!Y!T!L!G!@!9!1!*!*!*!*                                        ",;
"  !u$!$($)$)$&$'$/$M$g$z%,%1%0%)$s$T#t#Q#>#5#1#,#(!~!{!v!r!l!i!b!^!W!P!K!C!<!6!/!*!*!*!*                                        ",;
"  #p#|$!$!$!#|#|$'$@$_$r%$%&%!$q$Z$%#[#D#7#2#,#)#%!|!w!s!m!j!e!_!Z!U!L!G!@!:!2!,!*!*!*!*!(                                      ",;
"  #p#u#x#x#x#x#u#}$1$R$c$n$o$h$T$$#c#J#;#4#/#)#&!}!z!u!r!k!h!a!]!V!O!J!C!<!8!0!*!*!*!*!*!(                                      ",;
"  #m#p#r#r#r#p#o#p#y$2$E$S$Q$9#w#`#G#<#4#0#*#'!~!{!u!r!l!h!b!_!X!S!L!H!A!:!5!.!*!*!*!*!*!(                                      ",;
"  #e#m#o#o#o#m#i#i#n#q#z#{#s#g#X#G#;#3#0#*#'#!!{!v!s!m!i!e!`!Y!U!N!J!B!=!8!0!+!*!*!*!*!*!(                                      ",;
"#R#d#e#i#i#e#e#d#a#b#b#b#^#W#N#A#9#3#0#*#(##!|!x!s!p!k!g!a![!W!P!K!F!@!:!3!.!*!*!*!*!*!*!*!$                                    ",;
"#O#Z#a#d#a#a#]#Z#V#S#S#P#L#F#?#9#3#0#*#'##!|!x!t!p!k!h!a!^!X!R!L!H!A!;!8!0!*!*!*!*!*!*!*!*!$                                    ",;
"#H#R#V#Z#Z#U#R#O#M#K#I#C#>#;#6#2#0#*#'##!|!w!t!r!l!h!c!_!X!T!M!J!C!?!9!1!.!*!*!*!*!*!*!*!*!$                                    ",;
"#B#M#O#O#O#M#M#K#E#B#>#=#8#5#1#/#*#(#$!|!y!u!r!l!i!e!`!Z!V!N!K!E!@!;!4!/!*!*!*!*!*!*!*!*!*!$                                    ",;
"#=#E#I#K#I#I#E#B#@#=#:#6#3#1#/#)#'#$!|!z!u!q!l!i!e!`!]!W!Q!L!H!A!;!6!1!*!*!*!*!*!*!*!*!*!*!$                                    ",;
"#9#>#B#B#B#@#>#=#:#6#5#2#0#,#)#&!~!|!x!t!r!m!i!e!`!]!W!Q!L!I!B!?!9!2!,!*!*!*!*!*!*!*!*!*!*!$                                    ",;
"#3#8#=#=#=#:#8#6#5#2#1#/#+#(#&!~!{!w!t!r!l!i!f!a![!W!R!M!I!C!?!:!5!/!*!*!*!*!*!*!*!*!*!*!*!$                                    ",;
"#/#3#5#5#5#5#3#2#1#/#-#)#'#$!}!{!w!t!o!l!i!e!`!^!X!R!M!J!C!@!:!5!0!*!*!*!*!*!*!*!*!*!*!*!*!$                                    ",;
"#(#0#1#1#1#1#0#/#,#)#(#&!~!|!z!v!t!o!l!i!e!`!]!W!U!N!J!E!A!;!7!0!,!*!*!*!*!*!*!*!*!*!*!*!*!$                                    ",;
"!~#)#,#-#-#-#*#)#(#&##!}!{!w!u!s!o!k!i!e!`!]!W!S!M!K!E!A!;!8!1!,!*!*!*!*!*!*!*!*!*!*!*!*!*!$                                    ",;
"  #&#'#(#(#(#'#&##!}!|!z!v!t!r!m!j!h!b!`![!X!U!M!J!F!A!<!8!2!-!*!*!*!*!*!*!*!*!*!*!*!*!*!(                                      ",;
"  !{!~####!~!~!}!|!z!w!u!s!o!l!i!g!c!_!Y!W!R!M!J!F!A!=!8!3!/!*!*!*!*!*!*!*!*!*!*!*!*!*!*!(                                      ",;
"  !u!z!{!{!{!z!y!v!u!s!p!m!k!h!e!a!^!Z!V!P!M!J!E!A!<!8!2!/!*!*!*!*!*!*!*!*!*!*!*!*!*!*!*!(                                      ",;
"  !m!t!u!u!u!u!t!s!o!l!k!i!g!b!`!]!X!V!P!L!I!E!A!<!8!2!/!*!*!*!*!*!*!*!*!*!*!*!*!*!*!*!*!(                                      ",;
"  !C!l!o!q!q!o!m!l!k!i!g!e!a!_![!W!U!N!L!I!D!@!<!8!2!/!*!*!*!*!*!*!*!*!*!*!*!*!*!*!*!*!*                                        ",;
"  !>!h!j!k!k!j!j!i!g!c!a!_!]!Y!V!R!M!K!H!B!@!;!8!2!/!*!*!*!*!*!*!*!*!*!*!*!*!*!*!*!*!*!*                                        ",;
"  !8!_!e!e!e!e!e!b!`!_!]!X!W!U!P!L!J!F!B!?!:!7!2!/!*!*!*!*!*!*!*!*!*!*!*!*!*!*!*!*!*!*!*                                        ",;
"    !K!^!_!_!_!_!^!]!X!V!U!P!M!K!I!C!A!<!9!7!1!.!*!*!*!*!*!*!*!*!*!*!*!*!*!*!*!*!*!*!*                                          ",;
"    !@!V!W!X!X!X!W!V!S!P!M!L!J!F!B!@!;!9!4!0!,!*!*!*!*!*!*!*!*!*!*!*!*!*!*!*!*!*!*!*!*                                          ",;
"      !K!N!P!R!R!P!N!M!K!J!H!C!@!=!:!7!2!/!*!*!*!*!*!*!*!*!*!*!*!*!*!*!*!*!*!*!*!*!*                                            ",;
"        !I!J!K!K!J!I!H!F!C!A!>!;!8!4!1!.!*!*!*!*!*!*!*!*!*!*!*!*!*!*!*!*!*!*!*!*!*!!                                            ",;
"        !;!B!C!D!C!B!A!@!=!;!9!4!1!/!,!*!*!*!*!*!*!*!*!*!*!*!*!*!*!*!*!*!*!*!*!*!*!!                                            ",;
"          !9!=!=!=!<!;!9!8!5!1!/!,!*!*!*!*!*!*!*!*!*!*!*!*!*!*!*!*!*!*!*!*!*!*!*!&                                              ",;
"          !#!2!5!7!7!4!2!0!/!,!*!*!*!*!*!*!*!*!*!*!*!*!*!*!*!*!*!*!*!*!*!*!*!*!)                                                ",;
"            !%!-!/!/!-!,!*!*!*!*!*!*!*!*!*!*!*!*!*!*!*!*!*!*!*!*!*!*!*!*!*!*!*                                                  ",;
"              !)!*!*!*!*!*!*!*!*!*!*!*!*!*!*!*!*!*!*!*!*!*!*!*!*!*!*!*!*!*!*                                                    ",;
"                !*!*!*!*!*!*!*!*!*!*!*!*!*!*!*!*!*!*!*!*!*!*!*!*!*!*!*!*!*                                                      ",;
"                  !*!*!*!*!*!*!*!*!*!*!*!*!*!*!*!*!*!*!*!*!*!*!*!*!*!*!*!#                                                      ",;
"                    !#!*!*!*!*!*!*!*!*!*!*!*!*!*!*!*!*!*!*!*!*!*!*!*!*                                                          ",;
"                      !'!*!*!*!*!*!*!*!*!*!*!*!*!*!*!*!*!*!*!*!*!*!*                                                            ",;
"                          !*!*!*!*!*!*!*!*!*!*!*!*!*!*!*!*!*!*!*!!                                                              ",;
"                              !%!*!*!*!*!*!*!*!*!*!*!*!*!*!*                                                                    ",;
"                                      !*!*!*!*!*!*!*!'                                                                          ",;
"                                                                                                                                ",;
"                                                                                                                                ",;
"                                                                                                                                ",;
"                                                                                                                                ";
};
