/* XPM - frame 6 (angle 180deg) */
static char *frame6[] = {
"64 64 279 2 ",
"   c None",
"!! c #0D0101",
"!# c #140202",
"!$ c #160303",
"!% c #170303",
"!& c #190303",
"!' c #1B0303",
"!( c #1C0303",
"!) c #1D0303",
"!* c #1D0404",
"!+ c #1E0303",
"!, c #1E0404",
"!- c #1F0404",
"!. c #200404",
"!/ c #210404",
"!0 c #220404",
"!1 c #220505",
"!2 c #230404",
"!3 c #230505",
"!4 c #240404",
"!5 c #240505",
"!6 c #250505",
"!7 c #260505",
"!8 c #270505",
"!9 c #280505",
"!: c #280606",
"!; c #290505",
"!< c #290606",
"!= c #2A0606",
"!> c #2B0606",
"!? c #2C0606",
"!@ c #2D0606",
"!A c #2E0606",
"!B c #2F0606",
"!C c #300606",
"!D c #310606",
"!E c #310707",
"!F c #320606",
"!G c #320707",
"!H c #330707",
"!I c #340707",
"!J c #350707",
"!K c #360707",
"!L c #360808",
"!M c #370707",
"!N c #370808",
"!O c #380707",
"!P c #380808",
"!Q c #390808",
"!R c #3A0808",
"!S c #3B0808",
"!T c #3C0808",
"!U c #3C0909",
"!V c #3D0808",
"!W c #3D0909",
"!X c #3E0808",
"!Y c #3E0909",
"!Z c #3F0909",
"![ c #400909",
"!] c #410909",
"!^ c #420909",
"!_ c #430909",
"!` c #430A0A",
"!a c #440909",
"!b c #440A0A",
"!c c #450909",
"!d c #450A0A",
"!e c #460909",
"!f c #460A0A",
"!g c #470A0A",
"!h c #480A0A",
"!i c #490A0A",
"!j c #4A0A0A",
"!k c #4A0B0B",
"!l c #4B0A0A",
"!m c #4B0B0B",
"!n c #4C0B0B",
"!o c #4D0B0B",
"!p c #4E0B0B",
"!q c #4F0B0B",
"!r c #500B0B",
"!s c #510B0B",
"!t c #510C0C",
"!u c #520C0C",
"!v c #530C0C",
"!w c #540C0C",
"!x c #550C0C",
"!y c #560C0C",
"!z c #570C0C",
"!{ c #580C0C",
"!| c #590C0C",
"!} c #590D0D",
"!~ c #5A0C0C",
"#! c #5A0D0D",
"## c #5B0D0D",
"#$ c #5C0D0D",
"#% c #5D0D0D",
"#& c #5E0D0D",
"#' c #5E0E0E",
"#( c #5F0D0D",
"#) c #5F0E0E",
"#* c #600D0D",
"#+ c #600E0E",
"#, c #610E0E",
"#- c #620E0E",
"#. c #620F0F",
"#/ c #630E0E",
"#0 c #640E0E",
"#1 c #640F0F",
"#2 c #650E0E",
"#3 c #650F0F",
"#4 c #660E0E",
"#5 c #660F0F",
"#6 c #661010",
"#7 c #670F0F",
"#8 c #680F0F",
"#9 c #690F0F",
"#: c #691010",
"#; c #6A0F0F",
"#< c #6A1010",
"#= c #6B0F0F",
"#> c #6B1111",
"#? c #6C0F0F",
"#@ c #6C1010",
"#A c #6C1111",
"#B c #6D0F0F",
"#C c #6D1010",
"#D c #6D1212",
"#E c #6E0F0F",
"#F c #6E1010",
"#G c #6E1111",
"#H c #6F1010",
"#I c #701010",
"#J c #701111",
"#K c #701212",
"#L c #711010",
"#M c #711111",
"#N c #711212",
"#O c #721010",
"#P c #721111",
"#Q c #721212",
"#R c #721313",
"#S c #731010",
"#T c #731111",
"#U c #741010",
"#V c #741111",
"#W c #751111",
"#X c #761111",
"#Y c #761212",
"#Z c #761414",
"#[ c #761515",
"#] c #771111",
"#^ c #771212",
"#_ c #771515",
"#` c #771616",
"#a c #781111",
"#b c #781212",
"#c c #781313",
"#d c #781414",
"#e c #791212",
"#f c #791414",
"#g c #791515",
"#h c #791616",
"#i c #7A1212",
"#j c #7A1616",
"#k c #7B1212",
"#l c #7B1313",
"#m c #7B1515",
"#n c #7C1212",
"#o c #7C1313",
"#p c #7C1414",
"#q c #7D1212",
"#r c #7D1313",
"#s c #7E1212",
"#t c #7E1313",
"#u c #7E1818",
"#v c #7F1212",
"#w c #7F1313",
"#x c #7F1414",
"#y c #7F1616",
"#z c #801313",
"#{ c #811313",
"#| c #811414",
"#} c #811515",
"#~ c #811717",
"$! c #811919",
"$# c #821313",
"$$ c #821414",
"$% c #821616",
"$& c #831313",
"$' c #831414",
"$( c #841313",
"$) c #841414",
"$* c #841818",
"$+ c #841A1A",
"$, c #851313",
"$- c #851414",
"$. c #851616",
"$/ c #861313",
"$0 c #861414",
"$1 c #861515",
"$2 c #861A1A",
"$3 c #861B1B",
"$4 c #871313",
"$5 c #871616",
"$6 c #871818",
"$7 c #871A1A",
"$8 c #871B1B",
"$9 c #881313",
"$: c #881616",
"$; c #881818",
"$< c #881A1A",
"$= c #891616",
"$> c #891818",
"$? c #891B1B",
"$@ c #8A1616",
"$A c #8A1919",
"$B c #8B1818",
"$C c #8C1B1B",
"$D c #8E1919",
"$E c #8E1E1E",
"$F c #901B1B",
"$G c #921E1E",
"$H c #921F1F",
"$I c #931B1B",
"$J c #931C1C",
"$K c #941C1C",
"$L c #961F1F",
"$M c #972020",
"$N c #972222",
"$O c #992222",
"$P c #992323",
"$Q c #9B1F1F",
"$R c #9B2323",
"$S c #9C2222",
"$T c #9D2121",
"$U c #9D2323",
"$V c #9E2121",
"$W c #9F2222",
"$X c #A02121",
"$Y c #A02323",
"$Z c #A12525",
"$[ c #A22525",
"$] c #A42222",
"$^ c #A72525",
"$_ c #A72727",
"$` c #A82626",
"$a c #AA2A2A",
"$b c #AB2A2A",
"$c c #AF2828",
"$d c #B12A2A",
"$e c #B12D2D",
"$f c #B42D2D",
"$g c #B52C2C",
"$h c #B62D2D",
"$i c #B62E2E",
"$j c #B63030",
"$k c #B72B2B",
"$l c #B82D2D",
"$m c #B92E2E",
"$n c #BA3030",
"$o c #BA3232",
"$p c #BE3636",
"$q c #BF3030",
"$r c #C13131",
"$s c #C13535",
"$t c #C13636",
"$u c #C13737",
"$v c #C13939",
"$w c #C13A3A",
"$x c #C13B3B",
"$y c #C13C3C",
"$z c #C13D3D",
"${ c #C13F3F",
"$| c #C14040",
"$} c #C14141",
"$~ c #C14242",
"%! c #C14545",
"%# c #C14646",
/* pixels */
"                                                                                                                                ",;
"                                                                                                                                ",;
"                                                                                                                                ",;
"                                                                                                                                ",;
"                                                        #V#S#O#H#?#9#2#*                                                        ",;
"                                                  #n#n#k#e#]#W#O#H#?#9#2#,#$!z                                                  ",;
"                                            !Y#v#{#z#t#q#k#e#X#U#L#E#;#7#/#)#!!x!q!J                                            ",;
"                                          #w$&$&$##{#z#s#k#e#X#U#L#F#=#7#0#+##!z!u!n!a                                          ",;
"                                        $($,$,$($&$##z#s#k#e#X#U#L#E#=#7#0#+#$!{!v!p!h!^                                        ",;
"                                    !]$,$/$4$/$,$&$##z#q#k#e#X#U#L#B#;#7#/#+#$!{!v!p!k!b!W!8                                    ",;
"                                    $,$4$9$4$/$,$&#{#w#q#k#a#X#S#I#?#;#5#/#)##!z!v!p!k!d!Z!P!&                                  ",;
"                                  $,$4$9$9$4$,$($##z#t#n#i#]#V#O#F#?#9#3#-#(##!z!u!p!k!d!Z!Q!G                                  ",;
"                                $($4$9$9$4$/$,$&#{#z#t#n#e#X#T#L#E#=#7#0#,#%#!!y!u!p!i!b!Z!R!I!>                                ",;
"                              #/$4$9$9$4$/$,$($&$##{#z#r#i#Y#T#I#?#9#5#/#)#$!{!x!t!n!h!`!Z!R!I!@!5                              ",;
"                              $,$4$9$4$/$,$,$-$1$5$5$.#}#l#^#P#F#=#8#2#-#(##!z!v!q!n!g!_!Y!Q!H!@!7!$                            ",;
"                            $#$/$4$4$/$,$,$0$=$D$J$K$F$;#y#c#P#C#;#5#/#+#%!|!x!u!p!j!f!^!W!P!G!@!7!-!!                          ",;
"                            $($/$/$/$,$,$-$@$I$V$^$`$Y$G$*#f#M#@#8#3#-#&##!{!w!r!n!h!b![!T!N!G!?!7!-!!                          ",;
"                          #{$($,$,$,$($)$:$I$]$k$r$q$d$S$<#g#J#<#5#/#+#%!|!y!u!q!l!g!_!Z!R!J!E!>!7!-!'                          ",;
"                        #k#{$&$($($($&$-$D$X$l$u$z$w$n$[$?#g#G#:#3#-#'##!{!w!s!o!i!d!]!W!Q!I!B!=!5!,!'!'                        ",;
"                        #s#{$&$&$#$#$'$5$K$c$t$}%!${$o$Z$8#Z#A#5#-#)#$!}!x!u!q!l!h!a!Z!T!N!G!@!;!3!,!'!'                        ",;
"                      !}#s#z#{#{#{#{$$$>$Q$h$y%!%#$z$j$P$!#R#<#1#,#%#!!z!w!r!o!i!c!^!Y!Q!J!D!?!8!0!)!'!'!'                      ",;
"                      ###s#w#z#z#w#w$$$B$W$m$x$~$|$p$a$E#h#G#5#-#(##!{!x!u!q!m!g!_!Z!T!O!H!B!=!6!.!'!'!'!'                      ",;
"                      ###q#s#t#t#s#t#|$A$T$g$s$v$t$e$N$!#R#:#/#(#$!|!y!v!q!n!h!d!^!X!R!J!F!@!9!2!,!'!'!'!'                      ",;
"                      #b#k#n#n#n#k#n#x$6$L$_$f$i$b$O$3#[#>#1#+#%!~!z!w!s!o!j!g!_!Z!T!O!H!B!>!7!/!(!'!'!'!'!#                    ",;
"                      #]#i#k#k#i#i#e#o$%$C$M$U$R$H$+#`#D#5#.#'##!{!x!u!p!n!h!a!]!W!Q!J!E!@!;!4!.!'!'!'!'!'!#                    ",;
"                      #X#a#a#a#a#a#]#b#p#~$7$?$2#u#[#D#6#.#)##!{!x!v!q!n!h!d!^!Z!S!N!H!B!>!7!0!)!'!'!'!'!'!#                    ",;
"                      #V#X#X#X#X#W#W#W#Y#d#m#j#_#R#A#5#-#)#$!|!y!v!r!o!j!f!_![!T!Q!J!E!@!<!5!.!(!'!'!'!'!'!#                    ",;
"                    #F#O#V#W#V#U#S#O#P#P#Q#N#K#G#<#3#-#(##!|!z!w!t!o!k!h!a!]!V!R!K!G!B!=!7!1!,!'!'!'!'!'!'!'!!                  ",;
"                    #C#I#O#O#O#L#I#H#F#F#C#@#<#7#3#-#)#$!|!y!v!t!p!m!h!d!^!Y!S!M!H!B!?!9!5!-!(!'!'!'!'!'!'!'!!                  ",;
"                    #=#E#H#H#H#H#E#B#?#;#9#7#3#/#,#&#$!}!z!w!s!p!n!i!d!^!Z!T!O!J!D!@!<!7!/!*!'!'!'!'!'!'!'!'!!                  ",;
"                    #8#?#B#B#B#?#=#;#9#7#5#1#-#+#&#$!|!z!w!s!q!n!i!f!_![!U!Q!J!G!B!>!8!2!-!'!'!'!'!'!'!'!'!'!!                  ",;
"                    #4#9#;#;#;#9#8#7#5#2#/#,#)#%##!|!z!w!u!q!n!i!f!_![!W!R!L!H!B!?!9!4!.!(!'!'!'!'!'!'!'!'!'!!                  ",;
"                    #/#5#8#8#7#7#5#3#/#-#+#&#$#!!{!y!v!t!q!n!i!g!_![!W!R!N!H!C!?!<!7!/!)!'!'!'!'!'!'!'!'!'!'!!                  ",;
"                    #+#/#3#3#2#0#/#-#+#(#&#$#!!z!x!v!s!p!n!i!g!a!]!X!R!O!I!D!@!=!7!1!-!'!'!'!'!'!'!'!'!'!'!'!!                  ",;
"                    #%#+#-#-#-#,#+#(#&#$##!|!z!x!u!r!p!l!i!f!a!]!Y!S!O!J!F!A!=!8!3!-!(!'!'!'!'!'!'!'!'!'!'!'!!                  ",;
"                    !}#%#(#(#(#&#%#$##!|!{!y!w!u!r!o!m!i!f!_![!Y!S!P!J!G!B!>!9!5!.!)!'!'!'!'!'!'!'!'!'!'!'!'!!                  ",;
"                    !x!~########!~!|!{!y!x!v!s!q!o!j!h!f!_![!W!S!P!J!G!B!?!9!6!/!)!'!'!'!'!'!'!'!'!'!'!'!'!'!!                  ",;
"                      !y!{!{!{!{!z!y!x!v!u!r!p!n!j!g!d!_![!V!S!P!J!G!B!?!<!6!0!+!'!'!'!'!'!'!'!'!'!'!'!'!'!#                    ",;
"                      !u!x!x!x!x!w!v!u!r!q!o!m!i!g!a!^![!W!R!M!J!G!B!?!<!7!1!-!'!'!'!'!'!'!'!'!'!'!'!'!'!'!#                    ",;
"                      !p!t!u!u!t!t!r!p!o!n!j!h!f!_!]!Z!W!R!N!I!E!B!?!;!7!0!-!(!'!'!'!'!'!'!'!'!'!'!'!'!'!'!#                    ",;
"                      !j!o!p!p!p!o!n!m!j!h!g!c!^![!Y!T!Q!M!I!E!A!?!;!7!0!-!(!'!'!'!'!'!'!'!'!'!'!'!'!'!'!'!#                    ",;
"                      !J!h!j!l!j!j!i!g!f!c!_!]!Z!W!S!Q!K!H!D!A!>!<!7!0!-!(!'!'!'!'!'!'!'!'!'!'!'!'!'!'!'!'                      ",;
"                      !D!c!f!g!f!e!c!a!_!]![!Y!T!R!N!J!H!C!@!>!9!6!1!-!(!'!'!'!'!'!'!'!'!'!'!'!'!'!'!'!'!'                      ",;
"                      !=!Z!^!^!^!^!]![!Z!Y!T!R!P!K!I!G!B!@!=!8!6!0!-!(!'!'!'!'!'!'!'!'!'!'!'!'!'!'!'!'!'!'                      ",;
"                        !R!W!Y!Z!Z!Y!W!T!R!P!M!J!G!D!A!?!<!7!5!0!,!'!'!'!'!'!'!'!'!'!'!'!'!'!'!'!'!'!'!'                        ",;
"                        !D!P!R!S!R!R!Q!P!K!J!H!E!B!@!>!:!7!3!/!+!'!'!'!'!'!'!'!'!'!'!'!'!'!'!'!'!'!'!'!'                        ",;
"                          !G!J!K!K!K!J!I!G!D!B!@!?!<!8!6!0!.!*!'!'!'!'!'!'!'!'!'!'!'!'!'!'!'!'!'!'!'!'                          ",;
"                            !B!D!F!D!D!C!B!@!?!=!9!7!2!/!-!(!'!'!'!'!'!'!'!'!'!'!'!'!'!'!'!'!'!'!'!'!!                          ",;
"                            !9!?!@!@!?!?!=!<!8!7!5!/!-!)!'!'!'!'!'!'!'!'!'!'!'!'!'!'!'!'!'!'!'!'!'!'!!                          ",;
"                              !6!:!:!9!8!7!6!3!/!-!,!(!'!'!'!'!'!'!'!'!'!'!'!'!'!'!'!'!'!'!'!'!'!'!#                            ",;
"                              !%!0!3!3!2!0!/!-!+!(!'!'!'!'!'!'!'!'!'!'!'!'!'!'!'!'!'!'!'!'!'!'!'!'                              ",;
"                                !'!)!,!)!)!(!'!'!'!'!'!'!'!'!'!'!'!'!'!'!'!'!'!'!'!'!'!'!'!'!'!'                                ",;
"                                  !'!'!'!'!'!'!'!'!'!'!'!'!'!'!'!'!'!'!'!'!'!'!'!'!'!'!'!'!'!'                                  ",;
"                                    !'!'!'!'!'!'!'!'!'!'!'!'!'!'!'!'!'!'!'!'!'!'!'!'!'!'!'!'!!                                  ",;
"                                    !!!'!'!'!'!'!'!'!'!'!'!'!'!'!'!'!'!'!'!'!'!'!'!'!'!'!'!#                                    ",;
"                                        !'!'!'!'!'!'!'!'!'!'!'!'!'!'!'!'!'!'!'!'!'!'!'!'                                        ",;
"                                          !'!'!'!'!'!'!'!'!'!'!'!'!'!'!'!'!'!'!'!'!'!'                                          ",;
"                                            !!!'!'!'!'!'!'!'!'!'!'!'!'!'!'!'!'!'!'!#                                            ",;
"                                                  !'!'!'!'!'!'!'!'!'!'!'!'!'!'                                                  ",;
"                                                        !'!'!'!'!'!'!'!'                                                        ",;
"                                                                                                                                ",;
"                                                                                                                                ",;
"                                                                                                                                ",;
"                                                                                                                                ";
};
