/* XPM - frame 8 (angle 252deg) */
static char *frame8[] = {
"64 64 315 2 ",
"   c None",
"!! c #110202",
"!# c #130202",
"!$ c #140202",
"!% c #150202",
"!& c #160303",
"!' c #190303",
"!( c #1A0303",
"!) c #1C0303",
"!* c #1E0404",
"!+ c #1F0404",
"!, c #200404",
"!- c #210404",
"!. c #210505",
"!/ c #220404",
"!0 c #220505",
"!1 c #230404",
"!2 c #230505",
"!3 c #240505",
"!4 c #250505",
"!5 c #260505",
"!6 c #270505",
"!7 c #280505",
"!8 c #290505",
"!9 c #290606",
"!: c #2A0505",
"!; c #2A0606",
"!< c #2B0505",
"!= c #2B0606",
"!> c #2C0505",
"!? c #2C0606",
"!@ c #2D0606",
"!A c #2E0606",
"!B c #2F0606",
"!C c #2F0707",
"!D c #300606",
"!E c #300707",
"!F c #310606",
"!G c #310707",
"!H c #320707",
"!I c #330707",
"!J c #340707",
"!K c #350707",
"!L c #360707",
"!M c #360808",
"!N c #370707",
"!O c #370808",
"!P c #380707",
"!Q c #380808",
"!R c #390808",
"!S c #3A0808",
"!T c #3B0808",
"!U c #3C0808",
"!V c #3C0909",
"!W c #3D0808",
"!X c #3D0909",
"!Y c #3E0808",
"!Z c #3E0909",
"![ c #3F0808",
"!] c #3F0909",
"!^ c #400909",
"!_ c #410909",
"!` c #420909",
"!a c #430909",
"!b c #430A0A",
"!c c #440909",
"!d c #440A0A",
"!e c #450909",
"!f c #450A0A",
"!g c #460A0A",
"!h c #470A0A",
"!i c #480A0A",
"!j c #490A0A",
"!k c #4A0A0A",
"!l c #4A0B0B",
"!m c #4B0A0A",
"!n c #4B0B0B",
"!o c #4C0A0A",
"!p c #4C0B0B",
"!q c #4D0A0A",
"!r c #4D0B0B",
"!s c #4E0A0A",
"!t c #4E0B0B",
"!u c #4F0B0B",
"!v c #500B0B",
"!w c #510B0B",
"!x c #520B0B",
"!y c #520C0C",
"!z c #530B0B",
"!{ c #530C0C",
"!| c #540C0C",
"!} c #550C0C",
"!~ c #560C0C",
"#! c #570C0C",
"## c #580C0C",
"#$ c #580D0D",
"#% c #590C0C",
"#& c #590D0D",
"#' c #5A0C0C",
"#( c #5A0D0D",
"#) c #5B0D0D",
"#* c #5C0D0D",
"#+ c #5D0D0D",
"#, c #5E0D0D",
"#- c #5E0E0E",
"#. c #5F0D0D",
"#/ c #5F0E0E",
"#0 c #600D0D",
"#1 c #600E0E",
"#2 c #610E0E",
"#3 c #620E0E",
"#4 c #630E0E",
"#5 c #640E0E",
"#6 c #640F0F",
"#7 c #650E0E",
"#8 c #650F0F",
"#9 c #660E0E",
"#: c #660F0F",
"#; c #670F0F",
"#< c #680F0F",
"#= c #690F0F",
"#> c #6A0F0F",
"#? c #6A1010",
"#@ c #6B0F0F",
"#A c #6B1010",
"#B c #6C1010",
"#C c #6D1010",
"#D c #6E1010",
"#E c #6E1111",
"#F c #6F1010",
"#G c #6F1111",
"#H c #701010",
"#I c #711010",
"#J c #711111",
"#K c #721010",
"#L c #721111",
"#M c #731010",
"#N c #731111",
"#O c #731212",
"#P c #741010",
"#Q c #741111",
"#R c #741212",
"#S c #751010",
"#T c #751111",
"#U c #751212",
"#V c #761111",
"#W c #761212",
"#X c #771111",
"#Y c #771212",
"#Z c #781111",
"#[ c #781212",
"#] c #781313",
"#^ c #791111",
"#_ c #791212",
"#` c #791414",
"#a c #7A1111",
"#b c #7A1212",
"#c c #7A1313",
"#d c #7A1414",
"#e c #7B1212",
"#f c #7B1515",
"#g c #7C1212",
"#h c #7C1414",
"#i c #7C1515",
"#j c #7D1212",
"#k c #7D1414",
"#l c #7E1212",
"#m c #7E1313",
"#n c #7E1414",
"#o c #7E1616",
"#p c #7F1212",
"#q c #7F1616",
"#r c #801212",
"#s c #801515",
"#t c #811313",
"#u c #811515",
"#v c #821313",
"#w c #821414",
"#x c #831313",
"#y c #841313",
"#z c #841515",
"#{ c #841717",
"#| c #841818",
"#} c #851313",
"#~ c #851414",
"$! c #861313",
"$# c #861414",
"$$ c #861515",
"$% c #861717",
"$& c #861818",
"$' c #871414",
"$( c #871818",
"$) c #881414",
"$* c #881717",
"$+ c #881919",
"$, c #881A1A",
"$- c #891414",
"$. c #891616",
"$/ c #8A1414",
"$0 c #8B1414",
"$1 c #8B1515",
"$2 c #8B1616",
"$3 c #8B1717",
"$4 c #8B1919",
"$5 c #8C1414",
"$6 c #8C1515",
"$7 c #8C1818",
"$8 c #8D1414",
"$9 c #8D1515",
"$: c #8D1B1B",
"$; c #8E1515",
"$< c #8E1A1A",
"$= c #8F1414",
"$> c #8F1515",
"$? c #8F1717",
"$@ c #8F1C1C",
"$A c #901515",
"$B c #911515",
"$C c #911616",
"$D c #911818",
"$E c #911919",
"$F c #911A1A",
"$G c #921515",
"$H c #921717",
"$I c #931515",
"$J c #931616",
"$K c #931A1A",
"$L c #941515",
"$M c #941616",
"$N c #941717",
"$O c #941919",
"$P c #951515",
"$Q c #951717",
"$R c #951818",
"$S c #951D1D",
"$T c #951E1E",
"$U c #961515",
"$V c #961818",
"$W c #961919",
"$X c #961D1D",
"$Y c #961F1F",
"$Z c #981919",
"$[ c #981E1E",
"$] c #991919",
"$^ c #991A1A",
"$_ c #991D1D",
"$` c #992020",
"$a c #9A1919",
"$b c #9A1C1C",
"$c c #9B1C1C",
"$d c #9D1C1C",
"$e c #9E1C1C",
"$f c #9E1F1F",
"$g c #9F1E1E",
"$h c #9F2020",
"$i c #A01D1D",
"$j c #A11F1F",
"$k c #A12222",
"$l c #A21D1D",
"$m c #A31E1E",
"$n c #A32222",
"$o c #A32323",
"$p c #A41E1E",
"$q c #A52020",
"$r c #A61F1F",
"$s c #A72626",
"$t c #A82323",
"$u c #A92424",
"$v c #AB2222",
"$w c #AB2424",
"$x c #AC2727",
"$y c #AD2828",
"$z c #AE2727",
"${ c #AE2929",
"$| c #B02424",
"$} c #B42626",
"$~ c #B42828",
"%! c #B52929",
"%# c #B52B2B",
"%$ c #B62727",
"%% c #B82727",
"%& c #B82929",
"%' c #B92828",
"%( c #BB2A2A",
"%) c #BC2C2C",
"%* c #BD2D2D",
"%+ c #BD2E2E",
"%, c #BF2F2F",
"%- c #C53232",
"%. c #C72E2E",
"%/ c #C83232",
"%0 c #C93131",
"%1 c #C93333",
"%2 c #CA3333",
"%3 c #CB3030",
"%4 c #CC3333",
"%5 c #CE3333",
"%6 c #CE3535",
"%7 c #CF3636",
"%8 c #D23939",
"%9 c #D33939",
"%: c #D33C3C",
"%; c #D63636",
"%< c #D63C3C",
"%= c #D63D3D",
"%> c #D63E3E",
"%? c #D63F3F",
"%@ c #D64242",
"%A c #D64343",
"%B c #D64646",
"%C c #D64848",
"%D c #D64949",
"%E c #D64C4C",
"%F c #D64D4D",
"%G c #D64E4E",
/* pixels */
"                                                                                                                                ",;
"                                                                                                                                ",;
"                                                                                                                                ",;
"                                                                                                                                ",;
"                          #r#p#j#b#X#Q#H#@                                                                                      ",;
"                  $-$/$-$'#}#x#t#l#e#Z#Q#I#B#;#3!_                                                                              ",;
"            !x$8$>$;$9$0$-$'#}#v#p#g#^#V#K#D#?#:#2#)!y                                                                          ",;
"          $;$B$B$B$A$;$8$/$)#}#v#r#g#b#V#M#F#A#;#4#,##!y!h                                                                      ",;
"        $I$L$I$G$B$A$;$8$/$)#}#v#p#g#a#V#M#F#A#;#4#.#'!|!t!a                                                                    ",;
"    $=$L$P$P$L$I$G$A$;$5$/$'#}#v#p#g#^#V#K#D#A#;#4#.#'!}!v!j!`!4                                                                ",;
"  #e$U$U$U$P$L$I$G$A$;$0$-$!#y#t#p#e#Z#T#I#D#A#;#4#,#'!}!v!m!c!W                                                                ",;
"#8$P$U$U$U$P$L$G$B$>$9$0$)$!#x#r#l#b#X#Q#I#C#>#:#3#,#%!}!v!m!e![!O                                                              ",;
"$P$U$U$U$P$L$I$G$A$>$9$/$)#}#v#p#g#^#V#K#H#B#<#6#2#*##!|!u!k!e![!R!G                                                            ",;
"$U$U$U$P$L$I$I$G$B$A$;$1$)#~#t#l#e#X#Q#I#D#?#;#4#/#*#!!{!t!j!e![!R!H!;                                                          ",;
"$U$U$U$P$L$I$M$N$R$W$O$D$2$##t#j#^#V#M#H#B#=#8#3#-#(!~!y!r!j!c![!R!I!?!0                                                        ",;
"$U$U$P$L$J$Q$Z$e$m$q$j$c$E$.#w#g#Z#T#I#D#A#<#5#1#*#$!|!v!p!i!a!Y!Q!H!?!3!(                                                      ",;
"$P$L$L$J$Q$a$p$|%'%($~$t$_$7#w#e#V#M#F#B#=#:#3#-#(!~!{!u!l!g!_!U!O!G!=!3!(                                                      ",;
"$I$I$G$J$]$r%%%3%;%;%0%!$h$<#u#b#Q#I#D#>#;#4#1#+#&!}!w!r!i!d!^!T!M!E!=!3!*!&                                                    ",;
"$G$B$B$V$l%$%5%=%A%@%9%*$n$<#s#[#N#F#B#<#7#3#,#)#!!{!u!n!h!b!Z!R!J!C!9!2!*!*!!                                                  ",;
"$A$A$C$^$v%.%=%C%E%C%:%+$k$4#k#T#H#B#>#:#4#/#*#$!}!w!t!j!f!_!V!O!H!A!7!0!*!*!!                                                  ",;
"$>$>$H$d$}%6%A%F%G%B%8%#$`$&#d#L#D#@#;#5#2#+#(#!!{!u!m!h!b!]!S!L!G!?!5!-!*!*!*                                                  ",;
"$9$;$H$i%&%7%A%D%C%>%-$s$@#q#U#F#@#<#7#3#.#)##!|!v!p!i!f!_!W!Q!I!B!;!4!+!*!*!*                                                  ",;
"$0$6$D$g$~%4%<%?%=%1${$Y#|#]#J#B#=#9#4#.#*#%!}!x!t!m!h!a!Z!S!L!G!@!7!0!*!*!*!*                                                  ",;
"$-$/$?$b$w%)%/%2%,$y$`$,#f#O#C#?#:#4#0#+#'!~!z!u!o!i!d!^!W!Q!J!B!;!4!,!*!*!*!*!*                                                ",;
"$'$)$2$K$f$u$z$x$o$T$+#i#R#G#?#;#5#2#,#(#!!|!v!q!j!g!`!Z!S!K!G!@!7!2!+!*!*!*!*!*                                                ",;
"#y#~$$$3$F$X$[$S$:#|#f#R#E#A#;#5#2#-#)#$!}!w!t!k!h!a!]!T!N!I!B!:!5!-!*!*!*!*!*!*                                                ",;
"#v#t#w#z$%$*$(#{#o#`#O#D#A#;#5#2#-#*#$!}!y!t!m!i!c!_!W!R!K!D!?!7!2!+!*!*!*!*!*!*                                                ",;
"#p#l#m#m#n#n#h#c#W#J#C#@#;#5#3#.#*#&!}!y!u!p!j!e!_!Y!S!L!H!A!:!4!-!*!*!*!*!*!*!*!*                                              ",;
"#g#e#b#b#_#Y#U#N#H#C#>#;#5#2#,#*#&!~!{!v!p!j!f!`!]!T!N!I!B!<!6!/!+!*!*!*!*!*!*!*!*                                              ",;
"#^#Z#X#T#Q#L#H#D#B#=#;#5#2#.#*#%!~!{!v!r!k!h!b!]!U!Q!J!D!?!8!3!,!*!*!*!*!*!*!*!*!*                                              ",;
"#X#S#P#K#I#F#C#?#<#:#4#2#,#)#%!~!|!v!r!k!h!b!^!X!R!L!H!A!:!4!-!*!*!*!*!*!*!*!*!*!*                                              ",;
"#M#K#H#F#C#A#>#<#8#4#2#-#)#%!~!z!v!r!k!h!d!_!X!R!L!H!A!;!6!2!+!*!*!*!*!*!*!*!*!*!*                                              ",;
"#I#F#D#B#>#<#:#5#3#1#+#)#$!~!z!w!s!k!h!d!_!X!S!N!I!B!?!7!2!+!*!*!*!*!*!*!*!*!*!*!*                                              ",;
"#C#B#A#=#<#:#5#2#/#+#(##!}!{!v!r!k!h!c!_!Y!S!N!I!D!?!7!4!-!*!*!*!*!*!*!*!*!*!*!*!*                                              ",;
"#>#=#;#:#5#3#1#,#*#(##!}!x!v!r!k!h!c!_!Y!S!P!J!D!@!8!4!-!*!*!*!*!*!*!*!*!*!*!*!*!*                                              ",;
"#;#:#5#4#2#.#+#)#%!~!|!x!u!p!j!g!d!_!Y!T!N!J!D!@!8!5!/!*!*!*!*!*!*!*!*!*!*!*!*!*!*                                              ",;
"#4#3#1#/#+#)#'##!~!z!w!t!o!j!g!b!^!X!S!N!J!F!@!:!5!/!+!*!*!*!*!*!*!*!*!*!*!*!*!*!*                                              ",;
"#1#.#+#*#(#$!~!|!x!v!r!m!i!g!a!^!Z!S!O!J!F!@!:!6!1!+!*!*!*!*!*!*!*!*!*!*!*!*!*!*                                                ",;
"#*#*#(#%#!!}!{!w!u!o!k!h!f!`!]!U!R!O!J!G!@!;!5!1!,!*!*!*!*!*!*!*!*!*!*!*!*!*!*!*                                                ",;
"#%#!!~!}!{!w!u!r!m!j!h!d!`!]!U!R!L!I!D!@!:!6!2!,!*!*!*!*!*!*!*!*!*!*!*!*!*!*!*!*                                                ",;
"!}!|!z!w!u!t!o!j!h!f!a!^!Y!T!Q!L!I!D!@!8!5!2!,!*!*!*!*!*!*!*!*!*!*!*!*!*!*!*!*!*                                                ",;
"!x!v!u!s!o!k!i!g!d!`!]!W!S!P!K!H!B!?!8!5!2!+!*!*!*!*!*!*!*!*!*!*!*!*!*!*!*!*!*                                                  ",;
"!q!o!m!j!i!g!d!a!_!Z!U!R!O!J!F!B!>!7!4!0!+!*!*!*!*!*!*!*!*!*!*!*!*!*!*!*!*!*!*                                                  ",;
"!j!i!h!f!d!`!^!Z!U!S!Q!K!I!E!A!<!7!4!/!+!*!*!*!*!*!*!*!*!*!*!*!*!*!*!*!*!*!*!*                                                  ",;
"!f!d!b!`!^!Z!W!T!Q!L!J!G!B!?!8!6!3!-!*!*!*!*!*!*!*!*!*!*!*!*!*!*!*!*!*!*!*!*!!                                                  ",;
"!^!^!]!Z!U!T!R!N!K!H!D!A!=!8!5!2!,!*!*!*!*!*!*!*!*!*!*!*!*!*!*!*!*!*!*!*!*!*!!                                                  ",;
"!U!T!T!R!Q!L!J!I!F!A!?!:!6!4!0!+!*!*!*!*!*!*!*!*!*!*!*!*!*!*!*!*!*!*!*!*!*!&                                                    ",;
"!N!L!K!J!I!H!D!A!>!:!7!4!2!,!*!*!*!*!*!*!*!*!*!*!*!*!*!*!*!*!*!*!*!*!*!*!(                                                      ",;
"!H!F!F!D!A!@!?!:!7!4!2!-!+!*!*!*!*!*!*!*!*!*!*!*!*!*!*!*!*!*!*!*!*!*!*!*!(                                                      ",;
"!?!?!>!<!:!7!6!4!2!.!+!*!*!*!*!*!*!*!*!*!*!*!*!*!*!*!*!*!*!*!*!*!*!*!*!*                                                        ",;
"!5!6!6!5!4!3!0!-!+!*!*!*!*!*!*!*!*!*!*!*!*!*!*!*!*!*!*!*!*!*!*!*!*!*!*                                                          ",;
"!,!-!.!,!,!+!*!*!*!*!*!*!*!*!*!*!*!*!*!*!*!*!*!*!*!*!*!*!*!*!*!*!*!*                                                            ",;
"!$!*!*!*!*!*!*!*!*!*!*!*!*!*!*!*!*!*!*!*!*!*!*!*!*!*!*!*!*!*!*!*!*                                                              ",;
"  !'!*!*!*!*!*!*!*!*!*!*!*!*!*!*!*!*!*!*!*!*!*!*!*!*!*!*!*!*!*!*                                                                ",;
"    !*!*!*!*!*!*!*!*!*!*!*!*!*!*!*!*!*!*!*!*!*!*!*!*!*!*!*!*!*!#                                                                ",;
"        !*!*!*!*!*!*!*!*!*!*!*!*!*!*!*!*!*!*!*!*!*!*!*!*!*!)                                                                    ",;
"          !*!*!*!*!*!*!*!*!*!*!*!*!*!*!*!*!*!*!*!*!*!*!*!*                                                                      ",;
"            !!!*!*!*!*!*!*!*!*!*!*!*!*!*!*!*!*!*!*!*!*                                                                          ",;
"                  !*!*!*!*!*!*!*!*!*!*!*!*!*!*!*!%                                                                              ",;
"                          !*!*!*!*!*!*!*!*                                                                                      ",;
"                                                                                                                                ",;
"                                                                                                                                ",;
"                                                                                                                                ",;
"                                                                                                                                ";
};
