/* XPM */
static const char *collectible[] = {
/* columns rows colors chars-per-pixel */
"32 32 204 2 ",
"   c #2A1D1E",
".  c #301D1D",
"X  c #37251E",
"o  c #251F21",
"O  c #2A1E21",
"+  c #351E22",
"@  c #1E2122",
"#  c #212322",
"$  c #2C2221",
"%  c #2A2A22",
"&  c #202529",
"*  c #242A2C",
"=  c #342222",
"-  c #392422",
";  c #332E21",
":  c #363222",
">  c #3B3322",
",  c #3A382B",
"<  c #2D3534",
"1  c #431718",
"2  c #4D1D1B",
"3  c #511C16",
"4  c #741611",
"5  c #5A2119",
"6  c #4F3D1D",
"7  c #62261F",
"8  c #451F22",
"9  c #531D22",
"0  c #781F21",
"q  c #482422",
"w  c #552222",
"e  c #592321",
"r  c #5E2822",
"t  c #403622",
"y  c #443922",
"u  c #4B3D22",
"i  c #513E3F",
"p  c #662721",
"a  c #6E2321",
"s  c #7C2421",
"d  c #7B2F21",
"f  c #6F3A36",
"g  c #4F411D",
"h  c #78571B",
"j  c #4D4022",
"k  c #514222",
"l  c #5A4924",
"z  c #644E22",
"x  c #694F22",
"c  c #754F20",
"v  c #6A5121",
"b  c #765A22",
"n  c #796638",
"m  c #394447",
"M  c #384551",
"N  c #4D504D",
"B  c #605E58",
"V  c #5B656F",
"C  c #716769",
"Z  c #7D7F7F",
"A  c #991916",
"S  c #83230F",
"D  c #952C16",
"F  c #A62D13",
"G  c #822521",
"H  c #892A21",
"J  c #932B20",
"K  c #893421",
"L  c #993D21",
"P  c #A52C21",
"I  c #A82921",
"U  c #AA3522",
"Y  c #B93722",
"T  c #BF3D22",
"R  c #BC3830",
"E  c #C13B23",
"W  c #C93F24",
"Q  c #8B4E1B",
"!  c #B04D13",
"~  c #9B6A18",
"^  c #AD6C19",
"/  c #A8771E",
"(  c #9F4321",
")  c #B54D22",
"_  c #856522",
"`  c #8A6521",
"'  c #8C6921",
"]  c #936B21",
"[  c #9A6E21",
"{  c #9E7221",
"}  c #A27525",
"|  c #B47E21",
" . c #C55B09",
".. c #CD6A1B",
"X. c #C54724",
"o. c #C75422",
"O. c #D15523",
"+. c #D85625",
"@. c #D25C23",
"#. c #DA5A25",
"$. c #E15D26",
"%. c #C96824",
"&. c #DB6324",
"*. c #D46A22",
"=. c #C67D22",
"-. c #DB7223",
";. c #DC7B22",
":. c #D47328",
">. c #E37124",
",. c #E47C24",
"<. c #EA7C25",
"1. c #8D514E",
"2. c #D66B6A",
"3. c #D97566",
"4. c #AD8122",
"5. c #B48121",
"6. c #BA8221",
"7. c #BE8821",
"8. c #CE8A14",
"9. c #C7861B",
"0. c #D79219",
"q. c #EB9A15",
"w. c #E29A1E",
"e. c #EC9D1B",
"r. c #EDA21C",
"t. c #F3A41C",
"y. c #FCAD1E",
"u. c #C38A21",
"i. c #C98A22",
"p. c #DF8422",
"a. c #D18F21",
"s. c #DA8F20",
"d. c #CD9321",
"f. c #D29321",
"g. c #DB9422",
"h. c #DD9F21",
"j. c #C9943C",
"k. c #EC8225",
"l. c #E28C21",
"z. c #EE892D",
"x. c #E59422",
"c. c #EC9423",
"v. c #E49B21",
"b. c #EA9D22",
"n. c #E89A2A",
"m. c #F09523",
"M. c #F69A24",
"N. c #E19233",
"B. c #E6A121",
"V. c #EDA222",
"C. c #EDA62E",
"Z. c #F4A523",
"A. c #F7A426",
"S. c #F6AA23",
"D. c #FCAC23",
"F. c #FFB125",
"G. c #EBA836",
"H. c #F9B339",
"J. c #AF8C4B",
"K. c #828579",
"L. c #AF996E",
"P. c #DE8249",
"I. c #E18A54",
"U. c #CEA04E",
"Y. c #EDB047",
"T. c #F5AD55",
"R. c #F5BF5E",
"E. c #DC9873",
"W. c #D3B073",
"Q. c #EDAB6B",
"!. c #FAC04E",
"~. c #F8C251",
"^. c #F8C96C",
"/. c #F5C678",
"(. c #707D86",
"). c #73828B",
"_. c #92948B",
"`. c #B98487",
"'. c #A89F81",
"]. c #B0B1B0",
"[. c #D29898",
"{. c #ECBF92",
"}. c #EBACA2",
"|. c #EEB4AB",
" X c #EBAEB0",
".X c #E7B7B4",
"XX c #F8C98B",
"oX c #F7D89D",
"OX c #D2C7AC",
"+X c #E1D7AF",
"@X c #FCD7AB",
"#X c #FAE5A5",
"$X c #F9E5B4",
"%X c #B2BDC6",
"&X c #D6D9DB",
"*X c #E0CBCE",
"=X c #F7DAD1",
"-X c #FDF5CA",
";X c #F4ECD0",
":X c #E5E7E8",
">X c #F7EAE6",
",X c #FAE9EB",
"<X c #FDF8E8",
"1X c #FFFEFD",
/* pixels */
"@ @ @ @ @ @ * , z [ i.v.V.V.v.v.v.v.B.v.g.;.@.X.U H p q # # @ @ ",
"  @ @ * M V (._.L.U.C.D.y.y.D.D.D.F.F.F.D.M.k.>.@.) L d p 8 + O ",
"2 $ * M ).%X:X>X$X/.G.e.q.q.e.b.b.b.b.b.b.V.V.b.x.;.*.X.U J a q ",
"1.C Z _.].+X$X#XXXT.z.*...^ ~ ] ` ` ` ` [ 5.d.B.S.A.m.<.&.o.( K ",
"[.*X:X;X#X^.Y.n.,.&.X.Y J p q ; % % % % > v { a.V.S.S.Z.x.p.*.o.",
".X,X1X<X@XQ.;. .! D H a 9 + o @ @ @ @ @ @ : l b [ | d.h.B.b.<.$.",
".X>X1X,X|.3.X.F S 5 X $ # # @ @ @ @ @ @ @ @ # % : l ' u.v.m.k.&.",
".X,X1X,X X2.R A 4 1 o @ @ @ @ @ @ @ @ @ @ @ @ @ @ > b 5.v.m.k.&.",
".X>X1X>X|.3.R A 4 2 $ # @ @ # # # # # # # # @ @ # u _ 6.v.c.,.@.",
"E.{.oXXXQ.P.%.) ! Q c x z x x v v v v v v x z x v ' 4.f.B.c.;.o.",
":.N.G.G.C.n.x.s.s.s.f.a.a.a.a.a.a.a.a.a.a.a.a.f.f.g.v.B.b.l.*.o.",
"I.Q.^.^.~.H.S.t.y.y.D.D.D.D.Z.Z.Z.S.S.D.Z.M.m.k.k.<.,.,.;.*.@.X.",
"}.=X<X-XoXR.C.e.q.e.V.V.V.V.b.b.V.V.V.V.v.p.*.o.X.T T T T E E E ",
"`.].].].'.J.} ~ ~ ~ [ } | i.g.v.b.c.l.;.%.) ( K s s 0 s s s G H ",
"f i m m < , > : ; ; ; t x [ u.v.c.k.&.X.U H p q = $ $ $ = = - - ",
"5 . @ @ @ @ @ @ @ @ @ # u _ 7.v.m.<.+.Y P 0 9 O @ @ @ @ @ @ @ @ ",
"7 X @ @ @ @ @ @ @ @ @ % k ' 7.v.m.<.#.E P G w = # @ @ @ @ @ @ @ ",
"p - # @ @ @ @ @ @ @ @ % k ' u.v.m.<.#.E P G e - # @ @ @ @ @ @ @ ",
"r - # @ @ @ @ @ @ @ @ % k ' u.v.m.<.#.E P G e - # @ @ @ @ @ @ @ ",
"r - # @ @ @ @ @ @ @ @ # j _ 7.v.m.<.#.E P G e - # @ @ @ @ @ @ @ ",
"r - # @ @ @ # # @ @ @ # j _ 7.v.m.<.#.E P G w = # @ @ @ @ @ @ @ ",
"5 X # * m N V V B N l z _ / d.v.c.,.#.E P G w = # @ @ @ @ @ @ @ ",
"3   & m (.].&X&XOXW.j.9.8.0.w.v.l.-.O.E P G w = # @ @ @ @ @ @ @ ",
"2   & N K.OX;X-X#X^.H.t.t.r.r.v.l.-.O.T P G e = # @ @ @ @ @ @ @ ",
"2 O # , n J.Y.!.Y.H.Z.b.r.r.V.v.l.-.O.E P G w = # @ @ @ @ @ @ @ ",
"w + # % g h ~ | 9.0.w.b.V.V.V.b.l.-.O.E P G w = # @ @ @ @ @ @ @ ",
"r - # @ # % X 6 h / a.V.S.S.V.b.l.-.O.E P G e - # @ @ @ @ @ @ @ ",
"r - # # % : u z ` | g.Z.S.S.Z.b.l.-.O.E P G e - # @ @ @ @ @ @ @ ",
"w + # : l ' 6.a.v.b.V.Z.Z.Z.V.v.l.-.O.T P G e - # @ @ @ @ @ @ @ ",
"q o # : z ] | i.u.6.| | u.f.v.V.c.,.#.W I G e - # @ @ @ @ @ @ @ ",
"# @ @ # ; t u u u y y k b } f.V.M.<.$.W I G e - # @ @ @ @ @ @ @ ",
"@ @ @ @ @ @ @ @ @ @ @ # t b { 6.=.%.) U H a q $ # @ @ @ @ @ @ @ "
};
