/* XPM */
static const char *exit[] = {
/* columns rows colors chars-per-pixel */
"32 32 103 2 ",
"   c #000000",
".  c #040308",
"X  c #000F0E",
"o  c #060C14",
"O  c #001313",
"+  c #001816",
"@  c #03161B",
"#  c #0A111D",
"$  c #001C1B",
"%  c #0D1626",
"&  c #021E22",
"*  c #002322",
"=  c #002A26",
"-  c #002529",
";  c #002C2A",
":  c #002F31",
">  c #0B2D3C",
",  c #11263C",
"<  c #003134",
"1  c #07313C",
"2  c #003E3C",
"3  c #112D44",
"4  c #0F384D",
"5  c #143854",
"6  c #163E5C",
"7  c #05424C",
"8  c #004E4E",
"9  c #004D53",
"0  c #13425D",
"q  c #01555A",
"w  c #0D4D61",
"e  c #144562",
"r  c #134B65",
"t  c #134E69",
"y  c #0D556A",
"u  c #075E6C",
"i  c #10526B",
"p  c #0C5C71",
"a  c #115B75",
"s  c #016167",
"d  c #006C64",
"f  c #00646A",
"g  c #00746C",
"h  c #076676",
"j  c #0A6275",
"k  c #016D74",
"l  c #0B6679",
"z  c #066D7B",
"x  c #0A687B",
"c  c #007071",
"v  c #007A71",
"b  c #03717D",
"n  c #00887E",
"m  c #047581",
"M  c #0E7685",
"N  c #017C85",
"B  c #0E7987",
"V  c #007F88",
"C  c #0C7E8A",
"Z  c #008087",
"A  c #00828A",
"S  c #00888E",
"D  c #009187",
"F  c #00958B",
"G  c #00988D",
"H  c #008791",
"J  c #098690",
"K  c #008991",
"L  c #078B93",
"P  c #008D95",
"I  c #009196",
"U  c #059297",
"Y  c #009497",
"T  c #009F96",
"R  c #00969A",
"E  c #03979A",
"W  c #00999D",
"Q  c #019C9E",
"!  c #00A094",
"~  c #00A398",
"^  c #009BA0",
"/  c #00A1A1",
"(  c #00AAA1",
")  c #00AFAC",
"_  c #00B4AC",
"`  c #00C4B6",
"'  c #00C1BA",
"]  c #00C3BC",
"[  c #00C4BD",
"{  c #04C5BF",
"}  c #00C8B9",
"|  c #03C7C0",
" . c #00C9C2",
".. c #00CCC5",
"X. c #00D1C6",
"o. c #00D4C9",
"O. c #00D9CD",
"+. c #00E0D0",
"@. c #00E4D3",
"#. c #00E5D5",
"$. c #00E9D9",
"%. c #00ECDB",
"&. c #00EFDE",
/* pixels */
"$.%.#.+.+.+.+.+.+.+.+.+.+.+.+.+.+.+.+.+.+.+.+.+.+.+.+.+.+.+.#.&.",
"$.` n d d g v v v v v v v v v v v v v v v v v v v v v v g g D } ",
"#.~ 2 X O + $ $ $ $ $ $ $ $ $ $ $ $ $ $ $ $ $ $ $ $ $ $ + + 2 ! ",
"#.( 8 - ; &                                                 * D ",
"#.[ S k b q @                                               = F ",
"+...^ H K k 1 o                                             ; G ",
"@. .R N Z z e , o                                           ; G ",
"@. .R N N b t 5 1 : : < < ; O                               ; G ",
"#. .R N N z r e u k k k b s ; .                             ; G ",
"#. .R N N z e r m K K K P N 7 @ .                           ; G ",
"#. .R N N z e r b S S S K N y 3 #                           ; G ",
"@. .R N N z e r z Z Z Z A N a 6 > * $ & * & O               ; G ",
"@. .R N N z e r z Z Z Z A N i e w s f s f s 2 X             ; G ",
"@. .R N N z e r z Z Z Z A m i e p Z K S P S q & .           = G ",
"@. .R N N z e r z Z Z Z A m i e p Z S S K S h 4 %           * F ",
"@. .R N N z e r z Z Z Z A m i e p N A Z A Z x e 3 & + + @ + 2 T ",
"@. .R N N z e r z Z Z Z A N i e p N A Z A Z l r 0 q q q 9 9 c _ ",
"@. .R N N z e r z Z Z Z A m i e p N A Z A Z j e t m S S V V R [ ",
"@. .R N N z e r z Z A Z A N i e p N A Z A Z j e t N K K A A W [ ",
"@. .R N N z e r z Z Z Z A m i e p N A Z A Z j e t m A Z N N Y ] ",
"#. .R N N z e r z Z A Z A m i e p N A Z A Z j e r m Z Z N N I ] ",
"#. .R N N z e r z Z A Z A m i e p N A Z A Z j e r m Z Z N N I ] ",
"#. .R N N z e r z Z Z Z A m i e p N A Z A Z j e r m Z Z N N Y ] ",
"@. .R N N z e r z Z Z Z A m i e p N A Z A Z j e r m Z Z N N Y ] ",
"@. .R N N z e r z Z Z Z A m i e p N A Z A Z j e r m Z Z N N Y ] ",
"@. .R N N z e r z Z Z Z Z m i e p N A Z A Z j e r m Z Z N N Y ] ",
"@. .R N N z e r z Z Z Z Z m i e p N A Z A Z j e t m Z Z N N I ] ",
"@. .R N N z e r z Z Z Z A m i e p N A Z A Z j e r m Z Z N N Y [ ",
"+. .I m m h 6 0 h N N N N b r 6 y m Z N N N p 6 e z N N m m I ' ",
"#. .R N N z e e z Z Z Z Z m i e p N A Z Z N j e r m Z Z N N I [ ",
"#.o.) Q Q U M B U / / / / W J M J Q / / / / L M C R / / Q Q ) o.",
"%.$.O.X.X...{ { ..X.X.X.X.X. .{  .X.X.X.X.X. .{ | X.X.X.X.X.O.$."
};
