/* XPM */
static const char *ganon_sit[] = {
/* columns rows colors chars-per-pixel */
"32 32 193 2 ",
"   c #7B6A5C",
".  c #7C7558",
"X  c #7D795C",
"o  c #7F6B67",
"O  c #7C6E6D",
"+  c #6D756E",
"@  c #787963",
"#  c #79716D",
"$  c #7B6F70",
"%  c #687A73",
"&  c #6B7D7C",
"*  c #747474",
"=  c #787071",
"-  c #717679",
";  c #BA3C1B",
":  c #BA3E25",
">  c #DE1E00",
",  c #EC1500",
"<  c #E21E02",
"1  c #CC2C00",
"2  c #DC2501",
"3  c #DA2607",
"4  c #D42903",
"5  c #D82801",
"6  c #D42B0A",
"7  c #DB2A0B",
"8  c #D12E11",
"9  c #D92813",
"0  c #C73416",
"q  c #CA3415",
"w  c #C6371A",
"e  c #C23B1B",
"r  c #CA3F1F",
"t  c #D33919",
"y  c #E12101",
"u  c #C13920",
"i  c #D73C20",
"p  c #9D573A",
"a  c #AE4D2E",
"s  c #B74525",
"d  c #BA4126",
"f  c #B5422B",
"g  c #B2492B",
"h  c #AF4732",
"j  c #AC4B34",
"k  c #A54F3C",
"l  c #A75334",
"z  c #A95235",
"x  c #A2543D",
"c  c #CC563A",
"v  c #D1573B",
"b  c #9A5A46",
"n  c #925D52",
"m  c #A15140",
"M  c #8B644B",
"N  c #8D6A4C",
"B  c #946546",
"V  c #966646",
"C  c #93654A",
"Z  c #8D6156",
"A  c #886957",
"S  c #90645B",
"D  c #827558",
"F  c #AF6346",
"G  c #BC6048",
"H  c #B76E55",
"J  c #836964",
"K  c #CC5D43",
"L  c #CA684B",
"P  c #C56C53",
"I  c #C3775D",
"U  c #CB755B",
"Y  c #C6795D",
"T  c #C27C64",
"R  c #5E9075",
"E  c #5E947C",
"W  c #708469",
"Q  c #7C836A",
"!  c #648F74",
"~  c #668878",
"^  c #738E74",
"/  c #7C8D73",
"(  c #629379",
")  c #8C886C",
"_  c #809379",
"`  c #BE8266",
"'  c #B68D74",
"]  c #B9957E",
"[  c #C18A71",
"{  c #C49179",
"}  c #3FAE97",
"|  c #3DB59E",
" . c #3CAEA4",
".. c #38AFA9",
"X. c #29B9A9",
"o. c #3AB6A2",
"O. c #3AB6A5",
"+. c #34B5AC",
"@. c #34BEA9",
"#. c #2CBDB2",
"$. c #5F8986",
"%. c #5C8C8A",
"&. c #4E9981",
"*. c #549D85",
"=. c #469E94",
"-. c #529691",
";. c #638583",
":. c #4DA58D",
">. c #53A087",
",. c #51A289",
"<. c #59A68E",
"1. c #4AA592",
"2. c #44AD96",
"3. c #49A992",
"4. c #46A19C",
"5. c #48A09A",
"6. c #40B29B",
"7. c #7EAD96",
"8. c #4DBDA8",
"9. c #5FBEA9",
"0. c #1ECFBC",
"q. c #19D2BF",
"w. c #2BC3AE",
"e. c #30C0AB",
"r. c #24C5B0",
"t. c #2BC2B5",
"y. c #25C9B5",
"u. c #2AC9B5",
"i. c #25C5B9",
"p. c #22CCBB",
"a. c #31C6B0",
"s. c #21D0BD",
"d. c #52CEBB",
"f. c #1DCDC1",
"g. c #05DFC9",
"h. c #0EDECD",
"j. c #17D4C5",
"k. c #1BD4C2",
"l. c #16D7C9",
"z. c #13DCCC",
"x. c #0CDED0",
"c. c #00E4CD",
"v. c #0FE0CF",
"b. c #04E6D6",
"n. c #0BE4D4",
"m. c #03E8D5",
"M. c #03E7D8",
"N. c #0CE6D9",
"B. c #01E9DA",
"V. c #09E9DA",
"C. c #12E3D3",
"Z. c #15E9DA",
"A. c #27EBDC",
"S. c #34E2D2",
"D. c #01EFE0",
"F. c #00F1E3",
"G. c #0DF7EA",
"H. c #10F9ED",
"J. c #3CF0E1",
"K. c #32F5E9",
"L. c #51DDCE",
"P. c #6EDACA",
"I. c #4BF9EC",
"U. c #55F5EA",
"Y. c #5AF5E9",
"T. c #47FBF1",
"R. c #53FDF3",
"E. c #6EEEE4",
"W. c #7FECE3",
"Q. c #74F4EB",
"!. c #71F9EF",
"~. c #67FBF1",
"^. c #B79D88",
"/. c #9BAC96",
"(. c #B5A58E",
"). c #A0A791",
"_. c #B8AF99",
"`. c #B7B59F",
"'. c #BAB49E",
"]. c #AEBDA9",
"[. c #B4B6A2",
"{. c #85C9B9",
"}. c #ADC0AD",
"|. c #ACC6B5",
" X c #B4C4B1",
".X c #A8CFC0",
"XX c #A9D2C2",
"oX c #A5DCCE",
"OX c #A3DFD2",
"+X c #A3E4D7",
"@X c #8AF6ED",
"#X c #A6F3EC",
"$X c #ACFEF3",
/* pixels */
"* * * = %.i.p.p.p.i.$.$ * * = * * * * = & #.b.M.=.O * * * * * * ",
"* * * = ~ +.M.B.B.B.i.;.= n f f f f f m  .b.B.M.5.= * * * * * * ",
"* * * * O %.n.B.B.B.B.p.A N R R ! ( D s p.B.B.M.4.* - * * * * * ",
"* * * * = & +.b.B.B.B.D.2.9.T.I.K.F.z.:.z.B.B.B.~ h Z - * * * * ",
"* * * * * = & +.b.F.M.2.y.R.$X$X~.l.E *.h.B.B.2.g y e Z - * * * ",
"* * * * * * = &  .3.k.B p d.R.R.L.. < w p.V.3.d 2 5 2 e Z - - * ",
"* * * * * - = n k 0 @ W H ) &.*./ U P Q C.N.z , y y 2 2 w Z - * ",
"* * * * - = b 6 2 2 6 3.K./.L F _ E.U.C.2.*.D B B N s < y 0 n = ",
"* * * - = m 6 2 5 2 3 :.H.~.#XQ.A.B.n.3.B B t.V.n.V.:.b g < w o ",
"* * - = x 6 2 5 2 5 a 8.P.+X+XoX!.S.>.D y.n.B.B.B.B.b.n.| j f O ",
"* - # x 6 2 5 5 2 6 2.Y.T ^.^.Y @X{.D p.B.B.B.B.B.B.B.B.M.i.;.= ",
"- # k 6 2 5 5 5 5 g w.~.{ ] ] ' Y.Z.l.B.B.B.B.B.B.B.B.B.B.B.f.%.",
"O j 3 2 2 5 5 2 q 6.V.Y.oXI Y P.N.B.B.B.b.0.n.B.B.B.B.B.B.B.B.l.",
"h q e e q 2 5 2 w u.F.Z.^ t 7 Q M.B.B.B.l.X 6.M.B.B.B.B.B.B.B.B.",
": X p.p.*.q 2 2 q o.B.B.j.N , A M.B.B.B.M.o.B 3.z.n.B.B.B.B.B.B.",
"J  .F.F.n.,.w 2 3 a O.C.B.! 9 @ B.B.B.B.k.N 6 e a *.C.n.B.B.n.z.",
"..x.B.B.B.b.:.e 2 2 s x 3.p.} w.v.v.n.s.B 3 2 2 y e z ( V.f.-.%.",
"i.B.B.B.B.B.M.:.e 2 2 < s C C B B B b l 3 2 5 5 5 y e # -.%.= $ ",
"t.B.B.B.B.M.B.k.s y 2 3 Y `._._.`.[ 7 < 3 5 5 5 5 2 k - = = * * ",
"t.B.B.B.B.B.B.p.d y 6 ` ] I }.XXT [ ).<.E e 2 2 2 d J - * * * * ",
"t.B.B.B.B.B.B.p.d < 8 ].T c .XOXP v W.G.M.,.e < 2 m - * * * * * ",
"t.B.B.B.B.B.B.v.( w 7 [.|.XX|.[.oX[.@XZ.B.M.3.! ! 1.-.= = * * * ",
"t.B.B.B.B.B.B.B.z.g < 7.T.!. X'.@XU.J.V.B.B.B.D.D.B.j.-.= * * * ",
"i.B.B.B.B.B.B.B.n.E @ r.B.A.Y.Y.J.M.B.B.B.B.B.B.B.B.B.j.-.* * * ",
"5.j.B.B.B.B.B.v.3.k.D.B.B.B.B.B.B.B.B.B.B.B.B.B.B.B.B.B.t.* - * ",
"$  .B.B.B.B.h.>.X p.B.B.B.B.B.B.B.B.B.B.B.B.B.B.B.B.M.B.l.%.Z = ",
"O ..F.B.B.D.e.l t.B.B.B.B.B.B.M.B.D.B.B.B.B.B.B.M.M.B.F.z.W ; J ",
";.1.3.w.B.F.e.l u.D.B.B.B.B.B.B.z.| o.i.f.b.B.M.B.F.k.o.W 3 0 O ",
"f.,.z ! b.F.@.a u.F.B.B.B.B.B.z.! 8 u # ;.#.B.F.0.@.X 6 r K G S ",
"M.n.l.n.B.B.y.N 2.n.B.B.B.B.F.:.6 < q o - & o.e.N 6 6 > c |.(.r ",
"B.D.N.l.z.B.B.a.C t.F.B.B.B.V.~ y 3 d O - $ f q 6 y 2 2 7 i t y ",
"c.c.X.% =.g.m.q.~ r.m.c.c.c.X.M 4 ;   + + # ; 5 1 1 1 1 1 1 1 1 "
};
