/* XPM */
static const char *player2[] = {
/* columns rows colors chars-per-pixel */
"32 32 224 2 ",
"   c #5D765E",
".  c #687151",
"X  c #707D5D",
"o  c #577461",
"O  c #587561",
"+  c #5B7862",
"@  c #7D6E67",
"#  c #7B6F68",
"$  c #677766",
"%  c #72786D",
"&  c #736F7A",
"*  c #69727A",
"=  c #6E727B",
"-  c #747475",
";  c #7C7572",
":  c #727B71",
">  c #7D7A73",
",  c #73737B",
"<  c #7A737A",
"1  c #CD3D0A",
"2  c #D03C0B",
"3  c #BF460D",
"4  c #A65404",
"5  c #A2560A",
"6  c #BD550A",
"7  c #BD5B0C",
"8  c #BC4D16",
"9  c #BB5517",
"0  c #BB6907",
"q  c #B5660B",
"w  c #BC620C",
"e  c #B56C0C",
"r  c #B96A0B",
"t  c #AB780B",
"y  c #B17A06",
"u  c #B3740B",
"i  c #BC7B14",
"p  c #9D5635",
"a  c #B0572F",
"s  c #A95A38",
"d  c #87632C",
"f  c #947037",
"g  c #A56C28",
"h  c #C34406",
"j  c #CA4805",
"k  c #C44609",
"l  c #CA430B",
"z  c #C64A0B",
"x  c #CA4C0D",
"c  c #D54505",
"v  c #D94105",
"b  c #D4440A",
"n  c #D44B0D",
"m  c #C7560A",
"M  c #C3550C",
"N  c #CC510F",
"B  c #D8520A",
"V  c #C94B10",
"C  c #D04610",
"Z  c #CE5512",
"A  c #C55F10",
"S  c #D15612",
"D  c #D45C15",
"F  c #D95E13",
"G  c #D95B17",
"H  c #C86613",
"J  c #D46414",
"K  c #DB6115",
"L  c #D6631A",
"P  c #DB641B",
"I  c #D46F1B",
"U  c #DD6B1E",
"Y  c #C77817",
"T  c #D4721C",
"R  c #E2641E",
"E  c #E46A1D",
"W  c #C15120",
"Q  c #DF7A23",
"!  c #E46920",
"~  c #E47423",
"^  c #EB7425",
"/  c #E57B26",
"(  c #EA7B26",
")  c #ED7628",
"_  c #E37C2D",
"`  c #EC7D29",
"'  c #F47F2E",
"]  c #8B5F52",
"[  c #98674D",
"{  c #866B58",
"}  c #AF6E47",
"|  c #B0734A",
" . c #816969",
".. c #866B6A",
"X. c #84756C",
"o. c #8F766D",
"O. c #85786D",
"+. c #8B7A6C",
"@. c #987C68",
"#. c #987D6E",
"$. c #817673",
"%. c #8F7B72",
"&. c #937C70",
"*. c #7DB52F",
"=. c #7AA73C",
"-. c #72B338",
";. c #7CCC0D",
":. c #7CD20D",
">. c #79D60D",
",. c #76DA0F",
"<. c #7ECB15",
"1. c #7ED010",
"2. c #7ADA10",
"3. c #76E111",
"4. c #77C325",
"5. c #79C423",
"6. c #7A8C58",
"7. c #719453",
"8. c #749554",
"9. c #749C50",
"0. c #6F8268",
"q. c #748166",
"w. c #788568",
"e. c #969E0C",
"r. c #9D9B0D",
"t. c #939517",
"y. c #AB860D",
"u. c #A48A0B",
"i. c #A1940D",
"p. c #B68213",
"a. c #A69C16",
"s. c #8FAA0C",
"d. c #99A907",
"f. c #9BA20C",
"g. c #94AB0D",
"h. c #8AB30C",
"j. c #89BB0D",
"k. c #90B80B",
"l. c #9FA111",
"z. c #8DB512",
"x. c #87BC13",
"c. c #9DBB17",
"v. c #A8A315",
"b. c #B9A21D",
"n. c #A8B418",
"m. c #868F33",
"M. c #85AF24",
"N. c #82BA27",
"B. c #86B734",
"V. c #AEBD20",
"C. c #B9BA24",
"Z. c #C19317",
"A. c #DB9E26",
"S. c #CF9230",
"D. c #E48026",
"F. c #ED812A",
"G. c #EA8B2B",
"H. c #F1822C",
"J. c #F3892E",
"K. c #F98B2B",
"L. c #E5992E",
"P. c #EB8A35",
"I. c #F48730",
"U. c #F48D32",
"Y. c #F98D34",
"T. c #FE8D38",
"R. c #EC9839",
"E. c #F59233",
"W. c #FA9436",
"Q. c #FD9B36",
"!. c #F4973B",
"~. c #FC9639",
"^. c #F49B3B",
"/. c #FD9B3A",
"(. c #C0AB22",
"). c #DEA52E",
"_. c #D5AB2C",
"`. c #DBAA2C",
"'. c #CCB427",
"]. c #DDB426",
"[. c #D4B32D",
"{. c #CDAF34",
"}. c #E8A632",
"|. c #F5A037",
" X c #FFA135",
".X c #FFA13D",
"XX c #85C50D",
"oX c #86C80B",
"OX c #82D20C",
"+X c #83DC0C",
"@X c #82CE11",
"#X c #8BCA14",
"$X c #95C816",
"%X c #81D010",
"&X c #83DB11",
"*X c #8AD218",
"=X c #98D317",
"-X c #A5C01C",
";X c #84E00D",
":X c #82C12B",
">X c #809C4E",
",X c #818053",
"<X c #839354",
"1X c #BE814E",
"2X c #AA825C",
"3X c #BA8758",
"4X c #80A446",
"5X c #B6A242",
"6X c #A68064",
"7X c #CC8B4D",
"8X c #DB8F46",
"9X c #D58D49",
"0X c #CE9B44",
"qX c #DF9045",
"wX c #D7914B",
"eX c #CA8754",
"rX c #C28952",
"tX c #D28F53",
"yX c #E59242",
"uX c #EA9541",
"iX c #E3944C",
"pX c #FF9C40",
"aX c #6B7184",
"sX c #727382",
/* pixels */
"- - - - - - q.=.<.:.:.1.1.1.1.1.1.1.1.:.:.5.9.% - - - - - - - - ",
", , , < > 6.4X:X&X;X&X&X&X&X&X&X&X&X&X+X+X*XB.>Xw.> < , , , < < ",
"- - & - 6.*.@XOX%X@X%X@X@X@X@X@X@X@X@X@X%XOXOX<.=.q.& , - - - < ",
"2X2Xo.; 8.4.+Xk.r.i.i.i.i.i.i.i.i.i.i.i.i.f.oX2.-.q.$.@.2X@.; , ",
"8XuX3X; 7.4.oXi.7 x M M M M M M M M M x x e d.@X-.0.o.7XuXrXO.= ",
"R.!.3X; X m.u.0 k 1 2 2 1 l l l 1 1 2 2 1 M y i.m.% +.9X~.7X+.= ",
"yX!.3X> { a m j z z z z z z z z z z z z z x m 7 p # +.wX!.7XO.= ",
"qX!.wX3X} W l B U Y y.y.Y U E E T i y.p.T P n l a | 3XuX!.rXO.= ",
"8X~./.!._ S x ! U._.c.$X(.E.T.T.L.n.#Xn.L.H.G x L P.^./.!.rXO.= ",
"qXQ. XQ.F.S x ~ ~.).v.l.A./.pX/.R.b.f.b.}.Y.P x P K. X X^.rXO.= ",
"8XQ.Q.Q.F.S Z ~ W.G.H A Q W..X/.U.I A T E.U.P x P U./.Q.!.rXO.= ",
"2X7XuX~.K.^ ! F.W.I.! R ` ~..X.XE.^ R ^ E.E.^ ! ` W.Q.K._ | X.= ",
"- +.rX!.Q.W.E.W.~.W.E.E.W.~.~.~.~.E.Y.E.W.W.E.Y.!.~.K.E Z s @ , ",
"* , @.3X0X{.[.}././..X/.I./ ~ ~ ` U.~./.~.Q.}._.A.F.E B 3 p @ , ",
"- - < $.<XN.$X'.^././.E.~ Z x x D ` !./.~.}.C.$Xa.H n c z s @ , ",
"{ [ ] { f t.f.Z.D.` ` / ~ P L G ! ' ~.|.).C.$X:.h.u.r J L } X., ",
"a 8 8 8 9 7 7 A Z Z Z D ~ U.E.Y.Y.T.!._.-X#X%X:.;.XXn.A.P.rXO.= ",
"8 j B K F n l k k k h x P ` L.`.[.[.'.V.@X>.:.1.,.,.=X]./.eXO.= ",
"k x E J.` D k k z z z z x Z p.c.*X*X#X#X%X:.1.1.>.,.$X].~.eXO.= ",
"F U J.~.E./ L Z x z z x S D i i.s.s.s.j.@X2.2.1.XXg.a.S.7X6X$., ",
"( E.~.~.~.W.J.U N k k Z ~ J./ H 6 6 w u.XX2.3.%Xf.r 9 } O.> - - ",
"~ J.W.~.W.U.` P x k k S ` ~.L.Y q z l r i.g.g.f.u.u g { = = - < ",
"N L ` W.I.U S x x z z S ) W._.c.s.t x z M 7 M w y.g.M.6.- & - - ",
"h N ~ W.J.D k k z z z S ) W.`.n.e.e z x w r r u f.OX5.9.- & - - ",
"h N / W.J.L z k z z k S ( W.G.Y 6 z z e f.j.j.j.oXOX5.8.- & - - ",
"j x U ` ~ S z k z k k Z ( W.G.Y e e u r.@X2.oXz.z.N.=.6.- , - - ",
"j z N S Z x z z z k h Z ) W.`.n.j.j.j.@X2.oXi.e g ,X0.: - - - - ",
"D K K F D K K K K F F P _ 8X5XB.4.x.z.k.z.r.0 l s  .= , - - - - ",
"P.K.K.K.K.K.K.K.K.K.K.P.1X@.w.w.6.f e 0 r w m x s  .= , - - - - ",
"rXiXiXiXiXiXiXiXiXiXiXtX6X, aXaX..s b 2 b b c V s .., , < < - < ",
"%.#.#.#.#.#.#.#.#.#.#.&.$., sXsX..s C v b b c n s ..sX, < < < < ",
"O o o o o o o o o o o O     + + . d 5 4 5 5 4 5 d . + O       $ "
};
