/* XPM */
static const char *wall[] = {
/* columns rows colors chars-per-pixel */
"32 32 78 1 ",
"  c #1B264C",
". c #1B2A4F",
"X c #1A2F52",
"o c #1A3255",
"O c #193758",
"+ c #173E5D",
"@ c #183B5B",
"# c #004C45",
"$ c #004F48",
"% c #16405F",
"& c #18405F",
"* c #005650",
"= c #00615B",
"- c #154562",
"; c #134B65",
": c #164F6A",
"> c #0E556C",
", c #12526B",
"< c #0C5D72",
"1 c #145970",
"2 c #006567",
"3 c #0A6375",
"4 c #066C7B",
"5 c #086A79",
"6 c #136177",
"7 c #04727E",
"8 c #0E6F80",
"9 c #037681",
"0 c #007C85",
"q c #008189",
"w c #0F828E",
"e c #00898E",
"r c #0E8591",
"t c #008D92",
"y c #0D8A94",
"u c #009396",
"i c #009B96",
"p c #009699",
"a c #0B969D",
"s c #009B9D",
"d c #0B9EA3",
"f c #00A2A2",
"g c #01ADAB",
"h c #00B2AE",
"j c #02B3B2",
"k c #00B9B4",
"l c #00BFB8",
"z c #00C4B6",
"x c #00C5BA",
"c c #00CBBE",
"v c #05C7C0",
"b c #00CCC2",
"n c #00CEC6",
"m c #04CEC5",
"M c #03D0C6",
"N c #00D2C6",
"B c #00D3C8",
"V c #03D2C8",
"C c #03D4CA",
"Z c #00D6CA",
"A c #03D7CB",
"S c #00D5CC",
"D c #00D8CD",
"F c #00DECF",
"G c #00E3D3",
"H c #00E2D4",
"J c #00E7D6",
"K c #00E5D8",
"L c #00E8D8",
"P c #00ECDB",
"I c #00ECDC",
"U c #00F0DE",
"Y c #00F2E2",
"T c #00F5E3",
"R c #00F7E6",
"E c #00FBE8",
"W c #00FCEA",
"Q c #00FFEC",
/* pixels */
"70fNJJGGGGGGGGGGGGGGGGGGGGGGJLMw",
"2skxSYWRRRRRRRRRRRRRRRRRRRRQRBd6",
"*znsfDIILLLLLLLLLLLLLLLLLLITDy-X",
"$cKjfhcHILKLLKLLLLLLLLKJLULca1o ",
"$xRLlusZILLLLLLLLLLLLLLLLUDy-@OX",
"$zETZgfhbJILKLLLLLLLLKLULva1oo@o",
"$zRILHxusZILLLLLLLLLLLPYZr-@@@@o",
"$xRIPUZgfhbHIIIIIIIIIUJca1oo++@o",
"$xRILLLGxpsBIILLLLLLPYZr;@@@++@o",
"$xRILLIUDgfkxxxxxxxxxbg6Xo@+++@o",
"$xRILLLLLGxstttttttttuq,OO@+++@o",
"$xRILLLLIYNu79000000007,@@@+++@o",
"$xRILLLLPInp000000000q9,@@@+++@o",
"$xRILLLLLInp00qqqqqqqq9,@@++++@o",
"$zRILLLLLInp00qqqqqqqq9,@@++++@o",
"$zRILLLLLInp00qqqqqqqq9,@@++++@o",
"$zRILLLLLInp00qqqqqqqq9,@@@@@@@o",
"$zRILLLLLInp00qqqqqqqq9,@@@@+@@o",
"$xRILLLLLInp00qqqqqqqq9,@@++++@o",
"$xRILLLLLIns0qqqqqqqqe9,@@++++@o",
"$xRILLLLPIns0qqqqqqqqe0,OO++@@@o",
"$xRILLLLIYnt54777777774<;@@@++@o",
"$xRILLLLUTv8%-;;;;;;;;,54:@@++@o",
"$xRIKLLIJBd,oO@@@@@@@O-37<;@@@@o",
"$xRIKLUTmr,+O@@@@@@@@@+->54:@@@o",
"$xRILIKZd,XO+++@++++++@O%37<;@@X",
"$zRIUTmr,+O@++++@+++++@@+->54,OX",
"$zRYJZd:XO+++++@@+++++++@O%393-O",
"#zWRmr,+O@+++++++++++++++@+->55;",
"=cYZa;.o@@@@@@OOOO@@@@OO@@Oo@<4>",
"iFmw;o.XoooooooooooooooooooXo@;>",
"jZj6-;:,:::::::::::::::::::,:;,3"
};
